( File created with mid2cnc.py - http://tim.cexx.org/?p=633 )
( Hacked by Miles Lightwood of TeamTeamUSA to support the MakerBot Cupcake CNC - m at teamteamusa dot com )
( Input file was ../man_on_the_silver_mountain/man_on_the_silver_mountain.mid )
( Steps per inch: 800.0 )
( Machine envelope: )
( x = 3.93 )
( y = 3.93 )
( z = 5 )
G21
G00 X0 Y0 Z0
G01 X0.0000000000 Y0.0000000000 Z0.0329214917 F7.3499144247
G01 X0.0000000000 Y0.0000000000 Z0.0987644751 F14.6998288493
G01 X0.0000000000 Y0.0000000000 Z0.1574239046 F13.0960586787
G01 X0.0000000000 Y0.0000000000 Z0.2232668880 F14.6998288493
G01 X0.0000000000 Y0.0000000000 Z0.3015678323 F17.4811410569
G01 X0.0000000000 Y0.0000000000 Z0.3344893240 F7.3499144247
G01 X0.0000000000 Y0.0000000000 Z0.3931487535 F13.0960586787
G01 X0.0000000000 Y0.0000000000 Z0.4589917369 F14.6998288493
G01 X0.0000000000 Y0.0000000000 Z0.4919132286 F7.3499144247
G01 X0.0000000000 Y0.0000000000 Z0.5577562119 F14.6998288493
G01 X0.0000000000 Y0.0000000000 Z0.6164156414 F13.0960586787
G01 X0.0000000000 Y0.0000000000 Z0.6822586248 F14.6998288493
G01 X0.0000000000 Y0.0000000000 Z0.8573569849 F19.6219173975
G01 X0.0000000000 Y0.0000000000 Z1.0133518895 F17.4811410569
G01 X0.0000000000 Y0.0000000000 Z1.0462733812 F7.3499144247
G01 X0.0000000000 Y0.0000000000 Z1.1121163646 F14.6998288493
G01 X0.0000000000 Y0.0000000000 Z1.1707757941 F13.0960586787
G01 X0.0000000000 Y0.0000000000 Z1.2366187775 F14.6998288493
G01 X0.0000000000 Y0.0000000000 Z1.3149197218 F17.4811410569
G01 X0.0000000000 Y0.0000000000 Z1.3478412135 F7.3499144247
G01 X0.0000000000 Y0.0000000000 Z1.4065006430 F13.0960586787
G01 X0.0000000000 Y0.0000000000 Z1.4723436264 F14.6998288493
G01 X0.0000000000 Y0.0000000000 Z1.5052651181 F7.3499144247
G01 X0.0000000000 Y0.0000000000 Z1.5711081015 F14.6998288493
G01 X0.0000000000 Y0.0000000000 Z1.6297675310 F13.0960586787
G01 X0.0000000000 Y0.0000000000 Z1.8902553572 F11.6672618896
G01 X0.0000000000 Y0.0000000000 Z1.9231768489 F7.3499144247
G01 X0.0000000000 Y0.0000000000 Z1.9890198323 F14.6998288493
G01 X0.0000000000 Y0.0000000000 Z2.0476792618 F13.0960586787
G01 X0.0000000000 Y0.0000000000 Z2.1135222451 F14.6998288493
G01 X0.0000000000 Y0.0000000000 Z2.1918231895 F17.4811410569
G01 X0.0000000000 Y0.0000000000 Z2.2247446812 F7.3499144247
G01 X0.0000000000 Y0.0000000000 Z2.2834041106 F13.0960586787
G01 X0.0000000000 Y0.0000000000 Z2.3492470940 F14.6998288493
G01 X0.0000000000 Y0.0000000000 Z2.3821685857 F7.3499144247
G01 X0.0000000000 Y0.0000000000 Z2.4480115691 F14.6998288493
G01 X0.0000000000 Y0.0000000000 Z2.5066709986 F13.0960586787
G01 X0.0000000000 Y0.0000000000 Z2.5725139820 F14.6998288493
G01 X0.0000000000 Y0.0000000000 Z2.7476123421 F19.6219173975
G01 X0.0000000000 Y0.0000000000 Z2.9036072467 F17.4811410569
G01 X0.0000000000 Y0.0000000000 Z2.9365287384 F7.3499144247
G01 X0.0000000000 Y0.0000000000 Z3.0023717218 F14.6998288493
G01 X0.0000000000 Y0.0000000000 Z3.0610311513 F13.0960586787
G01 X0.0000000000 Y0.0000000000 Z3.1268741347 F14.6998288493
G01 X0.0000000000 Y0.0000000000 Z3.2051750790 F17.4811410569
G01 X0.0000000000 Y0.0000000000 Z3.2380965707 F7.3499144247
G01 X0.0000000000 Y0.0000000000 Z3.2967560002 F13.0960586787
G01 X0.0000000000 Y0.0000000000 Z3.3625989836 F14.6998288493
G01 X0.0000000000 Y0.0000000000 Z3.3955204752 F7.3499144247
G01 X0.0000000000 Y0.0000000000 Z3.4613634586 F14.6998288493
G01 X0.0000000000 Y0.0000000000 Z3.5200228881 F13.0960586787
G01 X0.0000000000 Y0.0000000000 Z3.7805107143 F11.6672618896
G01 X0.0000000000 Y0.0000000000 Z3.7475892227 F7.3499144247
G01 X0.0000000000 Y0.0000000000 Z3.6817462393 F14.6998288493
G01 X0.0000000000 Y0.0000000000 Z3.6230868098 F13.0960586787
G01 X0.0000000000 Y0.0000000000 Z3.5572438264 F14.6998288493
G01 X0.0000000000 Y0.0000000000 Z3.4789428821 F17.4811410569
G01 X0.0000000000 Y0.0000000000 Z3.4460213904 F7.3499144247
G01 X0.0000000000 Y0.0000000000 Z3.3873619609 F13.0960586787
G01 X0.0000000000 Y0.0000000000 Z3.3215189775 F14.6998288493
G01 X0.0000000000 Y0.0000000000 Z3.2885974858 F7.3499144247
G01 X0.0000000000 Y0.0000000000 Z3.2227545024 F14.6998288493
G01 X0.0000000000 Y0.0000000000 Z3.1640950729 F13.0960586787
G01 X0.0000000000 Y0.0000000000 Z3.0982520895 F14.6998288493
G01 X0.0000000000 Y0.0000000000 Z2.9231537294 F19.6219173975
G01 X0.0000000000 Y0.0000000000 Z2.7671588248 F17.4811410569
G01 X0.0000000000 Y0.0000000000 Z2.7342373331 F7.3499144247
G01 X0.0000000000 Y0.0000000000 Z2.6683943498 F14.6998288493
G01 X0.0000000000 Y0.0000000000 Z2.6097349203 F13.0960586787
G01 X0.0000000000 Y0.0000000000 Z2.5438919369 F14.6998288493
G01 X0.0000000000 Y0.0000000000 Z2.4655909925 F17.4811410569
G01 X0.0000000000 Y0.0000000000 Z2.4326695009 F7.3499144247
G01 X0.0000000000 Y0.0000000000 Z2.3740100714 F13.0960586787
G01 X0.0000000000 Y0.0000000000 Z2.3081670880 F14.6998288493
G01 X0.0000000000 Y0.0000000000 Z2.2752455963 F7.3499144247
G01 X0.0000000000 Y0.0000000000 Z2.2094026129 F14.6998288493
G01 X0.0000000000 Y0.0000000000 Z2.1507431834 F13.0960586787
G01 X0.0000000000 Y0.0000000000 Z2.0466290756 F11.6672618896
G01 X0.0000000000 Y0.0000000000 Z2.0272055855 F8.7405705285
G01 X0.0000000000 Y0.0000000000 Z2.0054034550 F9.8109586988
G01 X0.0000000000 Y0.0000000000 Z1.9794762064 F11.6672618896
G01 X0.0000000000 Y0.0000000000 Z1.9503738538 F13.0960586787
G01 X0.0000000000 Y0.0000000000 Z1.9309503637 F8.7405705285
G01 X0.0000000000 Y0.0000000000 Z1.9091482333 F9.8109586988
G01 X0.0000000000 Y0.0000000000 Z1.8507161659 F6.5480293394
G01 X0.0000000000 Y0.0000000000 Z1.7338520312 F13.0960586787
G01 X0.0000000000 Y0.0000000000 Z1.7144285411 F8.7405705285
G01 X0.0000000000 Y0.0000000000 Z1.6486814915 F9.8109586988
G01 X0.0000000000 Y0.0000000000 Z1.4735831314 F19.6219173975
G01 X0.0000000000 Y0.0000000000 Z1.4079953534 F7.3499144247
G01 X0.0000000000 Y0.0000000000 Z1.2768197973 F14.6998288493
G01 X0.0000000000 Y0.0000000000 Z1.2438983056 F7.3499144247
G01 X0.0000000000 Y0.0000000000 Z1.2109768139 F7.3499144247
G01 X0.0000000000 Y0.0000000000 Z1.0798012579 F14.6998288493
G01 X0.0000000000 Y0.0000000000 Z1.0275416473 F11.6672618896
G01 X0.0000000000 Y0.0000000000 Z0.9616986639 F14.6998288493
G01 X0.0000000000 Y0.0000000000 Z0.8057037594 F17.4811410569
G01 X0.0000000000 Y0.0000000000 Z0.7617588402 F9.8109586988
G01 X0.0000000000 Y0.0000000000 Z0.6959158568 F14.6998288493
G01 X0.0000000000 Y0.0000000000 Z0.5208174967 F19.6219173975
G01 X0.0000000000 Y0.0000000000 Z0.4623854293 F6.5480293394
G01 X0.0000000000 Y0.0000000000 Z0.3455212946 F13.0960586787
G01 X0.0000000000 Y0.0000000000 Z0.3161915798 F6.5480293394
G01 X0.0000000000 Y0.0000000000 Z0.2868618651 F6.5480293394
G01 X0.0000000000 Y0.0000000000 Z0.1699977304 F13.0960586787
G01 X0.0000000000 Y0.0000000000 Z0.2355855084 F7.3499144247
G01 X0.0000000000 Y0.0000000000 Z0.3667610644 F14.6998288493
G01 X0.0000000000 Y0.0000000000 Z0.3960907792 F6.5480293394
G01 X0.0000000000 Y0.0000000000 Z0.4254204939 F6.5480293394
G01 X0.0000000000 Y0.0000000000 Z0.5422846287 F13.0960586787
G01 X0.0000000000 Y0.0000000000 Z0.5617081187 F8.7405705285
G01 X0.0000000000 Y0.0000000000 Z0.6274551683 F9.8109586988
G01 X0.0000000000 Y0.0000000000 Z0.8025535285 F19.6219173975
G01 X0.0000000000 Y0.0000000000 Z0.8464984476 F9.8109586988
G01 X0.0000000000 Y0.0000000000 Z0.8904433668 F9.8109586988
G01 X0.0000000000 Y0.0000000000 Z1.0655417269 F19.6219173975
G01 X0.0000000000 Y0.0000000000 Z1.1696558347 F11.6672618896
G01 X0.0000000000 Y0.0000000000 Z1.2354988181 F14.6998288493
G01 X0.0000000000 Y0.0000000000 Z1.3137997624 F17.4811410569
G01 X0.0000000000 Y0.0000000000 Z1.4013489425 F9.8109586988
G01 X0.0000000000 Y0.0000000000 Z1.5764473026 F19.6219173975
G01 X0.0000000000 Y0.0000000000 Z1.6420350806 F7.3499144247
G01 X0.0000000000 Y0.0000000000 Z1.7732106367 F14.6998288493
G01 X0.0000000000 Y0.0000000000 Z1.8061321284 F7.3499144247
G01 X0.0000000000 Y0.0000000000 Z1.8390536201 F7.3499144247
G01 X0.0000000000 Y0.0000000000 Z1.9544064437 F14.6998288493
G01 X0.0000000000 Y0.0000000000 Z1.9899272770 F33.0000000000
G01 X0.0000000000 Y0.0000000000 Z2.0185731104 F33.0000000000
G01 X0.0000000000 Y0.0000000000 Z2.0216321184 F11.0124287969
G01 X0.0000000000 Y0.0000000000 Z2.0725612354 F26.1921173575
G01 X0.0000000000 Y0.0000000000 Z2.0756202434 F11.0124287969
G01 X0.0000000000 Y0.0000000000 Z2.1184463554 F22.0248575938
G01 X0.0000000000 Y0.0000000000 Z2.1215053634 F11.0124287969
G01 X0.0000000000 Y0.0000000000 Z2.1724344805 F26.1921173575
G01 X0.0000000000 Y0.0000000000 Z2.1754934885 F11.0124287969
G01 X0.0000000000 Y0.0000000000 Z2.2121601552 F33.0000000000
G01 X0.0000000000 Y0.0000000000 Z2.2396601552 F33.0000000000
G01 X0.0000000000 Y0.0000000000 Z2.2442434885 F16.5000000000
G01 X0.0000000000 Y0.0000000000 Z2.2951726056 F26.1921173575
G01 X0.0000000000 Y0.0000000000 Z2.2997559389 F16.5000000000
G01 X0.0000000000 Y0.0000000000 Z2.3425820509 F22.0248575938
G01 X0.0000000000 Y0.0000000000 Z2.3471653842 F16.5000000000
G01 X0.0000000000 Y0.0000000000 Z2.3980945013 F26.1921173575
G01 X0.0000000000 Y0.0000000000 Z2.4026778347 F16.5000000000
G01 X0.0000000000 Y0.0000000000 Z2.4404903347 F33.0000000000
G01 X0.0000000000 Y0.0000000000 Z2.4668445013 F33.0000000000
G01 X0.0000000000 Y0.0000000000 Z2.4729625173 F22.0248575938
G01 X0.0000000000 Y0.0000000000 Z2.5238916344 F26.1921173575
G01 X0.0000000000 Y0.0000000000 Z2.5300096504 F22.0248575938
G01 X0.0000000000 Y0.0000000000 Z2.5728357624 F22.0248575938
G04 P0.0160
G01 X0.0000000000 Y0.0000000000 Z2.6237648795 F26.1921173575
G04 P0.0160
G01 X0.0000000000 Y0.0000000000 Z2.6627232128 F33.0000000000
G01 X0.0000000000 Y0.0000000000 Z2.6879315461 F33.0000000000
G01 X0.0000000000 Y0.0000000000 Z2.6925148795 F16.5000000000
G01 X0.0000000000 Y0.0000000000 Z2.7434439966 F26.1921173575
G01 X0.0000000000 Y0.0000000000 Z2.7480273299 F16.5000000000
G01 X0.0000000000 Y0.0000000000 Z2.7908534419 F22.0248575938
G01 X0.0000000000 Y0.0000000000 Z2.7954367752 F16.5000000000
G01 X0.0000000000 Y0.0000000000 Z2.8463658923 F26.1921173575
G01 X0.0000000000 Y0.0000000000 Z2.8509492256 F16.5000000000
G01 X0.0000000000 Y0.0000000000 Z2.8934381102 F34.9622821139
G01 X0.0000000000 Y0.0000000000 Z2.9189314409 F34.9622821139
G01 X0.0000000000 Y0.0000000000 Z2.9213593771 F8.7405705285
G01 X0.0000000000 Y0.0000000000 Z2.9722884942 F26.1921173575
G01 X0.0000000000 Y0.0000000000 Z2.9747164305 F8.7405705285
G01 X0.0000000000 Y0.0000000000 Z3.0175425424 F22.0248575938
G01 X0.0000000000 Y0.0000000000 Z3.0199704787 F8.7405705285
G01 X0.0000000000 Y0.0000000000 Z3.0708995958 F26.1921173575
G01 X0.0000000000 Y0.0000000000 Z3.0733275320 F8.7405705285
G01 X0.0000000000 Y0.0000000000 Z3.1170303847 F34.9622821139
G01 X0.0000000000 Y0.0000000000 Z3.1413097473 F34.9622821139
G01 X0.0000000000 Y0.0000000000 Z3.1449475413 F13.0960586787
G01 X0.0000000000 Y0.0000000000 Z3.1958766584 F26.1921173575
G01 X0.0000000000 Y0.0000000000 Z3.1995144525 F13.0960586787
G01 X0.0000000000 Y0.0000000000 Z3.2423405645 F22.0248575938
G01 X0.0000000000 Y0.0000000000 Z3.2459783586 F13.0960586787
G01 X0.0000000000 Y0.0000000000 Z3.2969074757 F26.1921173575
G01 X0.0000000000 Y0.0000000000 Z3.3005452697 F13.0960586787
G01 X0.0000000000 Y0.0000000000 Z3.3454620905 F34.9622821139
G01 X0.0000000000 Y0.0000000000 Z3.3685274850 F34.9622821139
G01 X0.0000000000 Y0.0000000000 Z3.3733833575 F17.4811410569
G01 X0.0000000000 Y0.0000000000 Z3.4243124746 F26.1921173575
G01 X0.0000000000 Y0.0000000000 Z3.4291683471 F17.4811410569
G01 X0.0000000000 Y0.0000000000 Z3.4719944591 F22.0248575938
G01 X0.0000000000 Y0.0000000000 Z3.4768503316 F17.4811410569
G01 X0.0000000000 Y0.0000000000 Z3.5277794487 F26.1921173575
G01 X0.0000000000 Y0.0000000000 Z3.5326353212 F17.4811410569
G01 X0.0000000000 Y0.0000000000 Z3.5787661101 F34.9622821139
G01 X0.0000000000 Y0.0000000000 Z3.6006175364 F34.9622821139
G01 X0.0000000000 Y0.0000000000 Z3.6042553305 F13.0960586787
G01 X0.0000000000 Y0.0000000000 Z3.6551844476 F26.1921173575
G01 X0.0000000000 Y0.0000000000 Z3.6588222416 F13.0960586787
G01 X0.0000000000 Y0.0000000000 Z3.7016483536 F22.0248575938
G01 X0.0000000000 Y0.0000000000 Z3.7052861477 F13.0960586787
G01 X0.0000000000 Y0.0000000000 Z3.7562152648 F26.1921173575
G01 X0.0000000000 Y0.0000000000 Z3.7525774707 F13.0960586787
G01 X0.0000000000 Y0.0000000000 Z3.7078899707 F33.0000000000
G01 X0.0000000000 Y0.0000000000 Z3.6884108040 F33.0000000000
G01 X0.0000000000 Y0.0000000000 Z3.6853517960 F11.0124287969
G01 X0.0000000000 Y0.0000000000 Z3.6344226790 F26.1921173575
G01 X0.0000000000 Y0.0000000000 Z3.6313636710 F11.0124287969
G01 X0.0000000000 Y0.0000000000 Z3.5885375590 F22.0248575938
G01 X0.0000000000 Y0.0000000000 Z3.5854785510 F11.0124287969
G01 X0.0000000000 Y0.0000000000 Z3.5345494339 F26.1921173575
G01 X0.0000000000 Y0.0000000000 Z3.5314904259 F11.0124287969
G01 X0.0000000000 Y0.0000000000 Z3.4856570926 F33.0000000000
G01 X0.0000000000 Y0.0000000000 Z3.4673237592 F33.0000000000
G01 X0.0000000000 Y0.0000000000 Z3.4627404259 F16.5000000000
G01 X0.0000000000 Y0.0000000000 Z3.4118113088 F26.1921173575
G01 X0.0000000000 Y0.0000000000 Z3.4072279755 F16.5000000000
G01 X0.0000000000 Y0.0000000000 Z3.3644018635 F22.0248575938
G01 X0.0000000000 Y0.0000000000 Z3.3598185301 F16.5000000000
G01 X0.0000000000 Y0.0000000000 Z3.3088894131 F26.1921173575
G01 X0.0000000000 Y0.0000000000 Z3.3043060797 F16.5000000000
G01 X0.0000000000 Y0.0000000000 Z3.2573269131 F33.0000000000
G01 X0.0000000000 Y0.0000000000 Z3.2401394131 F33.0000000000
G01 X0.0000000000 Y0.0000000000 Z3.2340213971 F22.0248575938
G01 X0.0000000000 Y0.0000000000 Z3.1830922800 F26.1921173575
G01 X0.0000000000 Y0.0000000000 Z3.1769742640 F22.0248575938
G01 X0.0000000000 Y0.0000000000 Z3.1341481520 F22.0248575938
G04 P0.0160
G01 X0.0000000000 Y0.0000000000 Z3.0832190349 F26.1921173575
G04 P0.0160
G01 X0.0000000000 Y0.0000000000 Z3.0350940349 F33.0000000000
G01 X0.0000000000 Y0.0000000000 Z3.0190523682 F33.0000000000
G01 X0.0000000000 Y0.0000000000 Z3.0144690349 F16.5000000000
G01 X0.0000000000 Y0.0000000000 Z2.9635399178 F26.1921173575
G01 X0.0000000000 Y0.0000000000 Z2.9589565845 F16.5000000000
G01 X0.0000000000 Y0.0000000000 Z2.9161304725 F22.0248575938
G01 X0.0000000000 Y0.0000000000 Z2.9115471392 F16.5000000000
G01 X0.0000000000 Y0.0000000000 Z2.8606180221 F26.1921173575
G01 X0.0000000000 Y0.0000000000 Z2.8560346888 F16.5000000000
G01 X0.0000000000 Y0.0000000000 Z2.7974414632 F39.2438347951
G01 X0.0000000000 Y0.0000000000 Z2.7797272322 F39.2438347951
G01 X0.0000000000 Y0.0000000000 Z2.7774355655 F8.2500000000
G01 X0.0000000000 Y0.0000000000 Z2.7132688989 F33.0000000000
G01 X0.0000000000 Y0.0000000000 Z2.7109772322 F8.2500000000
G01 X0.0000000000 Y0.0000000000 Z2.6629065468 F24.7220667685
G01 X0.0000000000 Y0.0000000000 Z2.6606148802 F8.2500000000
G01 X0.0000000000 Y0.0000000000 Z2.5964482135 F33.0000000000
G01 X0.0000000000 Y0.0000000000 Z2.5941565468 F8.2500000000
G01 X0.0000000000 Y0.0000000000 Z2.5342006881 F39.2438347951
G01 X0.0000000000 Y0.0000000000 Z2.5178490903 F39.2438347951
G01 X0.0000000000 Y0.0000000000 Z2.5144154699 F12.3610333842
G01 X0.0000000000 Y0.0000000000 Z2.4502488032 F33.0000000000
G01 X0.0000000000 Y0.0000000000 Z2.4468151828 F12.3610333842
G01 X0.0000000000 Y0.0000000000 Z2.3987444975 F24.7220667685
G01 X0.0000000000 Y0.0000000000 Z2.3953108771 F12.3610333842
G01 X0.0000000000 Y0.0000000000 Z2.3311442104 F33.0000000000
G01 X0.0000000000 Y0.0000000000 Z2.3277105900 F12.3610333842
G01 X0.0000000000 Y0.0000000000 Z2.2663920982 F39.2438347951
G01 X0.0000000000 Y0.0000000000 Z2.2514031335 F39.2438347951
G01 X0.0000000000 Y0.0000000000 Z2.2468198001 F16.5000000000
G01 X0.0000000000 Y0.0000000000 Z2.1826531335 F33.0000000000
G01 X0.0000000000 Y0.0000000000 Z2.1780698001 F16.5000000000
G01 X0.0000000000 Y0.0000000000 Z2.1299991148 F24.7220667685
G01 X0.0000000000 Y0.0000000000 Z2.1254157814 F16.5000000000
G01 X0.0000000000 Y0.0000000000 Z2.0612491148 F33.0000000000
G01 X0.0000000000 Y0.0000000000 Z2.0566657814 F16.5000000000
G01 X0.0000000000 Y0.0000000000 Z1.9939846564 F39.2438347951
G01 X0.0000000000 Y0.0000000000 Z1.9803583249 F39.2438347951
G01 X0.0000000000 Y0.0000000000 Z1.9769247045 F12.3610333842
G01 X0.0000000000 Y0.0000000000 Z1.9127580378 F33.0000000000
G01 X0.0000000000 Y0.0000000000 Z1.9093244174 F12.3610333842
G01 X0.0000000000 Y0.0000000000 Z1.8612537321 F24.7220667685
G01 X0.0000000000 Y0.0000000000 Z1.8578201117 F12.3610333842
G01 X0.0000000000 Y0.0000000000 Z1.7936534450 F33.0000000000
G01 X0.0000000000 Y0.0000000000 Z1.7902198246 F12.3610333842
G01 X0.0000000000 Y0.0000000000 Z1.7183331366 F44.0497151876
G01 X0.0000000000 Y0.0000000000 Z1.7045676007 F44.0497151876
G01 X0.0000000000 Y0.0000000000 Z1.7021396644 F8.7405705285
G01 X0.0000000000 Y0.0000000000 Z1.6341574492 F34.9622821139
G01 X0.0000000000 Y0.0000000000 Z1.6317295129 F8.7405705285
G01 X0.0000000000 Y0.0000000000 Z1.5808003958 F26.1921173575
G01 X0.0000000000 Y0.0000000000 Z1.5783724596 F8.7405705285
G01 X0.0000000000 Y0.0000000000 Z1.5103902444 F34.9622821139
G01 X0.0000000000 Y0.0000000000 Z1.5079623081 F8.7405705285
G01 X0.0000000000 Y0.0000000000 Z1.4345461161 F44.0497151876
G01 X0.0000000000 Y0.0000000000 Z1.4223100841 F44.0497151876
G01 X0.0000000000 Y0.0000000000 Z1.4186722900 F13.0960586787
G01 X0.0000000000 Y0.0000000000 Z1.3506900748 F34.9622821139
G01 X0.0000000000 Y0.0000000000 Z1.3470522807 F13.0960586787
G01 X0.0000000000 Y0.0000000000 Z1.3024893033 F26.1921173575
G01 X0.0000000000 Y0.0000000000 Z1.2961231637 F26.1921173575
G01 X0.0000000000 Y0.0000000000 Z1.2912672911 F17.4811410569
G01 X0.0000000000 Y0.0000000000 Z1.2232850759 F34.9622821139
G01 X0.0000000000 Y0.0000000000 Z1.2184292034 F17.4811410569
G01 X0.0000000000 Y0.0000000000 Z1.1374065514 F46.6690475583
G01 X0.0000000000 Y0.0000000000 Z1.1276838332 F46.6690475583
G01 X0.0000000000 Y0.0000000000 Z1.1249585668 F9.8109586988
G01 X0.0000000000 Y0.0000000000 Z1.0486511103 F39.2438347951
G01 X0.0000000000 Y0.0000000000 Z1.0459258440 F9.8109586988
G01 X0.0000000000 Y0.0000000000 Z0.9887598429 F29.3996576986
G01 X0.0000000000 Y0.0000000000 Z0.9860345766 F9.8109586988
G01 X0.0000000000 Y0.0000000000 Z0.9097271201 F39.2438347951
G01 X0.0000000000 Y0.0000000000 Z0.9070018538 F9.8109586988
G01 X0.0000000000 Y0.0000000000 Z0.8243587487 F46.6690475583
G01 X0.0000000000 Y0.0000000000 Z0.8162564835 F46.6690475583
G01 X0.0000000000 Y0.0000000000 Z0.8121731977 F14.6998288493
G01 X0.0000000000 Y0.0000000000 Z0.7358657412 F39.2438347951
G01 X0.0000000000 Y0.0000000000 Z0.7317824554 F14.6998288493
G01 X0.0000000000 Y0.0000000000 Z0.6786997401 F29.3996576986
G01 X0.0000000000 Y0.0000000000 Z0.6746164543 F29.3996576986
G01 X0.0000000000 Y0.0000000000 Z0.6691659217 F19.6219173975
G01 X0.0000000000 Y0.0000000000 Z0.5928584651 F39.2438347951
G01 X0.0000000000 Y0.0000000000 Z0.5874079325 F19.6219173975
G01 X0.0000000000 Y0.0000000000 Z0.5063442206 F44.0497151876
G01 X0.0000000000 Y0.0000000000 Z0.5017557086 F44.0497151876
G01 X0.0000000000 Y0.0000000000 Z0.4993277723 F8.7405705285
G01 X0.0000000000 Y0.0000000000 Z0.4313455571 F34.9622821139
G01 X0.0000000000 Y0.0000000000 Z0.4289176208 F8.7405705285
G01 X0.0000000000 Y0.0000000000 Z0.3779885037 F26.1921173575
G01 X0.0000000000 Y0.0000000000 Z0.3755605675 F8.7405705285
G01 X0.0000000000 Y0.0000000000 Z0.3075783523 F34.9622821139
G01 X0.0000000000 Y0.0000000000 Z0.3051504160 F8.7405705285
G01 X0.0000000000 Y0.0000000000 Z0.2225572000 F44.0497151876
G01 X0.0000000000 Y0.0000000000 Z0.2194981920 F44.0497151876
G01 X0.0000000000 Y0.0000000000 Z0.2158603979 F13.0960586787
G01 X0.0000000000 Y0.0000000000 Z0.1478781827 F34.9622821139
G01 X0.0000000000 Y0.0000000000 Z0.1515159768 F13.0960586787
G01 X0.0000000000 Y0.0000000000 Z0.2015356454 F26.1921173575
G01 X0.0000000000 Y0.0000000000 Z0.2024450939 F26.1921173575
G01 X0.0000000000 Y0.0000000000 Z0.2073009664 F17.4811410569
G01 X0.0000000000 Y0.0000000000 Z0.2752831816 F34.9622821139
G01 X0.0000000000 Y0.0000000000 Z0.2801390541 F17.4811410569
G01 X0.0000000000 Y0.0000000000 Z0.3481212694 F34.9622821139
G01 X0.0000000000 Y0.0000000000 Z0.3501629123 F7.3499144247
G01 X0.0000000000 Y0.0000000000 Z0.4073289133 F29.3996576986
G01 X0.0000000000 Y0.0000000000 Z0.4093705562 F7.3499144247
G01 X0.0000000000 Y0.0000000000 Z0.4521966682 F22.0248575938
G01 X0.0000000000 Y0.0000000000 Z0.4542383111 F7.3499144247
G01 X0.0000000000 Y0.0000000000 Z0.5114043122 F29.3996576986
G01 X0.0000000000 Y0.0000000000 Z0.5134459551 F7.3499144247
G01 X0.0000000000 Y0.0000000000 Z0.5814281703 F34.9622821139
G01 X0.0000000000 Y0.0000000000 Z0.5816833757 F7.3499144247
G01 X0.0000000000 Y0.0000000000 Z0.5852562507 F14.6998288493
G01 X0.0000000000 Y0.0000000000 Z0.6424222518 F29.3996576986
G01 X0.0000000000 Y0.0000000000 Z0.6465055376 F14.6998288493
G01 X0.0000000000 Y0.0000000000 Z0.6893316496 F22.0248575938
G01 X0.0000000000 Y0.0000000000 Z0.6934149354 F14.6998288493
G01 X0.0000000000 Y0.0000000000 Z0.7505809365 F29.3996576986
G01 X0.0000000000 Y0.0000000000 Z0.7546642223 F14.6998288493
G01 X0.0000000000 Y0.0000000000 Z0.8118302233 F29.3996576986
G01 X0.0000000000 Y0.0000000000 Z0.8128510448 F14.6998288493
G01 X0.0000000000 Y0.0000000000 Z0.8152817244 F11.6672618896
G01 X0.0000000000 Y0.0000000000 Z0.8606544095 F23.3345237792
G01 X0.0000000000 Y0.0000000000 Z0.8638953156 F11.6672618896
G01 X0.0000000000 Y0.0000000000 Z0.8978864232 F17.4811410569
G01 X0.0000000000 Y0.0000000000 Z0.9011273293 F11.6672618896
G01 X0.0000000000 Y0.0000000000 Z0.9465000144 F23.3345237792
G01 X0.0000000000 Y0.0000000000 Z0.9497409205 F11.6672618896
G01 X0.0000000000 Y0.0000000000 Z1.0069069215 F29.3996576986
G01 X0.0000000000 Y0.0000000000 Z1.0081222613 F11.6672618896
G01 X0.0000000000 Y0.0000000000 Z1.0106743149 F14.6998288493
G01 X0.0000000000 Y0.0000000000 Z1.0560470001 F23.3345237792
G01 X0.0000000000 Y0.0000000000 Z1.0601302859 F14.6998288493
G01 X0.0000000000 Y0.0000000000 Z1.0941213935 F17.4811410569
G01 X0.0000000000 Y0.0000000000 Z1.0961630364 F14.6998288493
G01 X0.0000000000 Y0.0000000000 Z1.0985909726 F17.4811410569
G01 X0.0000000000 Y0.0000000000 Z1.1439636577 F23.3345237792
G01 X0.0000000000 Y0.0000000000 Z1.1488195303 F17.4811410569
G01 X0.0000000000 Y0.0000000000 Z1.2129861969 F33.0000000000
G01 X0.0000000000 Y0.0000000000 Z1.2160211173 F17.4811410569
G01 X0.0000000000 Y0.0000000000 Z1.2167032036 F6.5480293394
G01 X0.0000000000 Y0.0000000000 Z1.2676323207 F26.1921173575
G01 X0.0000000000 Y0.0000000000 Z1.2694512178 F6.5480293394
G01 X0.0000000000 Y0.0000000000 Z1.3076049460 F19.6219173975
G01 X0.0000000000 Y0.0000000000 Z1.3094238431 F6.5480293394
G01 X0.0000000000 Y0.0000000000 Z1.3603529602 F26.1921173575
G01 X0.0000000000 Y0.0000000000 Z1.3621718572 F6.5480293394
G01 X0.0000000000 Y0.0000000000 Z1.4263385239 F33.0000000000
G01 X0.0000000000 Y0.0000000000 Z1.4277026966 F6.5480293394
G01 X0.0000000000 Y0.0000000000 Z1.4286121452 F13.0960586787
G01 X0.0000000000 Y0.0000000000 Z1.4795412622 F26.1921173575
G01 X0.0000000000 Y0.0000000000 Z1.4831790563 F13.0960586787
G01 X0.0000000000 Y0.0000000000 Z1.5213327846 F19.6219173975
G01 X0.0000000000 Y0.0000000000 Z1.5249705787 F13.0960586787
G01 X0.0000000000 Y0.0000000000 Z1.5758996958 F26.1921173575
G01 X0.0000000000 Y0.0000000000 Z1.6081851182 F13.0960586787
G01 X0.0000000000 Y0.0000000000 Z1.6411066099 F7.3499144247
G01 X0.0000000000 Y0.0000000000 Z1.7069495933 F14.6998288493
G01 X0.0000000000 Y0.0000000000 Z1.7656090228 F13.0960586787
G01 X0.0000000000 Y0.0000000000 Z1.8314520062 F14.6998288493
G01 X0.0000000000 Y0.0000000000 Z1.9097529505 F17.4811410569
G01 X0.0000000000 Y0.0000000000 Z1.9426744422 F7.3499144247
G01 X0.0000000000 Y0.0000000000 Z2.0013338717 F13.0960586787
G01 X0.0000000000 Y0.0000000000 Z2.0671768551 F14.6998288493
G01 X0.0000000000 Y0.0000000000 Z2.1000983468 F7.3499144247
G01 X0.0000000000 Y0.0000000000 Z2.1659413301 F14.6998288493
G01 X0.0000000000 Y0.0000000000 Z2.2246007596 F13.0960586787
G01 X0.0000000000 Y0.0000000000 Z2.2904437430 F14.6998288493
G01 X0.0000000000 Y0.0000000000 Z2.4655421031 F19.6219173975
G01 X0.0000000000 Y0.0000000000 Z2.6215370077 F17.4811410569
G01 X0.0000000000 Y0.0000000000 Z2.6544584994 F7.3499144247
G01 X0.0000000000 Y0.0000000000 Z2.7203014828 F14.6998288493
G01 X0.0000000000 Y0.0000000000 Z2.7789609123 F13.0960586787
G01 X0.0000000000 Y0.0000000000 Z2.8448038957 F14.6998288493
G01 X0.0000000000 Y0.0000000000 Z2.9231048400 F17.4811410569
G01 X0.0000000000 Y0.0000000000 Z2.9560263317 F7.3499144247
G01 X0.0000000000 Y0.0000000000 Z3.0146857612 F13.0960586787
G01 X0.0000000000 Y0.0000000000 Z3.0805287446 F14.6998288493
G01 X0.0000000000 Y0.0000000000 Z3.1134502363 F7.3499144247
G01 X0.0000000000 Y0.0000000000 Z3.1792932197 F14.6998288493
G01 X0.0000000000 Y0.0000000000 Z3.2379526492 F13.0960586787
G01 X0.0000000000 Y0.0000000000 Z3.4984404754 F11.6672618896
G01 X0.0000000000 Y0.0000000000 Z3.5313619671 F7.3499144247
G01 X0.0000000000 Y0.0000000000 Z3.5972049505 F14.6998288493
G01 X0.0000000000 Y0.0000000000 Z3.6558643799 F13.0960586787
G01 X0.0000000000 Y0.0000000000 Z3.7217073633 F14.6998288493
G01 X0.0000000000 Y0.0000000000 Z3.8000083077 F17.4811410569
G01 X0.0000000000 Y0.0000000000 Z3.7670868160 F7.3499144247
G01 X0.0000000000 Y0.0000000000 Z3.7084273865 F13.0960586787
G01 X0.0000000000 Y0.0000000000 Z3.6425844031 F14.6998288493
G01 X0.0000000000 Y0.0000000000 Z3.6096629114 F7.3499144247
G01 X0.0000000000 Y0.0000000000 Z3.5438199280 F14.6998288493
G01 X0.0000000000 Y0.0000000000 Z3.4851604985 F13.0960586787
G01 X0.0000000000 Y0.0000000000 Z3.4193175151 F14.6998288493
G01 X0.0000000000 Y0.0000000000 Z3.2442191550 F19.6219173975
G01 X0.0000000000 Y0.0000000000 Z3.0882242504 F17.4811410569
G01 X0.0000000000 Y0.0000000000 Z3.0553027587 F7.3499144247
G01 X0.0000000000 Y0.0000000000 Z2.9894597753 F14.6998288493
G01 X0.0000000000 Y0.0000000000 Z2.9308003458 F13.0960586787
G01 X0.0000000000 Y0.0000000000 Z2.8649573625 F14.6998288493
G01 X0.0000000000 Y0.0000000000 Z2.7866564181 F17.4811410569
G01 X0.0000000000 Y0.0000000000 Z2.7537349264 F7.3499144247
G01 X0.0000000000 Y0.0000000000 Z2.6950754969 F13.0960586787
G01 X0.0000000000 Y0.0000000000 Z2.6292325136 F14.6998288493
G01 X0.0000000000 Y0.0000000000 Z2.5963110219 F7.3499144247
G01 X0.0000000000 Y0.0000000000 Z2.5304680385 F14.6998288493
G01 X0.0000000000 Y0.0000000000 Z2.4718086090 F13.0960586787
G01 X0.0000000000 Y0.0000000000 Z2.3676945011 F11.6672618896
G01 X0.0000000000 Y0.0000000000 Z2.3482710111 F8.7405705285
G01 X0.0000000000 Y0.0000000000 Z2.3264688806 F9.8109586988
G01 X0.0000000000 Y0.0000000000 Z2.3005416320 F11.6672618896
G01 X0.0000000000 Y0.0000000000 Z2.2714392794 F13.0960586787
G01 X0.0000000000 Y0.0000000000 Z2.2520157893 F8.7405705285
G01 X0.0000000000 Y0.0000000000 Z2.2302136589 F9.8109586988
G01 X0.0000000000 Y0.0000000000 Z2.1717815915 F6.5480293394
G01 X0.0000000000 Y0.0000000000 Z2.0549174568 F13.0960586787
G01 X0.0000000000 Y0.0000000000 Z2.0354939667 F8.7405705285
G01 X0.0000000000 Y0.0000000000 Z1.9697469171 F9.8109586988
G01 X0.0000000000 Y0.0000000000 Z1.7946485570 F19.6219173975
G01 X0.0000000000 Y0.0000000000 Z1.7290607790 F7.3499144247
G01 X0.0000000000 Y0.0000000000 Z1.5978852229 F14.6998288493
G01 X0.0000000000 Y0.0000000000 Z1.5649637312 F7.3499144247
G01 X0.0000000000 Y0.0000000000 Z1.5320422395 F7.3499144247
G01 X0.0000000000 Y0.0000000000 Z1.4008666835 F14.6998288493
G01 X0.0000000000 Y0.0000000000 Z1.3486070729 F11.6672618896
G01 X0.0000000000 Y0.0000000000 Z1.2827640895 F14.6998288493
G01 X0.0000000000 Y0.0000000000 Z1.1267691850 F17.4811410569
G01 X0.0000000000 Y0.0000000000 Z1.0828242658 F9.8109586988
G01 X0.0000000000 Y0.0000000000 Z1.0169812824 F14.6998288493
G01 X0.0000000000 Y0.0000000000 Z0.8418829223 F19.6219173975
G01 X0.0000000000 Y0.0000000000 Z0.7834508549 F6.5480293394
G01 X0.0000000000 Y0.0000000000 Z0.6665867202 F13.0960586787
G01 X0.0000000000 Y0.0000000000 Z0.6372570054 F6.5480293394
G01 X0.0000000000 Y0.0000000000 Z0.6079272907 F6.5480293394
G01 X0.0000000000 Y0.0000000000 Z0.4910631560 F13.0960586787
G01 X0.0000000000 Y0.0000000000 Z0.4254753779 F7.3499144247
G01 X0.0000000000 Y0.0000000000 Z0.2942998219 F14.6998288493
G01 X0.0000000000 Y0.0000000000 Z0.2649701071 F6.5480293394
G01 X0.0000000000 Y0.0000000000 Z0.2356403924 F6.5480293394
G01 X0.0000000000 Y0.0000000000 Z0.1187762576 F13.0960586787
G01 X0.0000000000 Y0.0000000000 Z0.1381997477 F8.7405705285
G01 X0.0000000000 Y0.0000000000 Z0.2039467973 F9.8109586988
G01 X0.0000000000 Y0.0000000000 Z0.3790451574 F19.6219173975
G01 X0.0000000000 Y0.0000000000 Z0.4229900766 F9.8109586988
G01 X0.0000000000 Y0.0000000000 Z0.4669349958 F9.8109586988
G01 X0.0000000000 Y0.0000000000 Z0.6420333559 F19.6219173975
G01 X0.0000000000 Y0.0000000000 Z0.7461474637 F11.6672618896
G01 X0.0000000000 Y0.0000000000 Z0.8119904471 F14.6998288493
G01 X0.0000000000 Y0.0000000000 Z0.8902913914 F17.4811410569
G01 X0.0000000000 Y0.0000000000 Z0.9778405715 F9.8109586988
G01 X0.0000000000 Y0.0000000000 Z1.1529389316 F19.6219173975
G01 X0.0000000000 Y0.0000000000 Z1.2185267096 F7.3499144247
G01 X0.0000000000 Y0.0000000000 Z1.3497022657 F14.6998288493
G01 X0.0000000000 Y0.0000000000 Z1.3826237574 F7.3499144247
G01 X0.0000000000 Y0.0000000000 Z1.4155452490 F7.3499144247
G01 X0.0000000000 Y0.0000000000 Z1.5038463043 F14.6998288493
G01 X0.0000000000 Y0.0000000000 Z1.5680129710 F33.0000000000
G01 X0.0000000000 Y0.0000000000 Z1.5720962567 F14.6998288493
G01 X0.0000000000 Y0.0000000000 Z1.5902852271 F26.1921173575
G01 X0.0000000000 Y0.0000000000 Z1.6230253738 F26.1921173575
G01 X0.0000000000 Y0.0000000000 Z1.6260843818 F11.0124287969
G01 X0.0000000000 Y0.0000000000 Z1.6689104938 F22.0248575938
G01 X0.0000000000 Y0.0000000000 Z1.6719695018 F11.0124287969
G01 X0.0000000000 Y0.0000000000 Z1.7228986189 F26.1921173575
G01 X0.0000000000 Y0.0000000000 Z1.7259576269 F11.0124287969
G01 X0.0000000000 Y0.0000000000 Z1.7901242936 F33.0000000000
G01 X0.0000000000 Y0.0000000000 Z1.7931833016 F11.0124287969
G01 X0.0000000000 Y0.0000000000 Z1.8122817205 F26.1921173575
G01 X0.0000000000 Y0.0000000000 Z1.8441124186 F26.1921173575
G01 X0.0000000000 Y0.0000000000 Z1.8486957520 F16.5000000000
G01 X0.0000000000 Y0.0000000000 Z1.8915218640 F22.0248575938
G01 X0.0000000000 Y0.0000000000 Z1.8961051973 F16.5000000000
G01 X0.0000000000 Y0.0000000000 Z1.9470343144 F26.1921173575
G01 X0.0000000000 Y0.0000000000 Z1.9516176477 F16.5000000000
G01 X0.0000000000 Y0.0000000000 Z2.0157843144 F33.0000000000
G01 X0.0000000000 Y0.0000000000 Z2.0203676477 F16.5000000000
G01 X0.0000000000 Y0.0000000000 Z2.0403755151 F26.1921173575
G01 X0.0000000000 Y0.0000000000 Z2.0712967648 F26.1921173575
G01 X0.0000000000 Y0.0000000000 Z2.0774147808 F22.0248575938
G01 X0.0000000000 Y0.0000000000 Z2.1202408928 F22.0248575938
G04 P0.0160
G01 X0.0000000000 Y0.0000000000 Z2.1711700099 F26.1921173575
G04 P0.0160
G01 X0.0000000000 Y0.0000000000 Z2.2353366765 F33.0000000000
G04 P0.0160
G01 X0.0000000000 Y0.0000000000 Z2.2562539925 F26.1921173575
G01 X0.0000000000 Y0.0000000000 Z2.2862657936 F26.1921173575
G01 X0.0000000000 Y0.0000000000 Z2.2908491270 F16.5000000000
G01 X0.0000000000 Y0.0000000000 Z2.3336752389 F22.0248575938
G01 X0.0000000000 Y0.0000000000 Z2.3382585723 F16.5000000000
G01 X0.0000000000 Y0.0000000000 Z2.3891876894 F26.1921173575
G01 X0.0000000000 Y0.0000000000 Z2.3937710227 F16.5000000000
G01 X0.0000000000 Y0.0000000000 Z2.4617532379 F34.9622821139
G01 X0.0000000000 Y0.0000000000 Z2.4663365713 F16.5000000000
G01 X0.0000000000 Y0.0000000000 Z2.4881633357 F26.1921173575
G01 X0.0000000000 Y0.0000000000 Z2.5172656883 F26.1921173575
G01 X0.0000000000 Y0.0000000000 Z2.5196936246 F8.7405705285
G01 X0.0000000000 Y0.0000000000 Z2.5625197366 F22.0248575938
G01 X0.0000000000 Y0.0000000000 Z2.5649476728 F8.7405705285
G01 X0.0000000000 Y0.0000000000 Z2.6158767899 F26.1921173575
G01 X0.0000000000 Y0.0000000000 Z2.6183047262 F8.7405705285
G01 X0.0000000000 Y0.0000000000 Z2.6862869414 F34.9622821139
G01 X0.0000000000 Y0.0000000000 Z2.6887148777 F8.7405705285
G01 X0.0000000000 Y0.0000000000 Z2.7114510906 F26.1921173575
G01 X0.0000000000 Y0.0000000000 Z2.7396439947 F26.1921173575
G01 X0.0000000000 Y0.0000000000 Z2.7432817888 F13.0960586787
G01 X0.0000000000 Y0.0000000000 Z2.7861079008 F22.0248575938
G01 X0.0000000000 Y0.0000000000 Z2.7897456949 F13.0960586787
G01 X0.0000000000 Y0.0000000000 Z2.8406748120 F26.1921173575
G01 X0.0000000000 Y0.0000000000 Z2.8443126060 F13.0960586787
G01 X0.0000000000 Y0.0000000000 Z2.9122948213 F34.9622821139
G01 X0.0000000000 Y0.0000000000 Z2.9159326153 F13.0960586787
G01 X0.0000000000 Y0.0000000000 Z2.9395782769 F26.1921173575
G01 X0.0000000000 Y0.0000000000 Z2.9668617324 F26.1921173575
G01 X0.0000000000 Y0.0000000000 Z2.9717176049 F17.4811410569
G01 X0.0000000000 Y0.0000000000 Z3.0145437169 F22.0248575938
G01 X0.0000000000 Y0.0000000000 Z3.0193995895 F17.4811410569
G01 X0.0000000000 Y0.0000000000 Z3.0703287065 F26.1921173575
G01 X0.0000000000 Y0.0000000000 Z3.0751845791 F17.4811410569
G01 X0.0000000000 Y0.0000000000 Z3.1431667943 F34.9622821139
G01 X0.0000000000 Y0.0000000000 Z3.1480226668 F17.4811410569
G01 X0.0000000000 Y0.0000000000 Z3.1725777768 F26.1921173575
G01 X0.0000000000 Y0.0000000000 Z3.1989517839 F26.1921173575
G01 X0.0000000000 Y0.0000000000 Z3.2025895779 F13.0960586787
G01 X0.0000000000 Y0.0000000000 Z3.2454156899 F22.0248575938
G01 X0.0000000000 Y0.0000000000 Z3.2490534840 F13.0960586787
G01 X0.0000000000 Y0.0000000000 Z3.2999826011 F26.1921173575
G01 X0.0000000000 Y0.0000000000 Z3.3036203952 F13.0960586787
G01 X0.0000000000 Y0.0000000000 Z3.3677870618 F33.0000000000
G01 X0.0000000000 Y0.0000000000 Z3.3714248559 F13.0960586787
G01 X0.0000000000 Y0.0000000000 Z3.3968894145 F26.1921173575
G01 X0.0000000000 Y0.0000000000 Z3.4223539730 F26.1921173575
G01 X0.0000000000 Y0.0000000000 Z3.4254129810 F11.0124287969
G01 X0.0000000000 Y0.0000000000 Z3.4682390930 F22.0248575938
G01 X0.0000000000 Y0.0000000000 Z3.4712981010 F11.0124287969
G01 X0.0000000000 Y0.0000000000 Z3.5222272181 F26.1921173575
G01 X0.0000000000 Y0.0000000000 Z3.5252862261 F11.0124287969
G01 X0.0000000000 Y0.0000000000 Z3.5894528927 F33.0000000000
G01 X0.0000000000 Y0.0000000000 Z3.5925119007 F11.0124287969
G01 X0.0000000000 Y0.0000000000 Z3.6188859078 F26.1921173575
G01 X0.0000000000 Y0.0000000000 Z3.6434410178 F26.1921173575
G01 X0.0000000000 Y0.0000000000 Z3.6480243512 F16.5000000000
G01 X0.0000000000 Y0.0000000000 Z3.6908504631 F22.0248575938
G01 X0.0000000000 Y0.0000000000 Z3.6954337965 F16.5000000000
G01 X0.0000000000 Y0.0000000000 Z3.7463629136 F26.1921173575
G01 X0.0000000000 Y0.0000000000 Z3.7417795802 F16.5000000000
G01 X0.0000000000 Y0.0000000000 Z3.6776129136 F33.0000000000
G01 X0.0000000000 Y0.0000000000 Z3.6730295802 F16.5000000000
G01 X0.0000000000 Y0.0000000000 Z3.6457461246 F26.1921173575
G01 X0.0000000000 Y0.0000000000 Z3.6221004631 F26.1921173575
G01 X0.0000000000 Y0.0000000000 Z3.6159824471 F22.0248575938
G01 X0.0000000000 Y0.0000000000 Z3.5731563352 F22.0248575938
G04 P0.0160
G01 X0.0000000000 Y0.0000000000 Z3.5222272181 F26.1921173575
G04 P0.0160
G01 X0.0000000000 Y0.0000000000 Z3.4580605514 F33.0000000000
G04 P0.0160
G01 X0.0000000000 Y0.0000000000 Z3.4298676473 F26.1921173575
G01 X0.0000000000 Y0.0000000000 Z3.4071314343 F26.1921173575
G01 X0.0000000000 Y0.0000000000 Z3.4025481010 F16.5000000000
G01 X0.0000000000 Y0.0000000000 Z3.3597219890 F22.0248575938
G01 X0.0000000000 Y0.0000000000 Z3.3551386557 F16.5000000000
G01 X0.0000000000 Y0.0000000000 Z3.3042095386 F26.1921173575
G01 X0.0000000000 Y0.0000000000 Z3.2996262053 F16.5000000000
G01 X0.0000000000 Y0.0000000000 Z3.2233187487 F39.2438347951
G01 X0.0000000000 Y0.0000000000 Z3.2187354154 F16.5000000000
G01 X0.0000000000 Y0.0000000000 Z3.1820687487 F33.0000000000
G01 X0.0000000000 Y0.0000000000 Z3.1545687487 F33.0000000000
G01 X0.0000000000 Y0.0000000000 Z3.1522770820 F8.2500000000
G01 X0.0000000000 Y0.0000000000 Z3.1042063967 F24.7220667685
G01 X0.0000000000 Y0.0000000000 Z3.1019147300 F8.2500000000
G01 X0.0000000000 Y0.0000000000 Z3.0377480633 F33.0000000000
G01 X0.0000000000 Y0.0000000000 Z3.0354563967 F8.2500000000
G01 X0.0000000000 Y0.0000000000 Z2.9591489401 F39.2438347951
G01 X0.0000000000 Y0.0000000000 Z2.9568572734 F8.2500000000
G01 X0.0000000000 Y0.0000000000 Z2.9190447734 F33.0000000000
G01 X0.0000000000 Y0.0000000000 Z2.8926906068 F33.0000000000
G01 X0.0000000000 Y0.0000000000 Z2.8892569864 F12.3610333842
G01 X0.0000000000 Y0.0000000000 Z2.8411863010 F24.7220667685
G01 X0.0000000000 Y0.0000000000 Z2.8377526806 F12.3610333842
G01 X0.0000000000 Y0.0000000000 Z2.7735860140 F33.0000000000
G01 X0.0000000000 Y0.0000000000 Z2.7701523936 F12.3610333842
G01 X0.0000000000 Y0.0000000000 Z2.6938449370 F39.2438347951
G01 X0.0000000000 Y0.0000000000 Z2.6904113166 F12.3610333842
G01 X0.0000000000 Y0.0000000000 Z2.6514529833 F33.0000000000
G01 X0.0000000000 Y0.0000000000 Z2.6262446500 F33.0000000000
G01 X0.0000000000 Y0.0000000000 Z2.6216613166 F16.5000000000
G01 X0.0000000000 Y0.0000000000 Z2.5735906313 F24.7220667685
G01 X0.0000000000 Y0.0000000000 Z2.5690072979 F16.5000000000
G01 X0.0000000000 Y0.0000000000 Z2.5048406313 F33.0000000000
G01 X0.0000000000 Y0.0000000000 Z2.5002572979 F16.5000000000
G01 X0.0000000000 Y0.0000000000 Z2.4239498414 F39.2438347951
G01 X0.0000000000 Y0.0000000000 Z2.4193665080 F16.5000000000
G01 X0.0000000000 Y0.0000000000 Z2.3792623414 F33.0000000000
G01 X0.0000000000 Y0.0000000000 Z2.3551998414 F33.0000000000
G01 X0.0000000000 Y0.0000000000 Z2.3517662210 F12.3610333842
G01 X0.0000000000 Y0.0000000000 Z2.3036955356 F24.7220667685
G01 X0.0000000000 Y0.0000000000 Z2.3002619152 F12.3610333842
G01 X0.0000000000 Y0.0000000000 Z2.2360952486 F33.0000000000
G01 X0.0000000000 Y0.0000000000 Z2.2326616282 F12.3610333842
G01 X0.0000000000 Y0.0000000000 Z2.1470094042 F44.0497151876
G01 X0.0000000000 Y0.0000000000 Z2.1435757838 F12.3610333842
G01 X0.0000000000 Y0.0000000000 Z2.0998729312 F34.9622821139
G01 X0.0000000000 Y0.0000000000 Z2.0755935686 F34.9622821139
G01 X0.0000000000 Y0.0000000000 Z2.0731656323 F8.7405705285
G01 X0.0000000000 Y0.0000000000 Z2.0222365153 F26.1921173575
G01 X0.0000000000 Y0.0000000000 Z2.0198085790 F8.7405705285
G01 X0.0000000000 Y0.0000000000 Z1.9518263638 F34.9622821139
G01 X0.0000000000 Y0.0000000000 Z1.9493984275 F8.7405705285
G01 X0.0000000000 Y0.0000000000 Z1.8637462035 F44.0497151876
G01 X0.0000000000 Y0.0000000000 Z1.8613182673 F8.7405705285
G01 X0.0000000000 Y0.0000000000 Z1.8164014465 F34.9622821139
G01 X0.0000000000 Y0.0000000000 Z1.7933360521 F34.9622821139
G01 X0.0000000000 Y0.0000000000 Z1.7896982580 F13.0960586787
G01 X0.0000000000 Y0.0000000000 Z1.7387691409 F26.1921173575
G01 X0.0000000000 Y0.0000000000 Z1.7351313468 F13.0960586787
G01 X0.0000000000 Y0.0000000000 Z1.6890005579 F34.9622821139
G01 X0.0000000000 Y0.0000000000 Z1.6671491316 F34.9622821139
G01 X0.0000000000 Y0.0000000000 Z1.6622932591 F17.4811410569
G01 X0.0000000000 Y0.0000000000 Z1.5715478888 F46.6690475583
G01 X0.0000000000 Y0.0000000000 Z1.5666920163 F17.4811410569
G01 X0.0000000000 Y0.0000000000 Z1.5135493234 F39.2438347951
G01 X0.0000000000 Y0.0000000000 Z1.4903845598 F39.2438347951
G01 X0.0000000000 Y0.0000000000 Z1.4876592935 F9.8109586988
G01 X0.0000000000 Y0.0000000000 Z1.4304932924 F29.3996576986
G01 X0.0000000000 Y0.0000000000 Z1.4277680261 F9.8109586988
G01 X0.0000000000 Y0.0000000000 Z1.3514605695 F39.2438347951
G01 X0.0000000000 Y0.0000000000 Z1.3487353032 F9.8109586988
G01 X0.0000000000 Y0.0000000000 Z1.2579899330 F46.6690475583
G01 X0.0000000000 Y0.0000000000 Z1.2552646667 F9.8109586988
G01 X0.0000000000 Y0.0000000000 Z1.2007593406 F39.2438347951
G01 X0.0000000000 Y0.0000000000 Z1.1789572101 F39.2438347951
G01 X0.0000000000 Y0.0000000000 Z1.1748739243 F14.6998288493
G01 X0.0000000000 Y0.0000000000 Z1.1177079233 F29.3996576986
G01 X0.0000000000 Y0.0000000000 Z1.1136246375 F14.6998288493
G01 X0.0000000000 Y0.0000000000 Z1.0577566782 F39.2438347951
G01 X0.0000000000 Y0.0000000000 Z1.0373171809 F39.2438347951
G01 X0.0000000000 Y0.0000000000 Z1.0318666483 F19.6219173975
G01 X0.0000000000 Y0.0000000000 Z0.9462144243 F44.0497151876
G01 X0.0000000000 Y0.0000000000 Z0.9407638917 F19.6219173975
G01 X0.0000000000 Y0.0000000000 Z0.8897772303 F34.9622821139
G01 X0.0000000000 Y0.0000000000 Z0.8727816765 F34.9622821139
G01 X0.0000000000 Y0.0000000000 Z0.8703537402 F8.7405705285
G01 X0.0000000000 Y0.0000000000 Z0.8194246232 F26.1921173575
G01 X0.0000000000 Y0.0000000000 Z0.8169966869 F8.7405705285
G01 X0.0000000000 Y0.0000000000 Z0.7490144717 F34.9622821139
G01 X0.0000000000 Y0.0000000000 Z0.7465865354 F8.7405705285
G01 X0.0000000000 Y0.0000000000 Z0.6609343114 F44.0497151876
G01 X0.0000000000 Y0.0000000000 Z0.6585063752 F8.7405705285
G01 X0.0000000000 Y0.0000000000 Z0.6063057456 F34.9622821139
G01 X0.0000000000 Y0.0000000000 Z0.5905241600 F34.9622821139
G01 X0.0000000000 Y0.0000000000 Z0.5868863659 F13.0960586787
G01 X0.0000000000 Y0.0000000000 Z0.5359572488 F26.1921173575
G01 X0.0000000000 Y0.0000000000 Z0.5323194547 F13.0960586787
G01 X0.0000000000 Y0.0000000000 Z0.4789048570 F34.9622821139
G01 X0.0000000000 Y0.0000000000 Z0.4643372395 F34.9622821139
G01 X0.0000000000 Y0.0000000000 Z0.4594813670 F17.4811410569
G01 X0.0000000000 Y0.0000000000 Z0.3914991518 F34.9622821139
G01 X0.0000000000 Y0.0000000000 Z0.3866432792 F17.4811410569
G01 X0.0000000000 Y0.0000000000 Z0.3407063141 F29.3996576986
G01 X0.0000000000 Y0.0000000000 Z0.3294772782 F29.3996576986
G01 X0.0000000000 Y0.0000000000 Z0.3274356353 F7.3499144247
G01 X0.0000000000 Y0.0000000000 Z0.2846095233 F22.0248575938
G01 X0.0000000000 Y0.0000000000 Z0.2825678804 F7.3499144247
G01 X0.0000000000 Y0.0000000000 Z0.2254018793 F29.3996576986
G01 X0.0000000000 Y0.0000000000 Z0.2233602364 F7.3499144247
G01 X0.0000000000 Y0.0000000000 Z0.1553780212 F34.9622821139
G01 X0.0000000000 Y0.0000000000 Z0.1574196641 F7.3499144247
G01 X0.0000000000 Y0.0000000000 Z0.2043774507 F29.3996576986
G01 X0.0000000000 Y0.0000000000 Z0.2145856652 F29.3996576986
G01 X0.0000000000 Y0.0000000000 Z0.2186689510 F14.6998288493
G01 X0.0000000000 Y0.0000000000 Z0.2614950629 F22.0248575938
G01 X0.0000000000 Y0.0000000000 Z0.2655783487 F14.6998288493
G01 X0.0000000000 Y0.0000000000 Z0.3227443498 F29.3996576986
G01 X0.0000000000 Y0.0000000000 Z0.3268276356 F14.6998288493
G01 X0.0000000000 Y0.0000000000 Z0.3839936367 F29.3996576986
G01 X0.0000000000 Y0.0000000000 Z0.3880769225 F14.6998288493
G01 X0.0000000000 Y0.0000000000 Z0.4261575689 F23.3345237792
G01 X0.0000000000 Y0.0000000000 Z0.4334496076 F23.3345237792
G01 X0.0000000000 Y0.0000000000 Z0.4366905137 F11.6672618896
G01 X0.0000000000 Y0.0000000000 Z0.4706816213 F17.4811410569
G01 X0.0000000000 Y0.0000000000 Z0.4739225274 F11.6672618896
G01 X0.0000000000 Y0.0000000000 Z0.5192952125 F23.3345237792
G01 X0.0000000000 Y0.0000000000 Z0.5225361186 F11.6672618896
G01 X0.0000000000 Y0.0000000000 Z0.5797021197 F29.3996576986
G01 X0.0000000000 Y0.0000000000 Z0.5829430257 F11.6672618896
G01 X0.0000000000 Y0.0000000000 Z0.6218338987 F23.3345237792
G01 X0.0000000000 Y0.0000000000 Z0.6283157109 F23.3345237792
G01 X0.0000000000 Y0.0000000000 Z0.6323989967 F14.6998288493
G01 X0.0000000000 Y0.0000000000 Z0.6663901043 F17.4811410569
G01 X0.0000000000 Y0.0000000000 Z0.6704733901 F14.6998288493
G01 X0.0000000000 Y0.0000000000 Z0.7101744896 F23.3345237792
G01 X0.0000000000 Y0.0000000000 Z0.7158460752 F23.3345237792
G01 X0.0000000000 Y0.0000000000 Z0.7207019477 F17.4811410569
G01 X0.0000000000 Y0.0000000000 Z0.7848686144 F33.0000000000
G01 X0.0000000000 Y0.0000000000 Z0.7897244869 F17.4811410569
G01 X0.0000000000 Y0.0000000000 Z0.8351969129 F26.1921173575
G01 X0.0000000000 Y0.0000000000 Z0.8406536040 F26.1921173575
G01 X0.0000000000 Y0.0000000000 Z0.8424725010 F6.5480293394
G01 X0.0000000000 Y0.0000000000 Z0.8806262293 F19.6219173975
G01 X0.0000000000 Y0.0000000000 Z0.8824451263 F6.5480293394
G01 X0.0000000000 Y0.0000000000 Z0.9333742434 F26.1921173575
G01 X0.0000000000 Y0.0000000000 Z0.9351931404 F6.5480293394
G01 X0.0000000000 Y0.0000000000 Z0.9993598071 F33.0000000000
G01 X0.0000000000 Y0.0000000000 Z1.0011787042 F6.5480293394
G01 X0.0000000000 Y0.0000000000 Z1.0475605786 F26.1921173575
G01 X0.0000000000 Y0.0000000000 Z1.0521078212 F26.1921173575
G01 X0.0000000000 Y0.0000000000 Z1.0557456153 F13.0960586787
G01 X0.0000000000 Y0.0000000000 Z1.0938993436 F19.6219173975
G01 X0.0000000000 Y0.0000000000 Z1.0975371377 F13.0960586787
G01 X0.0000000000 Y0.0000000000 Z1.1484662548 F26.1921173575
G01 X0.0000000000 Y0.0000000000 Z1.2048520630 F13.0960586787
G01 X0.0000000000 Y0.0000000000 Z1.2377735546 F7.3499144247
G01 X0.0000000000 Y0.0000000000 Z1.3036165380 F14.6998288493
G01 X0.0000000000 Y0.0000000000 Z1.3622759675 F13.0960586787
G01 X0.0000000000 Y0.0000000000 Z1.4281189509 F14.6998288493
G01 X0.0000000000 Y0.0000000000 Z1.5064198952 F17.4811410569
G01 X0.0000000000 Y0.0000000000 Z1.5393413869 F7.3499144247
G01 X0.0000000000 Y0.0000000000 Z1.5980008164 F13.0960586787
G01 X0.0000000000 Y0.0000000000 Z1.6638437998 F14.6998288493
G01 X0.0000000000 Y0.0000000000 Z1.6967652915 F7.3499144247
G01 X0.0000000000 Y0.0000000000 Z1.7626082749 F14.6998288493
G01 X0.0000000000 Y0.0000000000 Z1.8212677044 F13.0960586787
G01 X0.0000000000 Y0.0000000000 Z1.8871106878 F14.6998288493
G01 X0.0000000000 Y0.0000000000 Z2.0622090479 F19.6219173975
G01 X0.0000000000 Y0.0000000000 Z2.2182039525 F17.4811410569
G01 X0.0000000000 Y0.0000000000 Z2.2511254442 F7.3499144247
G01 X0.0000000000 Y0.0000000000 Z2.3169684275 F14.6998288493
G01 X0.0000000000 Y0.0000000000 Z2.3756278570 F13.0960586787
G01 X0.0000000000 Y0.0000000000 Z2.4414708404 F14.6998288493
G01 X0.0000000000 Y0.0000000000 Z2.5197717847 F17.4811410569
G01 X0.0000000000 Y0.0000000000 Z2.5526932764 F7.3499144247
G01 X0.0000000000 Y0.0000000000 Z2.6113527059 F13.0960586787
G01 X0.0000000000 Y0.0000000000 Z2.6771956893 F14.6998288493
G01 X0.0000000000 Y0.0000000000 Z2.7101171810 F7.3499144247
G01 X0.0000000000 Y0.0000000000 Z2.7759601644 F14.6998288493
G01 X0.0000000000 Y0.0000000000 Z2.8346195939 F13.0960586787
G01 X0.0000000000 Y0.0000000000 Z3.0951074201 F11.6672618896
G01 X0.0000000000 Y0.0000000000 Z3.1280289118 F7.3499144247
G01 X0.0000000000 Y0.0000000000 Z3.1938718952 F14.6998288493
G01 X0.0000000000 Y0.0000000000 Z3.2525313247 F13.0960586787
G01 X0.0000000000 Y0.0000000000 Z3.3183743081 F14.6998288493
G01 X0.0000000000 Y0.0000000000 Z3.3966752524 F17.4811410569
G01 X0.0000000000 Y0.0000000000 Z3.4295967441 F7.3499144247
G01 X0.0000000000 Y0.0000000000 Z3.4882561736 F13.0960586787
G01 X0.0000000000 Y0.0000000000 Z3.5540991570 F14.6998288493
G01 X0.0000000000 Y0.0000000000 Z3.5870206487 F7.3499144247
G01 X0.0000000000 Y0.0000000000 Z3.6528636321 F14.6998288493
G01 X0.0000000000 Y0.0000000000 Z3.7115230616 F13.0960586787
G01 X0.0000000000 Y0.0000000000 Z3.7773660450 F14.6998288493
G01 X0.0000000000 Y0.0000000000 Z3.6022676848 F19.6219173975
G01 X0.0000000000 Y0.0000000000 Z3.4462727803 F17.4811410569
G01 X0.0000000000 Y0.0000000000 Z3.4133512886 F7.3499144247
G01 X0.0000000000 Y0.0000000000 Z3.3475083052 F14.6998288493
G01 X0.0000000000 Y0.0000000000 Z3.2888488757 F13.0960586787
G01 X0.0000000000 Y0.0000000000 Z3.2230058923 F14.6998288493
G01 X0.0000000000 Y0.0000000000 Z3.1447049480 F17.4811410569
G01 X0.0000000000 Y0.0000000000 Z3.1117834563 F7.3499144247
G01 X0.0000000000 Y0.0000000000 Z3.0531240268 F13.0960586787
G01 X0.0000000000 Y0.0000000000 Z2.9872810434 F14.6998288493
G01 X0.0000000000 Y0.0000000000 Z2.9543595517 F7.3499144247
G01 X0.0000000000 Y0.0000000000 Z2.9050330477 F11.0124287969
G01 X0.0000000000 Y0.0000000000 Z2.8610881286 F9.8109586988
G01 X0.0000000000 Y0.0000000000 Z2.7439402041 F8.7405705285
G01 X0.0000000000 Y0.0000000000 Z2.7110187124 F7.3499144247
G01 X0.0000000000 Y0.0000000000 Z2.6718682403 F8.7405705285
G01 X0.0000000000 Y0.0000000000 Z2.5403741410 F9.8109586988
G01 X0.0000000000 Y0.0000000000 Z2.5012236689 F8.7405705285
G01 X0.0000000000 Y0.0000000000 Z2.4828903355 F8.2500000000
G01 X0.0000000000 Y0.0000000000 Z2.4634668455 F8.7405705285
G01 X0.0000000000 Y0.0000000000 Z2.4451335121 F8.2500000000
G01 X0.0000000000 Y0.0000000000 Z2.4288003690 F7.3499144247
G01 X0.0000000000 Y0.0000000000 Z2.3119362342 F6.5480293394
G04 P0.5350
G01 X0.0000000000 Y0.0000000000 Z2.2463484562 F7.3499144247
G01 X0.0000000000 Y0.0000000000 Z2.1151729002 F14.6998288493
G01 X0.0000000000 Y0.0000000000 Z2.0822514085 F7.3499144247
G01 X0.0000000000 Y0.0000000000 Z2.0493299168 F7.3499144247
G01 X0.0000000000 Y0.0000000000 Z1.9181543607 F14.6998288493
G01 X0.0000000000 Y0.0000000000 Z1.9015660122 F7.3499144247
G01 X0.0000000000 Y0.0000000000 Z1.8627190321 F17.4811410569
G01 X0.0000000000 Y0.0000000000 Z1.8300527457 F14.6998288493
G01 X0.0000000000 Y0.0000000000 Z1.7912057656 F17.4811410569
G01 X0.0000000000 Y0.0000000000 Z1.6740578412 F17.4811410569
G01 X0.0000000000 Y0.0000000000 Z1.6413915548 F14.6998288493
G01 X0.0000000000 Y0.0000000000 Z1.6084700631 F7.3499144247
G01 X0.0000000000 Y0.0000000000 Z1.5921369200 F7.3499144247
G01 X0.0000000000 Y0.0000000000 Z1.5625798431 F13.0960586787
G01 X0.0000000000 Y0.0000000000 Z1.5299135568 F14.6998288493
G01 X0.0000000000 Y0.0000000000 Z1.4640705734 F14.6998288493
G01 X0.0000000000 Y0.0000000000 Z1.4252235933 F17.4811410569
G01 X0.0000000000 Y0.0000000000 Z1.3593806099 F14.6998288493
G01 X0.0000000000 Y0.0000000000 Z1.3267143235 F14.6998288493
G01 X0.0000000000 Y0.0000000000 Z1.2878673434 F17.4811410569
G01 X0.0000000000 Y0.0000000000 Z1.2873569327 F14.6998288493
G01 X0.0000000000 Y0.0000000000 Z1.2090559884 F17.4811410569
G01 X0.0000000000 Y0.0000000000 Z1.1769001128 F14.6998288493
G01 X0.0000000000 Y0.0000000000 Z1.1368391645 F17.4811410569
G01 X0.0000000000 Y0.0000000000 Z1.0209052082 F17.4811410569
G01 X0.0000000000 Y0.0000000000 Z0.9830927082 F16.5000000000
G01 X0.0000000000 Y0.0000000000 Z0.9401697639 F19.6219173975
G01 X0.0000000000 Y0.0000000000 Z0.8522799255 F19.6219173975
G01 X0.0000000000 Y0.0000000000 Z0.8079943481 F19.6219173975
G01 X0.0000000000 Y0.0000000000 Z0.7495622807 F6.5480293394
G01 X0.0000000000 Y0.0000000000 Z0.6622552229 F13.0960586787
G01 X0.0000000000 Y0.0000000000 Z0.6125463429 F22.0248575938
G01 X0.0000000000 Y0.0000000000 Z0.5138933349 F22.0248575938
G01 X0.0000000000 Y0.0000000000 Z0.4657139589 F22.0248575938
G01 X0.0000000000 Y0.0000000000 Z0.4056903566 F26.1921173575
G01 X0.0000000000 Y0.0000000000 Z0.2319856894 F26.1921173575
G01 X0.0000000000 Y0.0000000000 Z0.1880903672 F29.3996576986
G01 X0.0000000000 Y0.0000000000 Z0.2090076831 F26.1921173575
G01 X0.0000000000 Y0.0000000000 Z0.2271966535 F26.1921173575
G01 X0.0000000000 Y0.0000000000 Z0.2710919758 F29.3996576986
G01 X0.0000000000 Y0.0000000000 Z0.3203628091 F33.0000000000
G01 X0.0000000000 Y0.0000000000 Z0.3642581314 F29.3996576986
G01 X0.0000000000 Y0.0000000000 Z0.4033644177 F26.1921173575
G01 X0.0000000000 Y0.0000000000 Z0.4822723461 F34.9622821139
G01 X0.0000000000 Y0.0000000000 Z0.5599663063 F34.9622821139
G01 X0.0000000000 Y0.0000000000 Z0.6181710116 F26.1921173575
G01 X0.0000000000 Y0.0000000000 Z0.6835035842 F29.3996576986
G01 X0.0000000000 Y0.0000000000 Z0.7568369176 F33.0000000000
G01 X0.0000000000 Y0.0000000000 Z0.7578577390 F29.3996576986
G01 X0.0000000000 Y0.0000000000 Z0.8221694902 F29.3996576986
G01 X0.0000000000 Y0.0000000000 Z0.8803741955 F26.1921173575
G01 X0.0000000000 Y0.0000000000 Z0.8828021317 F34.9622821139
G01 X0.0000000000 Y0.0000000000 Z0.9580681557 F34.9622821139
G01 X0.0000000000 Y0.0000000000 Z0.9958385493 F29.3996576986
G01 X0.0000000000 Y0.0000000000 Z1.0231220049 F26.1921173575
G01 X0.0000000000 Y0.0000000000 Z1.0294881445 F26.1921173575
G01 X0.0000000000 Y0.0000000000 Z1.0672585381 F29.3996576986
G01 X0.0000000000 Y0.0000000000 Z1.1096543714 F33.0000000000
G01 X0.0000000000 Y0.0000000000 Z1.1474247650 F29.3996576986
G01 X0.0000000000 Y0.0000000000 Z1.1810743602 F26.1921173575
G01 X0.0000000000 Y0.0000000000 Z1.2259911810 F34.9622821139
G01 X0.0000000000 Y0.0000000000 Z1.2698865032 F29.3996576986
G01 X0.0000000000 Y0.0000000000 Z1.2811155392 F14.6998288493
G01 X0.0000000000 Y0.0000000000 Z1.2864748518 F7.3499144247
G01 X0.0000000000 Y0.0000000000 Z1.3303701740 F29.3996576986
G01 X0.0000000000 Y0.0000000000 Z1.3796410073 F33.0000000000
G01 X0.0000000000 Y0.0000000000 Z1.4235363296 F29.3996576986
G01 X0.0000000000 Y0.0000000000 Z1.4345101602 F7.3499144247
G01 X0.0000000000 Y0.0000000000 Z1.5122041204 F34.9622821139
G01 X0.0000000000 Y0.0000000000 Z1.5911120488 F34.9622821139
G01 X0.0000000000 Y0.0000000000 Z1.6350073711 F29.3996576986
G01 X0.0000000000 Y0.0000000000 Z1.6678917071 F22.0248575938
G01 X0.0000000000 Y0.0000000000 Z1.7117870293 F29.3996576986
G01 X0.0000000000 Y0.0000000000 Z1.7439429049 F14.6998288493
G01 X0.0000000000 Y0.0000000000 Z1.7768643966 F7.3499144247
G01 X0.0000000000 Y0.0000000000 Z1.8097858883 F7.3499144247
G01 X0.0000000000 Y0.0000000000 Z1.9409614444 F14.6998288493
G01 X0.0000000000 Y0.0000000000 Z2.0296812483 F11.6672618896
G01 X0.0000000000 Y0.0000000000 Z2.0642402920 F26.1921173575
G01 X0.0000000000 Y0.0000000000 Z2.1078938210 F26.1921173575
G01 X0.0000000000 Y0.0000000000 Z2.1698387330 F22.0248575938
G01 X0.0000000000 Y0.0000000000 Z2.1736624930 F22.0248575938
G01 X0.0000000000 Y0.0000000000 Z2.2322557185 F19.6219173975
G01 X0.0000000000 Y0.0000000000 Z2.2553211130 F17.4811410569
G01 X0.0000000000 Y0.0000000000 Z2.2641782285 F9.8109586988
G01 X0.0000000000 Y0.0000000000 Z2.3077824893 F19.6219173975
G01 X0.0000000000 Y0.0000000000 Z2.3466294695 F17.4811410569
G01 X0.0000000000 Y0.0000000000 Z2.4056398861 F16.5000000000
G01 X0.0000000000 Y0.0000000000 Z2.4669583780 F19.6219173975
G01 X0.0000000000 Y0.0000000000 Z2.5105626389 F19.6219173975
G01 X0.0000000000 Y0.0000000000 Z2.5807382462 F19.6219173975
G01 X0.0000000000 Y0.0000000000 Z2.6721261102 F11.0124287969
G01 X0.0000000000 Y0.0000000000 Z2.6830518234 F17.4811410569
G01 X0.0000000000 Y0.0000000000 Z2.7702335514 F22.0248575938
G01 X0.0000000000 Y0.0000000000 Z2.8795930873 F22.0248575938
G01 X0.0000000000 Y0.0000000000 Z2.9289195913 F11.0124287969
G01 X0.0000000000 Y0.0000000000 Z2.9782460953 F11.0124287969
G01 X0.0000000000 Y0.0000000000 Z3.1747873592 F22.0248575938
G01 X0.0000000000 Y0.0000000000 Z3.2403751373 F7.3499144247
G01 X0.0000000000 Y0.0000000000 Z3.3159159244 F14.6998288493
G01 X0.0000000000 Y0.0000000000 Z3.3992738924 F22.0248575938
G01 X0.0000000000 Y0.0000000000 Z3.4145689324 F22.0248575938
G01 X0.0000000000 Y0.0000000000 Z3.4423863168 F7.3499144247
G01 X0.0000000000 Y0.0000000000 Z3.4753078085 F7.3499144247
G01 X0.0000000000 Y0.0000000000 Z3.5595255780 F14.6998288493
G01 X0.0000000000 Y0.0000000000 Z3.6431948418 F26.1921173575
G01 X0.0000000000 Y0.0000000000 Z3.6768444370 F26.1921173575
G01 X0.0000000000 Y0.0000000000 Z3.9439174253 F34.9622821139
G01 X0.0000000000 Y0.0000000000 Z3.8990006046 F34.9622821139
G01 X0.0000000000 Y0.0000000000 Z3.8336680319 F29.3996576986
G01 X0.0000000000 Y0.0000000000 Z3.7754633267 F26.1921173575
G01 X0.0000000000 Y0.0000000000 Z3.6637782588 F34.9622821139
G01 X0.0000000000 Y0.0000000000 Z3.6188614380 F34.9622821139
G01 X0.0000000000 Y0.0000000000 Z3.5535288654 F29.3996576986
G01 X0.0000000000 Y0.0000000000 Z3.5280643068 F26.1921173575
G01 X0.0000000000 Y0.0000000000 Z3.4953241601 F26.1921173575
G01 X0.0000000000 Y0.0000000000 Z3.3824251241 F34.9622821139
G01 X0.0000000000 Y0.0000000000 Z3.3387222715 F34.9622821139
G01 X0.0000000000 Y0.0000000000 Z3.2733896988 F29.3996576986
G01 X0.0000000000 Y0.0000000000 Z3.2151849936 F26.1921173575
G01 X0.0000000000 Y0.0000000000 Z3.1677167963 F14.6998288493
G01 X0.0000000000 Y0.0000000000 Z3.0636026884 F11.6672618896
G01 X0.0000000000 Y0.0000000000 Z3.0452279024 F14.6998288493
G01 X0.0000000000 Y0.0000000000 Z2.9675339421 F34.9622821139
G01 X0.0000000000 Y0.0000000000 Z2.9280175807 F39.2438347951
G01 X0.0000000000 Y0.0000000000 Z2.8803254204 F39.2438347951
G01 X0.0000000000 Y0.0000000000 Z2.8414784402 F34.9622821139
G01 X0.0000000000 Y0.0000000000 Z2.7978741793 F39.2438347951
G01 X0.0000000000 Y0.0000000000 Z2.7796646574 F17.4811410569
G01 X0.0000000000 Y0.0000000000 Z2.7783020243 F9.8109586988
G01 X0.0000000000 Y0.0000000000 Z2.7416353576 F33.0000000000
G01 X0.0000000000 Y0.0000000000 Z2.6894347280 F34.9622821139
G01 X0.0000000000 Y0.0000000000 Z2.6401638947 F33.0000000000
G01 X0.0000000000 Y0.0000000000 Z2.5962685725 F29.3996576986
G01 X0.0000000000 Y0.0000000000 Z2.5671662198 F26.1921173575
G01 X0.0000000000 Y0.0000000000 Z2.5344999335 F29.3996576986
G01 X0.0000000000 Y0.0000000000 Z2.5090353750 F26.1921173575
G01 X0.0000000000 Y0.0000000000 Z2.5053975809 F26.1921173575
G01 X0.0000000000 Y0.0000000000 Z2.4809255169 F22.0248575938
G01 X0.0000000000 Y0.0000000000 Z2.4516289041 F19.6219173975
G01 X0.0000000000 Y0.0000000000 Z2.4187445681 F22.0248575938
G01 X0.0000000000 Y0.0000000000 Z2.3894479553 F19.6219173975
G01 X0.0000000000 Y0.0000000000 Z2.3565636193 F22.0248575938
G01 X0.0000000000 Y0.0000000000 Z2.3272670066 F19.6219173975
G01 X0.0000000000 Y0.0000000000 Z2.3226784946 F22.0248575938
G01 X0.0000000000 Y0.0000000000 Z2.2943826706 F22.0248575938
G01 X0.0000000000 Y0.0000000000 Z2.2555356905 F17.4811410569
G01 X0.0000000000 Y0.0000000000 Z2.2119314296 F19.6219173975
G01 X0.0000000000 Y0.0000000000 Z2.1730844494 F17.4811410569
G01 X0.0000000000 Y0.0000000000 Z2.1560888956 F17.4811410569
G01 X0.0000000000 Y0.0000000000 Z2.1342374693 F17.4811410569
G01 X0.0000000000 Y0.0000000000 Z2.1050187193 F16.5000000000
G01 X0.0000000000 Y0.0000000000 Z2.0740625320 F17.4811410569
G01 X0.0000000000 Y0.0000000000 Z2.0448437820 F16.5000000000
G01 X0.0000000000 Y0.0000000000 Z2.0188128351 F14.6998288493
G01 X0.0000000000 Y0.0000000000 Z2.0090732518 F16.5000000000
G01 X0.0000000000 Y0.0000000000 Z1.9895940851 F16.5000000000
G01 X0.0000000000 Y0.0000000000 Z1.9411050663 F14.6998288493
G01 X0.0000000000 Y0.0000000000 Z1.9237511017 F14.6998288493
G01 X0.0000000000 Y0.0000000000 Z1.8693240184 F16.5000000000
G01 X0.0000000000 Y0.0000000000 Z1.8498448517 F16.5000000000
G01 X0.0000000000 Y0.0000000000 Z1.7911854222 F13.0960586787
G01 X0.0000000000 Y0.0000000000 Z1.7271416640 F19.6219173975
G01 X0.0000000000 Y0.0000000000 Z1.7032955839 F19.6219173975
G01 X0.0000000000 Y0.0000000000 Z1.6466399935 F7.3499144247
G01 X0.0000000000 Y0.0000000000 Z1.6241819217 F14.6998288493
G01 X0.0000000000 Y0.0000000000 Z1.5458809773 F17.4811410569
G01 X0.0000000000 Y0.0000000000 Z1.4601319757 F29.3996576986
G01 X0.0000000000 Y0.0000000000 Z1.4141950106 F29.3996576986
G01 X0.0000000000 Y0.0000000000 Z1.3978618674 F7.3499144247
G01 X0.0000000000 Y0.0000000000 Z1.3825668274 F22.0248575938
G01 X0.0000000000 Y0.0000000000 Z1.3489177394 F22.0248575938
G01 X0.0000000000 Y0.0000000000 Z1.2907130342 F26.1921173575
G01 X0.0000000000 Y0.0000000000 Z1.2726865272 F24.7220667685
G01 X0.0000000000 Y0.0000000000 Z1.2357751080 F24.7220667685
G01 X0.0000000000 Y0.0000000000 Z1.1704425354 F29.3996576986
G01 X0.0000000000 Y0.0000000000 Z1.1214984074 F22.0248575938
G01 X0.0000000000 Y0.0000000000 Z1.0229567407 F33.0000000000
G01 X0.0000000000 Y0.0000000000 Z0.9736859074 F33.0000000000
G01 X0.0000000000 Y0.0000000000 Z0.9117735328 F34.9622821139
G01 X0.0000000000 Y0.0000000000 Z0.8533360328 F33.0000000000
G01 X0.0000000000 Y0.0000000000 Z0.8012741390 F29.3996576986
G01 X0.0000000000 Y0.0000000000 Z0.7548922645 F26.1921173575
G01 X0.0000000000 Y0.0000000000 Z0.7472447445 F22.0248575938
G01 X0.0000000000 Y0.0000000000 Z0.7158899125 F22.0248575938
G01 X0.0000000000 Y0.0000000000 Z0.6425565792 F33.0000000000
G01 X0.0000000000 Y0.0000000000 Z0.5843518739 F26.1921173575
G01 X0.0000000000 Y0.0000000000 Z0.5354077459 F22.0248575938
G01 X0.0000000000 Y0.0000000000 Z0.5109080312 F29.3996576986
G01 X0.0000000000 Y0.0000000000 Z0.4700751733 F29.3996576986
G01 X0.0000000000 Y0.0000000000 Z0.4537420301 F7.3499144247
G01 X0.0000000000 Y0.0000000000 Z0.4250961968 F33.0000000000
G01 X0.0000000000 Y0.0000000000 Z0.3804086968 F33.0000000000
G01 X0.0000000000 Y0.0000000000 Z0.3640755536 F7.3499144247
G01 X0.0000000000 Y0.0000000000 Z0.3325123822 F34.9622821139
G01 X0.0000000000 Y0.0000000000 Z0.2863815933 F34.9622821139
G01 X0.0000000000 Y0.0000000000 Z0.1204676718 F37.0412475942
G01 X0.0000000000 Y0.0000000000 Z0.1571343385 F33.0000000000
G01 X0.0000000000 Y0.0000000000 Z0.1959813186 F34.9622821139
G01 X0.0000000000 Y0.0000000000 Z0.2257729853 F33.0000000000
G01 X0.0000000000 Y0.0000000000 Z0.2326479853 F33.0000000000
G01 X0.0000000000 Y0.0000000000 Z0.2653142716 F29.3996576986
G01 X0.0000000000 Y0.0000000000 Z0.3237517716 F33.0000000000
G01 X0.0000000000 Y0.0000000000 Z0.3856641462 F34.9622821139
G01 X0.0000000000 Y0.0000000000 Z0.4441016462 F33.0000000000
G01 X0.0000000000 Y0.0000000000 Z0.4647624225 F11.6672618896
G01 X0.0000000000 Y0.0000000000 Z0.4784041503 F26.1921173575
G01 X0.0000000000 Y0.0000000000 Z0.5111442969 F26.1921173575
G01 X0.0000000000 Y0.0000000000 Z0.5586124943 F14.6998288493
G01 X0.0000000000 Y0.0000000000 Z0.6369134386 F17.4811410569
G01 X0.0000000000 Y0.0000000000 Z0.6515617450 F9.8109586988
G01 X0.0000000000 Y0.0000000000 Z0.8700175348 F29.3996576986
G01 X0.0000000000 Y0.0000000000 Z0.9139128571 F29.3996576986
G01 X0.0000000000 Y0.0000000000 Z1.0312317161 F26.1921173575
G01 X0.0000000000 Y0.0000000000 Z1.0965642887 F29.3996576986
G01 X0.0000000000 Y0.0000000000 Z1.1156627077 F26.1921173575
G01 X0.0000000000 Y0.0000000000 Z1.1547689940 F26.1921173575
G01 X0.0000000000 Y0.0000000000 Z1.2093829414 F7.3499144247
G01 X0.0000000000 Y0.0000000000 Z1.3405584975 F14.6998288493
G01 X0.0000000000 Y0.0000000000 Z1.4061462755 F7.3499144247
G01 X0.0000000000 Y0.0000000000 Z1.4648435088 F14.6998288493
G01 X0.0000000000 Y0.0000000000 Z1.4808851754 F33.0000000000
G01 X0.0000000000 Y0.0000000000 Z1.5290101754 F33.0000000000
G01 X0.0000000000 Y0.0000000000 Z1.5326479695 F13.0960586787
G01 X0.0000000000 Y0.0000000000 Z1.5835770866 F26.1921173575
G01 X0.0000000000 Y0.0000000000 Z1.5872148807 F13.0960586787
G01 X0.0000000000 Y0.0000000000 Z1.5986861607 F22.0248575938
G01 X0.0000000000 Y0.0000000000 Z1.6300409927 F22.0248575938
G01 X0.0000000000 Y0.0000000000 Z1.6331000007 F11.0124287969
G01 X0.0000000000 Y0.0000000000 Z1.6840291178 F26.1921173575
G01 X0.0000000000 Y0.0000000000 Z1.6870881258 F11.0124287969
G01 X0.0000000000 Y0.0000000000 Z1.7512547924 F33.0000000000
G01 X0.0000000000 Y0.0000000000 Z1.7543138004 F11.0124287969
G01 X0.0000000000 Y0.0000000000 Z1.8052429175 F26.1921173575
G01 X0.0000000000 Y0.0000000000 Z1.8083019255 F11.0124287969
G01 X0.0000000000 Y0.0000000000 Z1.8205379575 F22.0248575938
G01 X0.0000000000 Y0.0000000000 Z1.8511280375 F22.0248575938
G01 X0.0000000000 Y0.0000000000 Z1.8557113708 F16.5000000000
G01 X0.0000000000 Y0.0000000000 Z1.9066404879 F26.1921173575
G01 X0.0000000000 Y0.0000000000 Z1.9112238212 F16.5000000000
G01 X0.0000000000 Y0.0000000000 Z1.9753904879 F33.0000000000
G01 X0.0000000000 Y0.0000000000 Z1.9799738212 F16.5000000000
G01 X0.0000000000 Y0.0000000000 Z2.0309029383 F26.1921173575
G01 X0.0000000000 Y0.0000000000 Z2.0354862717 F16.5000000000
G01 X0.0000000000 Y0.0000000000 Z2.0484870557 F22.0248575938
G01 X0.0000000000 Y0.0000000000 Z2.0783123836 F22.0248575938
G04 P0.0160
G01 X0.0000000000 Y0.0000000000 Z2.1292415007 F26.1921173575
G04 P0.0160
G01 X0.0000000000 Y0.0000000000 Z2.1934081674 F33.0000000000
G04 P0.0160
G01 X0.0000000000 Y0.0000000000 Z2.2443372845 F26.1921173575
G04 P0.0160
G01 X0.0000000000 Y0.0000000000 Z2.2581028205 F22.0248575938
G01 X0.0000000000 Y0.0000000000 Z2.2798736538 F16.5000000000
G01 X0.0000000000 Y0.0000000000 Z2.2844569871 F16.5000000000
G01 X0.0000000000 Y0.0000000000 Z2.3353861042 F26.1921173575
G01 X0.0000000000 Y0.0000000000 Z2.3399694376 F16.5000000000
G01 X0.0000000000 Y0.0000000000 Z2.4079516528 F34.9622821139
G01 X0.0000000000 Y0.0000000000 Z2.4125349861 F16.5000000000
G01 X0.0000000000 Y0.0000000000 Z2.4634641032 F26.1921173575
G01 X0.0000000000 Y0.0000000000 Z2.4680474365 F16.5000000000
G01 X0.0000000000 Y0.0000000000 Z2.4825777245 F22.0248575938
G01 X0.0000000000 Y0.0000000000 Z2.5108735485 F22.0248575938
G01 X0.0000000000 Y0.0000000000 Z2.5133014848 F8.7405705285
G01 X0.0000000000 Y0.0000000000 Z2.5642306019 F26.1921173575
G01 X0.0000000000 Y0.0000000000 Z2.5666585381 F8.7405705285
G01 X0.0000000000 Y0.0000000000 Z2.6346407533 F34.9622821139
G01 X0.0000000000 Y0.0000000000 Z2.6370686896 F8.7405705285
G01 X0.0000000000 Y0.0000000000 Z2.6879978067 F26.1921173575
G01 X0.0000000000 Y0.0000000000 Z2.6904257429 F8.7405705285
G01 X0.0000000000 Y0.0000000000 Z2.7057207829 F22.0248575938
G01 X0.0000000000 Y0.0000000000 Z2.7332518549 F22.0248575938
G01 X0.0000000000 Y0.0000000000 Z2.7368896490 F13.0960586787
G01 X0.0000000000 Y0.0000000000 Z2.7878187661 F26.1921173575
G01 X0.0000000000 Y0.0000000000 Z2.7914565602 F13.0960586787
G01 X0.0000000000 Y0.0000000000 Z2.8594387754 F34.9622821139
G01 X0.0000000000 Y0.0000000000 Z2.8630765695 F13.0960586787
G01 X0.0000000000 Y0.0000000000 Z2.9140056865 F26.1921173575
G01 X0.0000000000 Y0.0000000000 Z2.9176434806 F13.0960586787
G01 X0.0000000000 Y0.0000000000 Z2.9337032726 F22.0248575938
G01 X0.0000000000 Y0.0000000000 Z2.9604695926 F22.0248575938
G01 X0.0000000000 Y0.0000000000 Z2.9653254651 F17.4811410569
G01 X0.0000000000 Y0.0000000000 Z3.0162545822 F26.1921173575
G01 X0.0000000000 Y0.0000000000 Z3.0211104547 F17.4811410569
G01 X0.0000000000 Y0.0000000000 Z3.0890926700 F34.9622821139
G01 X0.0000000000 Y0.0000000000 Z3.0939485425 F17.4811410569
G01 X0.0000000000 Y0.0000000000 Z3.1448776596 F26.1921173575
G01 X0.0000000000 Y0.0000000000 Z3.1497335321 F17.4811410569
G01 X0.0000000000 Y0.0000000000 Z3.1665580761 F22.0248575938
G01 X0.0000000000 Y0.0000000000 Z3.1925596441 F22.0248575938
G01 X0.0000000000 Y0.0000000000 Z3.1961974381 F13.0960586787
G01 X0.0000000000 Y0.0000000000 Z3.2471265552 F26.1921173575
G01 X0.0000000000 Y0.0000000000 Z3.2507643493 F13.0960586787
G01 X0.0000000000 Y0.0000000000 Z3.3149310160 F33.0000000000
G01 X0.0000000000 Y0.0000000000 Z3.3185688100 F13.0960586787
G01 X0.0000000000 Y0.0000000000 Z3.3694979271 F26.1921173575
G01 X0.0000000000 Y0.0000000000 Z3.3731357212 F13.0960586787
G01 X0.0000000000 Y0.0000000000 Z3.3907250172 F22.0248575938
G01 X0.0000000000 Y0.0000000000 Z3.4159618332 F22.0248575938
G01 X0.0000000000 Y0.0000000000 Z3.4190208412 F11.0124287969
G01 X0.0000000000 Y0.0000000000 Z3.4699499583 F26.1921173575
G01 X0.0000000000 Y0.0000000000 Z3.4730089663 F11.0124287969
G01 X0.0000000000 Y0.0000000000 Z3.5371756329 F33.0000000000
G01 X0.0000000000 Y0.0000000000 Z3.5402346409 F11.0124287969
G01 X0.0000000000 Y0.0000000000 Z3.5911637580 F26.1921173575
G01 X0.0000000000 Y0.0000000000 Z3.5942227660 F11.0124287969
G01 X0.0000000000 Y0.0000000000 Z3.6125768140 F22.0248575938
G01 X0.0000000000 Y0.0000000000 Z3.6370488780 F22.0248575938
G01 X0.0000000000 Y0.0000000000 Z3.6416322113 F16.5000000000
G01 X0.0000000000 Y0.0000000000 Z3.6925613284 F26.1921173575
G01 X0.0000000000 Y0.0000000000 Z3.6971446618 F16.5000000000
G01 X0.0000000000 Y0.0000000000 Z3.7613113284 F33.0000000000
G01 X0.0000000000 Y0.0000000000 Z3.7567279951 F16.5000000000
G01 X0.0000000000 Y0.0000000000 Z3.7057988780 F26.1921173575
G01 X0.0000000000 Y0.0000000000 Z3.7012155447 F16.5000000000
G01 X0.0000000000 Y0.0000000000 Z3.6820967447 F22.0248575938
G01 X0.0000000000 Y0.0000000000 Z3.6583894327 F22.0248575938
G04 P0.0160
G01 X0.0000000000 Y0.0000000000 Z3.6074603156 F26.1921173575
G04 P0.0160
G01 X0.0000000000 Y0.0000000000 Z3.5432936489 F33.0000000000
G04 P0.0160
G01 X0.0000000000 Y0.0000000000 Z3.4923645318 F26.1921173575
G04 P0.0160
G01 X0.0000000000 Y0.0000000000 Z3.4724809799 F22.0248575938
G01 X0.0000000000 Y0.0000000000 Z3.4552934799 F16.5000000000
G01 X0.0000000000 Y0.0000000000 Z3.4507101465 F16.5000000000
G01 X0.0000000000 Y0.0000000000 Z3.3997810294 F26.1921173575
G01 X0.0000000000 Y0.0000000000 Z3.3951976961 F16.5000000000
G01 X0.0000000000 Y0.0000000000 Z3.3188902396 F39.2438347951
G01 X0.0000000000 Y0.0000000000 Z3.3143069062 F16.5000000000
G01 X0.0000000000 Y0.0000000000 Z3.2501402396 F33.0000000000
G01 X0.0000000000 Y0.0000000000 Z3.2455569062 F16.5000000000
G01 X0.0000000000 Y0.0000000000 Z3.2223799686 F24.7220667685
G01 X0.0000000000 Y0.0000000000 Z3.1974862208 F24.7220667685
G01 X0.0000000000 Y0.0000000000 Z3.1951945542 F8.2500000000
G01 X0.0000000000 Y0.0000000000 Z3.1310278875 F33.0000000000
G01 X0.0000000000 Y0.0000000000 Z3.1287362208 F8.2500000000
G01 X0.0000000000 Y0.0000000000 Z3.0524287643 F39.2438347951
G01 X0.0000000000 Y0.0000000000 Z3.0501370976 F8.2500000000
G01 X0.0000000000 Y0.0000000000 Z2.9859704310 F33.0000000000
G01 X0.0000000000 Y0.0000000000 Z2.9836787643 F8.2500000000
G01 X0.0000000000 Y0.0000000000 Z2.9596434216 F24.7220667685
G01 X0.0000000000 Y0.0000000000 Z2.9356080789 F24.7220667685
G01 X0.0000000000 Y0.0000000000 Z2.9321744585 F12.3610333842
G01 X0.0000000000 Y0.0000000000 Z2.8680077919 F33.0000000000
G01 X0.0000000000 Y0.0000000000 Z2.8645741715 F12.3610333842
G01 X0.0000000000 Y0.0000000000 Z2.7882667149 F39.2438347951
G01 X0.0000000000 Y0.0000000000 Z2.7848330945 F12.3610333842
G01 X0.0000000000 Y0.0000000000 Z2.7206664279 F33.0000000000
G01 X0.0000000000 Y0.0000000000 Z2.7172328075 F12.3610333842
G01 X0.0000000000 Y0.0000000000 Z2.6923390597 F24.7220667685
G01 X0.0000000000 Y0.0000000000 Z2.6691621221 F24.7220667685
G01 X0.0000000000 Y0.0000000000 Z2.6645787888 F16.5000000000
G01 X0.0000000000 Y0.0000000000 Z2.6004121221 F33.0000000000
G01 X0.0000000000 Y0.0000000000 Z2.5958287888 F16.5000000000
G01 X0.0000000000 Y0.0000000000 Z2.5195213322 F39.2438347951
G01 X0.0000000000 Y0.0000000000 Z2.5149379989 F16.5000000000
G01 X0.0000000000 Y0.0000000000 Z2.4507713322 F33.0000000000
G01 X0.0000000000 Y0.0000000000 Z2.4461879989 F16.5000000000
G01 X0.0000000000 Y0.0000000000 Z2.4204358460 F24.7220667685
G01 X0.0000000000 Y0.0000000000 Z2.3981173135 F24.7220667685
G01 X0.0000000000 Y0.0000000000 Z2.3946836931 F12.3610333842
G01 X0.0000000000 Y0.0000000000 Z2.3305170265 F33.0000000000
G01 X0.0000000000 Y0.0000000000 Z2.3270834061 F12.3610333842
G01 X0.0000000000 Y0.0000000000 Z2.2414311821 F44.0497151876
G01 X0.0000000000 Y0.0000000000 Z2.2379975617 F12.3610333842
G01 X0.0000000000 Y0.0000000000 Z2.1700153465 F34.9622821139
G01 X0.0000000000 Y0.0000000000 Z2.1665817261 F12.3610333842
G01 X0.0000000000 Y0.0000000000 Z2.1383888220 F26.1921173575
G01 X0.0000000000 Y0.0000000000 Z2.1156526090 F26.1921173575
G01 X0.0000000000 Y0.0000000000 Z2.1132246728 F8.7405705285
G01 X0.0000000000 Y0.0000000000 Z2.0452424576 F34.9622821139
G01 X0.0000000000 Y0.0000000000 Z2.0428145213 F8.7405705285
G01 X0.0000000000 Y0.0000000000 Z1.9571622973 F44.0497151876
G01 X0.0000000000 Y0.0000000000 Z1.9547343611 F8.7405705285
G01 X0.0000000000 Y0.0000000000 Z1.8867521458 F34.9622821139
G01 X0.0000000000 Y0.0000000000 Z1.8843242096 F8.7405705285
G01 X0.0000000000 Y0.0000000000 Z1.8552218570 F26.1921173575
G01 X0.0000000000 Y0.0000000000 Z1.8333950925 F26.1921173575
G01 X0.0000000000 Y0.0000000000 Z1.8297572984 F13.0960586787
G01 X0.0000000000 Y0.0000000000 Z1.7617750832 F34.9622821139
G01 X0.0000000000 Y0.0000000000 Z1.7581372891 F13.0960586787
G01 X0.0000000000 Y0.0000000000 Z1.7046623388 F46.6690475583
G01 X0.0000000000 Y0.0000000000 Z1.6673919189 F46.6690475583
G01 X0.0000000000 Y0.0000000000 Z1.6625360464 F17.4811410569
G01 X0.0000000000 Y0.0000000000 Z1.5862285898 F39.2438347951
G01 X0.0000000000 Y0.0000000000 Z1.5813727173 F17.4811410569
G01 X0.0000000000 Y0.0000000000 Z1.5466647881 F29.3996576986
G01 X0.0000000000 Y0.0000000000 Z1.5242067162 F29.3996576986
G01 X0.0000000000 Y0.0000000000 Z1.5214814499 F9.8109586988
G01 X0.0000000000 Y0.0000000000 Z1.4451739934 F39.2438347951
G01 X0.0000000000 Y0.0000000000 Z1.4424487271 F9.8109586988
G01 X0.0000000000 Y0.0000000000 Z1.3517033568 F46.6690475583
G01 X0.0000000000 Y0.0000000000 Z1.3489780905 F9.8109586988
G01 X0.0000000000 Y0.0000000000 Z1.2726706339 F39.2438347951
G01 X0.0000000000 Y0.0000000000 Z1.2699453676 F9.8109586988
G01 X0.0000000000 Y0.0000000000 Z1.2342166170 F29.3996576986
G01 X0.0000000000 Y0.0000000000 Z1.2127793666 F29.3996576986
G01 X0.0000000000 Y0.0000000000 Z1.2086960808 F14.6998288493
G01 X0.0000000000 Y0.0000000000 Z1.1323886242 F39.2438347951
G01 X0.0000000000 Y0.0000000000 Z1.1283053384 F14.6998288493
G01 X0.0000000000 Y0.0000000000 Z1.0732431945 F44.0497151876
G01 X0.0000000000 Y0.0000000000 Z1.0426531145 F44.0497151876
G01 X0.0000000000 Y0.0000000000 Z1.0372025818 F19.6219173975
G01 X0.0000000000 Y0.0000000000 Z0.9692203666 F34.9622821139
G01 X0.0000000000 Y0.0000000000 Z0.9637698340 F19.6219173975
G01 X0.0000000000 Y0.0000000000 Z0.9301202388 F26.1921173575
G01 X0.0000000000 Y0.0000000000 Z0.9128407169 F26.1921173575
G01 X0.0000000000 Y0.0000000000 Z0.9104127807 F8.7405705285
G01 X0.0000000000 Y0.0000000000 Z0.8424305655 F34.9622821139
G01 X0.0000000000 Y0.0000000000 Z0.8400026292 F8.7405705285
G01 X0.0000000000 Y0.0000000000 Z0.7543504052 F44.0497151876
G01 X0.0000000000 Y0.0000000000 Z0.7519224690 F8.7405705285
G01 X0.0000000000 Y0.0000000000 Z0.6839402537 F34.9622821139
G01 X0.0000000000 Y0.0000000000 Z0.6815123175 F8.7405705285
G01 X0.0000000000 Y0.0000000000 Z0.6469532737 F26.1921173575
G01 X0.0000000000 Y0.0000000000 Z0.6305832004 F26.1921173575
G01 X0.0000000000 Y0.0000000000 Z0.6269454063 F13.0960586787
G01 X0.0000000000 Y0.0000000000 Z0.5589631911 F34.9622821139
G01 X0.0000000000 Y0.0000000000 Z0.5553253970 F13.0960586787
G01 X0.0000000000 Y0.0000000000 Z0.5079806400 F34.9622821139
G01 X0.0000000000 Y0.0000000000 Z0.4873431818 F34.9622821139
G01 X0.0000000000 Y0.0000000000 Z0.4824873093 F17.4811410569
G01 X0.0000000000 Y0.0000000000 Z0.4253213082 F29.3996576986
G01 X0.0000000000 Y0.0000000000 Z0.4204654357 F17.4811410569
G01 X0.0000000000 Y0.0000000000 Z0.3898753557 F22.0248575938
G01 X0.0000000000 Y0.0000000000 Z0.3776393237 F22.0248575938
G01 X0.0000000000 Y0.0000000000 Z0.3755976808 F7.3499144247
G01 X0.0000000000 Y0.0000000000 Z0.3184316797 F29.3996576986
G01 X0.0000000000 Y0.0000000000 Z0.3163900368 F7.3499144247
G01 X0.0000000000 Y0.0000000000 Z0.2484078216 F34.9622821139
G01 X0.0000000000 Y0.0000000000 Z0.2463661787 F7.3499144247
G01 X0.0000000000 Y0.0000000000 Z0.1892001776 F29.3996576986
G01 X0.0000000000 Y0.0000000000 Z0.1912418205 F7.3499144247
G01 X0.0000000000 Y0.0000000000 Z0.2225966525 F22.0248575938
G01 X0.0000000000 Y0.0000000000 Z0.2340679325 F22.0248575938
G01 X0.0000000000 Y0.0000000000 Z0.2381512183 F14.6998288493
G01 X0.0000000000 Y0.0000000000 Z0.2953172194 F29.3996576986
G01 X0.0000000000 Y0.0000000000 Z0.2994005052 F14.6998288493
G01 X0.0000000000 Y0.0000000000 Z0.3565665063 F29.3996576986
G01 X0.0000000000 Y0.0000000000 Z0.3606497920 F14.6998288493
G01 X0.0000000000 Y0.0000000000 Z0.4060224772 F23.3345237792
G01 X0.0000000000 Y0.0000000000 Z0.4101057630 F14.6998288493
G01 X0.0000000000 Y0.0000000000 Z0.4355990937 F17.4811410569
G01 X0.0000000000 Y0.0000000000 Z0.4440968706 F17.4811410569
G01 X0.0000000000 Y0.0000000000 Z0.4473377767 F11.6672618896
G01 X0.0000000000 Y0.0000000000 Z0.4927104618 F23.3345237792
G01 X0.0000000000 Y0.0000000000 Z0.4959513679 F11.6672618896
G01 X0.0000000000 Y0.0000000000 Z0.5531173689 F29.3996576986
G01 X0.0000000000 Y0.0000000000 Z0.5563582750 F11.6672618896
G01 X0.0000000000 Y0.0000000000 Z0.6017309602 F23.3345237792
G01 X0.0000000000 Y0.0000000000 Z0.6049718662 F11.6672618896
G01 X0.0000000000 Y0.0000000000 Z0.6310721810 F17.4811410569
G01 X0.0000000000 Y0.0000000000 Z0.6389629738 F17.4811410569
G01 X0.0000000000 Y0.0000000000 Z0.6430462596 F14.6998288493
G01 X0.0000000000 Y0.0000000000 Z0.6884189448 F23.3345237792
G01 X0.0000000000 Y0.0000000000 Z0.6925022306 F14.6998288493
G01 X0.0000000000 Y0.0000000000 Z0.7429188972 F33.0000000000
G01 X0.0000000000 Y0.0000000000 Z0.7566688972 F33.0000000000
G01 X0.0000000000 Y0.0000000000 Z0.7615247697 F17.4811410569
G01 X0.0000000000 Y0.0000000000 Z0.8124538868 F26.1921173575
G01 X0.0000000000 Y0.0000000000 Z0.8173097593 F17.4811410569
G01 X0.0000000000 Y0.0000000000 Z0.8479690053 F19.6219173975
G01 X0.0000000000 Y0.0000000000 Z0.8554634876 F19.6219173975
G01 X0.0000000000 Y0.0000000000 Z0.8572823846 F6.5480293394
G01 X0.0000000000 Y0.0000000000 Z0.9082115017 F26.1921173575
G01 X0.0000000000 Y0.0000000000 Z0.9100303988 F6.5480293394
G01 X0.0000000000 Y0.0000000000 Z0.9741970654 F33.0000000000
G01 X0.0000000000 Y0.0000000000 Z0.9760159625 F6.5480293394
G01 X0.0000000000 Y0.0000000000 Z1.0269450796 F26.1921173575
G01 X0.0000000000 Y0.0000000000 Z1.0287639766 F6.5480293394
G01 X0.0000000000 Y0.0000000000 Z1.0601045391 F19.6219173975
G01 X0.0000000000 Y0.0000000000 Z1.0669177049 F19.6219173975
G01 X0.0000000000 Y0.0000000000 Z1.0705554989 F13.0960586787
G01 X0.0000000000 Y0.0000000000 Z1.1214846160 F26.1921173575
G01 X0.0000000000 Y0.0000000000 Z1.2046991556 F13.0960586787
G01 X0.0000000000 Y0.0000000000 Z1.2376206472 F7.3499144247
G01 X0.0000000000 Y0.0000000000 Z1.3034636306 F14.6998288493
G01 X0.0000000000 Y0.0000000000 Z1.3621230601 F13.0960586787
G01 X0.0000000000 Y0.0000000000 Z1.4279660435 F14.6998288493
G01 X0.0000000000 Y0.0000000000 Z1.5062669878 F17.4811410569
G01 X0.0000000000 Y0.0000000000 Z1.5391884795 F7.3499144247
G01 X0.0000000000 Y0.0000000000 Z1.5978479090 F13.0960586787
G01 X0.0000000000 Y0.0000000000 Z1.6636908924 F14.6998288493
G01 X0.0000000000 Y0.0000000000 Z1.6966123841 F7.3499144247
G01 X0.0000000000 Y0.0000000000 Z1.7624553675 F14.6998288493
G01 X0.0000000000 Y0.0000000000 Z1.8211147970 F13.0960586787
G01 X0.0000000000 Y0.0000000000 Z1.8869577804 F14.6998288493
G01 X0.0000000000 Y0.0000000000 Z2.0620561405 F19.6219173975
G01 X0.0000000000 Y0.0000000000 Z2.2180510451 F17.4811410569
G01 X0.0000000000 Y0.0000000000 Z2.2509725368 F7.3499144247
G01 X0.0000000000 Y0.0000000000 Z2.3168155201 F14.6998288493
G01 X0.0000000000 Y0.0000000000 Z2.3754749496 F13.0960586787
G01 X0.0000000000 Y0.0000000000 Z2.4413179330 F14.6998288493
G01 X0.0000000000 Y0.0000000000 Z2.5196188774 F17.4811410569
G01 X0.0000000000 Y0.0000000000 Z2.5525403690 F7.3499144247
G01 X0.0000000000 Y0.0000000000 Z2.6111997985 F13.0960586787
G01 X0.0000000000 Y0.0000000000 Z2.6770427819 F14.6998288493
G01 X0.0000000000 Y0.0000000000 Z2.7099642736 F7.3499144247
G01 X0.0000000000 Y0.0000000000 Z2.7758072570 F14.6998288493
G01 X0.0000000000 Y0.0000000000 Z2.8344666865 F13.0960586787
G01 X0.0000000000 Y0.0000000000 Z3.0949545127 F11.6672618896
G01 X0.0000000000 Y0.0000000000 Z3.1278760044 F7.3499144247
G01 X0.0000000000 Y0.0000000000 Z3.1937189878 F14.6998288493
G01 X0.0000000000 Y0.0000000000 Z3.2523784173 F13.0960586787
G01 X0.0000000000 Y0.0000000000 Z3.3182214007 F14.6998288493
G01 X0.0000000000 Y0.0000000000 Z3.3965223450 F17.4811410569
G01 X0.0000000000 Y0.0000000000 Z3.4294438367 F7.3499144247
G01 X0.0000000000 Y0.0000000000 Z3.4881032662 F13.0960586787
G01 X0.0000000000 Y0.0000000000 Z3.5539462496 F14.6998288493
G01 X0.0000000000 Y0.0000000000 Z3.5868677413 F7.3499144247
G01 X0.0000000000 Y0.0000000000 Z3.6527107247 F14.6998288493
G01 X0.0000000000 Y0.0000000000 Z3.7113701542 F13.0960586787
G01 X0.0000000000 Y0.0000000000 Z3.7772131376 F14.6998288493
G01 X0.0000000000 Y0.0000000000 Z3.6021147774 F19.6219173975
G01 X0.0000000000 Y0.0000000000 Z3.4461198729 F17.4811410569
G01 X0.0000000000 Y0.0000000000 Z3.4131983812 F7.3499144247
G01 X0.0000000000 Y0.0000000000 Z3.3473553978 F14.6998288493
G01 X0.0000000000 Y0.0000000000 Z3.2886959683 F13.0960586787
G01 X0.0000000000 Y0.0000000000 Z3.2228529849 F14.6998288493
G01 X0.0000000000 Y0.0000000000 Z3.1445520406 F17.4811410569
G01 X0.0000000000 Y0.0000000000 Z3.1116305489 F7.3499144247
G01 X0.0000000000 Y0.0000000000 Z3.0529711194 F13.0960586787
G01 X0.0000000000 Y0.0000000000 Z2.9871281360 F14.6998288493
G01 X0.0000000000 Y0.0000000000 Z2.9542066443 F7.3499144247
G01 X0.0000000000 Y0.0000000000 Z2.8883636609 F14.6998288493
G01 X0.0000000000 Y0.0000000000 Z2.8297042314 F13.0960586787
G01 X0.0000000000 Y0.0000000000 Z2.5692164052 F11.6672618896
G01 X0.0000000000 Y0.0000000000 Z2.5362949135 F7.3499144247
G01 X0.0000000000 Y0.0000000000 Z2.4704519301 F14.6998288493
G01 X0.0000000000 Y0.0000000000 Z2.4117925006 F13.0960586787
G01 X0.0000000000 Y0.0000000000 Z2.3459495173 F14.6998288493
G01 X0.0000000000 Y0.0000000000 Z2.2676485729 F17.4811410569
G01 X0.0000000000 Y0.0000000000 Z2.2347270812 F7.3499144247
G01 X0.0000000000 Y0.0000000000 Z2.1760676517 F13.0960586787
G01 X0.0000000000 Y0.0000000000 Z2.1102246684 F14.6998288493
G01 X0.0000000000 Y0.0000000000 Z2.0773031767 F7.3499144247
G01 X0.0000000000 Y0.0000000000 Z2.0114601933 F14.6998288493
G01 X0.0000000000 Y0.0000000000 Z1.9528007638 F13.0960586787
G01 X0.0000000000 Y0.0000000000 Z1.8869577804 F14.6998288493
G01 X0.0000000000 Y0.0000000000 Z1.7118594203 F19.6219173975
G01 X0.0000000000 Y0.0000000000 Z1.5558645157 F17.4811410569
G01 X0.0000000000 Y0.0000000000 Z1.5229430240 F7.3499144247
G01 X0.0000000000 Y0.0000000000 Z1.4571000406 F14.6998288493
G01 X0.0000000000 Y0.0000000000 Z1.3984406111 F13.0960586787
G01 X0.0000000000 Y0.0000000000 Z1.3325976277 F14.6998288493
G01 X0.0000000000 Y0.0000000000 Z1.2542966834 F17.4811410569
G01 X0.0000000000 Y0.0000000000 Z1.2213751917 F7.3499144247
G01 X0.0000000000 Y0.0000000000 Z1.1627157622 F13.0960586787
G01 X0.0000000000 Y0.0000000000 Z1.0968727788 F14.6998288493
G01 X0.0000000000 Y0.0000000000 Z1.0639512871 F7.3499144247
G01 X0.0000000000 Y0.0000000000 Z0.9981083038 F14.6998288493
G01 X0.0000000000 Y0.0000000000 Z0.9394488743 F13.0960586787
G01 X0.0000000000 Y0.0000000000 Z0.6789610480 F11.6672618896
G01 X0.0000000000 Y0.0000000000 Z0.6460395564 F7.3499144247
G01 X0.0000000000 Y0.0000000000 Z0.5801965730 F14.6998288493
G01 X0.0000000000 Y0.0000000000 Z0.5215371435 F13.0960586787
G01 X0.0000000000 Y0.0000000000 Z0.4556941601 F14.6998288493
G01 X0.0000000000 Y0.0000000000 Z0.3773932158 F17.4811410569
G01 X0.0000000000 Y0.0000000000 Z0.3444717241 F7.3499144247
G01 X0.0000000000 Y0.0000000000 Z0.2858122946 F13.0960586787
G01 X0.0000000000 Y0.0000000000 Z0.2199693112 F14.6998288493
G01 X0.0000000000 Y0.0000000000 Z0.1870478195 F7.3499144247
G01 X0.0000000000 Y0.0000000000 Z0.2528908029 F14.6998288493
G01 X0.0000000000 Y0.0000000000 Z0.3115502324 F13.0960586787
G01 X0.0000000000 Y0.0000000000 Z0.3773932158 F14.6998288493
G01 X0.0000000000 Y0.0000000000 Z0.5524915759 F19.6219173975
G01 X0.0000000000 Y0.0000000000 Z0.7084864804 F17.4811410569
G01 X0.0000000000 Y0.0000000000 Z0.7414079721 F7.3499144247
G01 X0.0000000000 Y0.0000000000 Z0.8072509555 F14.6998288493
G01 X0.0000000000 Y0.0000000000 Z0.8659103850 F13.0960586787
G01 X0.0000000000 Y0.0000000000 Z0.9317533684 F14.6998288493
G01 X0.0000000000 Y0.0000000000 Z1.0100543127 F17.4811410569
G01 X0.0000000000 Y0.0000000000 Z1.0429758044 F7.3499144247
G01 X0.0000000000 Y0.0000000000 Z1.1016352339 F13.0960586787
G01 X0.0000000000 Y0.0000000000 Z1.1674782173 F14.6998288493
G01 X0.0000000000 Y0.0000000000 Z1.2003997090 F7.3499144247
G01 X0.0000000000 Y0.0000000000 Z1.2662426924 F14.6998288493
G01 X0.0000000000 Y0.0000000000 Z1.3249021219 F13.0960586787
G01 X0.0000000000 Y0.0000000000 Z1.5853899481 F11.6672618896
G01 X0.0000000000 Y0.0000000000 Z1.6183114398 F7.3499144247
G01 X0.0000000000 Y0.0000000000 Z1.6841544232 F14.6998288493
G01 X0.0000000000 Y0.0000000000 Z1.7428138527 F13.0960586787
G01 X0.0000000000 Y0.0000000000 Z1.8086568361 F14.6998288493
G01 X0.0000000000 Y0.0000000000 Z1.8869577804 F17.4811410569
G01 X0.0000000000 Y0.0000000000 Z1.9198792721 F7.3499144247
G01 X0.0000000000 Y0.0000000000 Z1.9785387016 F13.0960586787
G01 X0.0000000000 Y0.0000000000 Z2.0443816850 F14.6998288493
G01 X0.0000000000 Y0.0000000000 Z2.0773031767 F7.3499144247
G01 X0.0000000000 Y0.0000000000 Z2.1431461600 F14.6998288493
G01 X0.0000000000 Y0.0000000000 Z2.2018055895 F13.0960586787
G01 X0.0000000000 Y0.0000000000 Z2.2676485729 F14.6998288493
G01 X0.0000000000 Y0.0000000000 Z2.4427469330 F19.6219173975
G01 X0.0000000000 Y0.0000000000 Z2.5987418376 F17.4811410569
G01 X0.0000000000 Y0.0000000000 Z2.6316633293 F7.3499144247
G01 X0.0000000000 Y0.0000000000 Z2.6975063127 F14.6998288493
G01 X0.0000000000 Y0.0000000000 Z2.7561657422 F13.0960586787
G01 X0.0000000000 Y0.0000000000 Z2.8220087256 F14.6998288493
G01 X0.0000000000 Y0.0000000000 Z2.9003096699 F17.4811410569
G01 X0.0000000000 Y0.0000000000 Z2.9332311616 F7.3499144247
G01 X0.0000000000 Y0.0000000000 Z2.9918905911 F13.0960586787
G01 X0.0000000000 Y0.0000000000 Z3.0577335745 F14.6998288493
G01 X0.0000000000 Y0.0000000000 Z3.0906550662 F7.3499144247
G01 X0.0000000000 Y0.0000000000 Z3.1564980496 F14.6998288493
G01 X0.0000000000 Y0.0000000000 Z3.2151574791 F13.0960586787
G01 X0.0000000000 Y0.0000000000 Z3.4756453053 F11.6672618896
