( File created with mid2cnc.py - http://tim.cexx.org/?p=633 )
( Input file was Super_Mario_Brothers_nodrums.mid )
( Steps per inch: 2000 )
( Machine envelope: )
( x = 12 )
( y = 6 )
( z = 1 )
G20
G00 X0 Y0 Z0
G04 P2.2850
G01 X0.0396337499 Y0.0222436901 Z0.0088274143 F23.1033684607
G04 P0.0220
G01 X0.0792674999 Y0.0444873801 Z0.0176548285 F23.1033684607
G04 P0.1650
G01 X0.1189012498 Y0.0667310702 Z0.0264822428 F23.1033684607
G04 P0.1650
G01 X0.1503585780 Y0.0889747603 Z0.0353096570 F19.7236566271
G04 P0.0220
G01 X0.1899923280 Y0.1112184504 Z0.0441370713 F23.1033684607
G04 P0.1650
G01 X0.2371250654 Y0.1409102144 Z0.0677034400 F30.1827855237
G04 P0.4510
G01 X0.2606914341 Y0.1526933987 Z0.0677034400 F13.1479266259
G04 P0.4510
G01 X0.2921487623 Y0.1725102737 Z0.0794866244 F19.4621442721
G04 P0.3080
G01 X0.3157151310 Y0.1882389378 Z0.0893950618 F14.9781422692
G04 P0.3080
G01 X0.3355320060 Y0.2000221222 Z0.0972593939 F12.1557917988
G04 P0.3080
G01 X0.3619843605 Y0.2157507863 Z0.1077570177 F16.2260353520
G04 P0.1650
G01 X0.3916761245 Y0.2334056148 Z0.1195402021 F18.2131088771
G04 P0.1650
G01 X0.4197014179 Y0.2500695539 Z0.1306620471 F17.1908856232
G04 P0.0220
G01 X0.4461537724 Y0.2657982180 Z0.1411596710 F16.2260353520
G04 P0.1650
G01 X0.4697201411 Y0.2815268821 Z0.1510681084 F14.9781422692
G04 P0.0220
G01 X0.5093538910 Y0.3050932508 Z0.1667967725 F24.3115835975
G04 P0.0220
G01 X0.5564866284 Y0.3347850148 Z0.1866136475 F29.5041531987
G04 P0.1650
G01 X0.6093913374 Y0.3662423430 Z0.2076088952 F32.4520707040
G04 P0.1650
G01 X0.6513818328 Y0.3926946975 Z0.2252637237 F26.2852122645
G04 P0.0220
G01 X0.6985145702 Y0.4223864615 Z0.2450805987 F29.5041531987
G04 P0.1650
G01 X0.7381483202 Y0.4488388160 Z0.2608092628 F25.0399424395
G04 P0.1650
G01 X0.7696056484 Y0.4686556910 Z0.2740354400 F19.6916597766
G04 P0.0220
G01 X0.8049153054 Y0.4896509387 Z0.2888813220 F21.7969463021
G04 P0.0220
G01 X0.8346070694 Y0.5073057672 Z0.3006645064 F18.2131088771
G04 P0.3080
G01 X0.8660643976 Y0.5271226421 Z0.3124476907 F19.4621442721
G04 P0.3080
G01 X0.8896307663 Y0.5428513062 Z0.3223561282 F14.9781422692
G04 P0.3080
G01 X0.9094476413 Y0.5546344906 Z0.3302204603 F12.1557917988
G04 P0.3080
G01 X0.9358999958 Y0.5703631547 Z0.3407180841 F16.2260353520
G04 P0.1650
G01 X0.9655917598 Y0.5880179832 Z0.3525012685 F18.2131088771
G04 P0.1650
G01 X0.9936170531 Y0.6046819223 Z0.3636231135 F17.1908856232
G04 P0.0220
G01 X1.0200694076 Y0.6204105864 Z0.3741207373 F16.2260353520
G04 P0.1650
G01 X1.0436357764 Y0.6361392505 Z0.3840291748 F14.9781422692
G04 P0.0220
G01 X1.0832695263 Y0.6597056192 Z0.3997578389 F24.3115835975
G04 P0.0220
G01 X1.1304022637 Y0.6893973832 Z0.4195747139 F29.5041531987
G04 P0.1650
G01 X1.1833069727 Y0.7208547114 Z0.4405699616 F32.4520707040
G04 P0.1650
G01 X1.2252974681 Y0.7473070659 Z0.4582247901 F26.2852122645
G04 P0.0220
G01 X1.2724302055 Y0.7769988299 Z0.4780416651 F29.5041531987
G04 P0.1650
G01 X1.3120639555 Y0.8034511844 Z0.4937703292 F25.0399424395
G04 P0.1650
G01 X1.3435212837 Y0.8232680594 Z0.5069965064 F19.6916597766
G04 P0.0220
G01 X1.3788309407 Y0.8442633071 Z0.5218423884 F21.7969463021
G04 P0.0220
G01 X1.4085227047 Y0.8619181356 Z0.5336255728 F18.2131088771
G04 P0.3080
G01 X1.4163870367 Y0.8619181356 Z0.5336255728 F3.9243834795
G04 P0.1650
G01 X1.4635197742 Y0.9015518855 Z0.5336255728 F30.7300031433
G04 P0.0220
G01 X1.5080071543 Y0.9389611640 Z0.5454087571 F29.5952485566
G04 P0.0220
G01 X1.5499976497 Y0.9742708210 Z0.5454087571 F27.3773204088
G04 P0.0220
G01 X1.5874069282 Y1.0039625851 Z0.5454087571 F23.8329319164
G04 P0.0220
G01 X1.6031355923 Y1.0039625851 Z0.5454087571 F7.8487669590
G04 P0.0220
G01 X1.6427693422 Y1.0354199132 Z0.5454087571 F25.2501117958
G04 P0.0220
G01 X1.6532669660 Y1.0354199132 Z0.5454087571 F5.2384234715
G04 P0.0220
G01 X1.6782346640 Y1.0552367882 Z0.5454087571 F15.9065736819
G04 P0.0220
G01 X1.7046870185 Y1.0762320359 Z0.5454087571 F16.8524277737
G04 P0.0220
G01 X1.7361443466 Y1.0997984046 Z0.5611374212 F21.1260524834
G04 P0.0220
G01 X1.7518730107 Y1.0997984046 Z0.5611374212 F7.8487669590
G04 P0.0220
G01 X1.7783253652 Y1.1155270687 Z0.5611374212 F15.3571853794
G04 P0.0220
G01 X1.8097826934 Y1.1353439437 Z0.5716350451 F19.2780327114
G04 P0.0220
G01 X1.8450923504 Y1.1563391914 Z0.5716350451 F20.4993830923
G04 P0.0220
G01 X1.8529566825 Y1.1563391914 Z0.5716350451 F3.9243834795
G04 P0.1650
G01 X1.9000894199 Y1.1959729413 Z0.5716350451 F30.7300031433
G04 P0.0220
G01 X1.9445768001 Y1.2333822198 Z0.5815434825 F29.4236701590
G04 P0.0220
G01 X1.9865672954 Y1.2686918768 Z0.5815434825 F27.3773204088
G04 P0.0220
G01 X2.0239765739 Y1.2983836408 Z0.5815434825 F23.8329319164
G04 P0.0220
G01 X2.0357597583 Y1.2983836408 Z0.5815434825 F5.8799315397
G04 P0.0220
G01 X2.0753935082 Y1.3298409690 Z0.5972721466 F26.4418472970
G04 P0.1650
G01 X2.1383081646 Y1.3769737064 Z0.6392626420 F44.4734200449
G04 P0.1650
G01 X2.2012228209 Y1.4241064439 Z0.6812531374 F44.4734200449
G04 P0.0220
G01 X2.2641374773 Y1.4712391813 Z0.7232436327 F44.4734200449
G04 P0.1650
G01 X2.2759206617 Y1.4712391813 Z0.7232436327 F5.8799315397
G04 P0.1650
G01 X2.2837849937 Y1.4712391813 Z0.7232436327 F3.9243834795
G04 P0.1650
G01 X2.3309177311 Y1.5108729313 Z0.7232436327 F30.7300031433
G04 P0.0220
G01 X2.3754051113 Y1.5482822097 Z0.7350268171 F29.5952485566
G04 P0.0220
G01 X2.4173956066 Y1.5835918668 Z0.7350268171 F27.3773204088
G04 P0.0220
G01 X2.4548048851 Y1.6132836308 Z0.7350268171 F23.8329319164
G04 P0.0220
G01 X2.4705335492 Y1.6132836308 Z0.7350268171 F7.8487669590
G04 P0.0220
G01 X2.5101672992 Y1.6447409590 Z0.7350268171 F25.2501117958
G04 P0.0220
G01 X2.5206649230 Y1.6447409590 Z0.7350268171 F5.2384234715
G04 P0.0220
G01 X2.5456326209 Y1.6645578339 Z0.7350268171 F15.9065736819
G04 P0.0220
G01 X2.5720849754 Y1.6855530816 Z0.7350268171 F16.8524277737
G04 P0.0220
G01 X2.6035423036 Y1.7091194503 Z0.7507554812 F21.1260524834
G04 P0.0220
G01 X2.6192709677 Y1.7091194503 Z0.7507554812 F7.8487669590
G04 P0.0220
G01 X2.6457233222 Y1.7248481144 Z0.7507554812 F15.3571853794
G04 P0.0220
G01 X2.6771806504 Y1.7446649894 Z0.7612531050 F19.2780327114
G04 P0.0220
G01 X2.7124903074 Y1.7656602371 Z0.7612531050 F20.4993830923
G04 P0.0220
G01 X2.7203546395 Y1.7656602371 Z0.7612531050 F3.9243834795
G04 P0.1650
G01 X2.7577639179 Y1.7906279350 Z0.7737369540 F23.2920102355
G04 P0.3080
G01 X2.7930735750 Y1.8116231827 Z0.7877496006 F21.6591586630
G04 P0.3080
G01 X2.8245309031 Y1.8314400577 Z0.8034782647 F20.1445925135
G04 P0.3080
G01 X2.8363140875 Y1.8314400577 Z0.8034782647 F5.8799315397
G04 P0.0220
G01 X2.8480972719 Y1.8314400577 Z0.8034782647 F5.8799315397
G04 P0.1650
G01 X2.8559616039 Y1.8314400577 Z0.8034782647 F3.9243834795
G04 P0.1650
G01 X2.8638259360 Y1.8314400577 Z0.8034782647 F3.9243834795
G04 P0.1650
G01 X2.9109586734 Y1.8710738076 Z0.8034782647 F30.7300031433
G04 P0.0220
G01 X2.9554460535 Y1.9084830861 Z0.7916950804 F29.5952485566
G04 P0.0220
G01 X2.9974365489 Y1.9437927431 Z0.7916950804 F27.3773204088
G04 P0.0220
G01 X3.0348458274 Y1.9734845071 Z0.7916950804 F23.8329319164
G04 P0.0220
G01 X3.0505744915 Y1.9734845071 Z0.7916950804 F7.8487669590
G04 P0.0220
G01 X3.0902082414 Y2.0049418353 Z0.7916950804 F25.2501117958
G04 P0.0220
G01 X3.1007058653 Y2.0049418353 Z0.7916950804 F5.2384234715
G04 P0.0220
G01 X3.1256735632 Y2.0247587103 Z0.7916950804 F15.9065736819
G04 P0.0220
G01 X3.1521259177 Y2.0457539580 Z0.7916950804 F16.8524277737
G04 P0.0220
G01 X3.1835832459 Y2.0693203267 Z0.7759664163 F21.1260524834
G04 P0.0220
G01 X3.1993119100 Y2.0693203267 Z0.7759664163 F7.8487669590
G04 P0.0220
G01 X3.2257642645 Y2.0850489908 Z0.7759664163 F15.3571853794
G04 P0.0220
G01 X3.2572215926 Y2.1048658657 Z0.7654687924 F19.2780327114
G04 P0.0220
G01 X3.2925312497 Y2.1258611134 Z0.7654687924 F20.4993830923
G04 P0.0220
G01 X3.3003955817 Y2.1258611134 Z0.7654687924 F3.9243834795
G04 P0.1650
G01 X3.3475283191 Y2.1654948634 Z0.7654687924 F30.7300031433
G04 P0.0220
G01 X3.3920156993 Y2.2029041419 Z0.7555603550 F29.4236701590
G04 P0.0220
G01 X3.4340061946 Y2.2382137989 Z0.7555603550 F27.3773204088
G04 P0.0220
G01 X3.4714154731 Y2.2679055629 Z0.7555603550 F23.8329319164
G04 P0.0220
G01 X3.4831986575 Y2.2679055629 Z0.7555603550 F5.8799315397
G04 P0.0220
G01 X3.5228324074 Y2.2993628911 Z0.7398316909 F26.4418472970
G04 P0.1650
G01 X3.5857470638 Y2.3464956285 Z0.6978411955 F44.4734200449
G04 P0.1650
G01 X3.6486617202 Y2.3936283659 Z0.6558507001 F44.4734200449
G04 P0.0220
G01 X3.7115763765 Y2.4407611034 Z0.6138602048 F44.4734200449
G04 P0.1650
G01 X3.7233595609 Y2.4407611034 Z0.6138602048 F5.8799315397
G04 P0.1650
G01 X3.7312238929 Y2.4407611034 Z0.6138602048 F3.9243834795
G04 P0.1650
G01 X3.7783566304 Y2.4803948533 Z0.6138602048 F30.7300031433
G04 P0.0220
G01 X3.8228440105 Y2.5178041318 Z0.6020770204 F29.5952485566
G04 P0.0220
G01 X3.8648345059 Y2.5531137888 Z0.6020770204 F27.3773204088
G04 P0.0220
G01 X3.9022437844 Y2.5828055528 Z0.6020770204 F23.8329319164
G04 P0.0220
G01 X3.9179724484 Y2.5828055528 Z0.6020770204 F7.8487669590
G04 P0.0220
G01 X3.9576061984 Y2.6142628810 Z0.6020770204 F25.2501117958
G04 P0.0220
G01 X3.9681038222 Y2.6142628810 Z0.6020770204 F5.2384234715
G04 P0.0220
G01 X3.9930715202 Y2.6340797560 Z0.6020770204 F15.9065736819
G04 P0.0220
G01 X4.0195238747 Y2.6550750037 Z0.6020770204 F16.8524277737
G04 P0.0220
G01 X4.0509812028 Y2.6786413724 Z0.5863483563 F21.1260524834
G04 P0.0220
G01 X4.0667098669 Y2.6786413724 Z0.5863483563 F7.8487669590
G04 P0.0220
G01 X4.0931622214 Y2.6943700365 Z0.5863483563 F15.3571853794
G04 P0.0220
G01 X4.1246195496 Y2.7141869115 Z0.5758507325 F19.2780327114
G04 P0.0220
G01 X4.1599292066 Y2.7351821591 Z0.5758507325 F20.4993830923
G04 P0.0220
G01 X4.1677935387 Y2.7351821591 Z0.5758507325 F3.9243834795
G04 P0.1650
G01 X4.2052028172 Y2.7601498571 Z0.5633668835 F23.2920102355
G04 P0.3080
G01 X4.2405124742 Y2.7811451047 Z0.5493542369 F21.6591586630
G04 P0.3080
G01 X4.2719698024 Y2.8009619797 Z0.5336255728 F20.1445925135
G04 P0.3080
G01 X4.2837529867 Y2.8009619797 Z0.5336255728 F5.8799315397
G04 P0.0220
G01 X4.2955361711 Y2.8009619797 Z0.5336255728 F5.8799315397
G04 P0.1650
G01 X4.3034005031 Y2.8009619797 Z0.5336255728 F3.9243834795
G04 P0.1650
G01 X4.3348578313 Y2.8259296776 Z0.5273836483 F20.2816333365
G04 P0.0220
G01 X4.3663151595 Y2.8508973756 Z0.5273836483 F20.0410270135
G04 P0.1650
G01 X4.3977724877 Y2.8758650735 Z0.5180313287 F20.5772389731
G04 P0.1650
G01 X4.4292298158 Y2.9008327714 Z0.5180313287 F20.0410270135
G04 P0.0220
G01 X4.4645394729 Y2.9288580648 Z0.5055474797 F23.3419305276
G04 P0.1650
G01 X4.5041732228 Y2.9524244335 Z0.4937642953 F23.7491799680
G04 P0.0220
G01 X4.5356305510 Y2.9722413084 Z0.4937642953 F18.5526673219
G04 P0.1650
G01 X4.5620829055 Y2.9920581834 Z0.4858999633 F16.9537511880
G04 P0.0220
G01 X4.5856492742 Y3.0077868475 Z0.4858999633 F14.1385120301
G04 P0.1650
G01 X4.5915408664 Y3.0077868475 Z0.4858999633 F2.9399657699
G04 P0.1650
G01 X4.6229981946 Y3.0327545454 Z0.4796580388 F20.2816333365
G04 P0.0220
G01 X4.6544555228 Y3.0577222434 Z0.4796580388 F20.0410270135
G04 P0.1650
G01 X4.6859128509 Y3.0826899413 Z0.4703057192 F20.5772389731
G04 P0.1650
G01 X4.7173701791 Y3.1076576392 Z0.4703057192 F20.0410270135
G04 P0.0220
G01 X4.7526798361 Y3.1356829326 Z0.4578218702 F23.3419305276
G04 P0.0220
G01 X4.7923135861 Y3.1592493013 Z0.4578218702 F23.0097795348
G04 P0.0220
G01 X4.8040967704 Y3.1592493013 Z0.4578218702 F5.8799315397
G04 P0.3080
G01 X4.8119611025 Y3.1592493013 Z0.4578218702 F3.9243834795
G04 P0.3080
G01 X4.8178526947 Y3.1592493013 Z0.4578218702 F2.9399657699
G04 P0.1650
G01 X4.8493100228 Y3.1842169992 Z0.4515799458 F20.2816333365
G04 P0.0220
G01 X4.8807673510 Y3.2091846971 Z0.4515799458 F20.0410270135
G04 P0.1650
G01 X4.9122246792 Y3.2341523950 Z0.4422276261 F20.5772389731
G04 P0.1650
G01 X4.9436820074 Y3.2591200930 Z0.4422276261 F20.0410270135
G04 P0.0220
G01 X4.9789916644 Y3.2871453863 Z0.4297437772 F23.3419305276
G04 P0.1650
G01 X5.0186254144 Y3.3107117550 Z0.4179605928 F23.7491799680
G04 P0.0220
G01 X5.0500827425 Y3.3305286300 Z0.4179605928 F18.5526673219
G04 P0.1650
G01 X5.0765350970 Y3.3503455050 Z0.4100962608 F16.9537511880
G04 P0.0220
G01 X5.1001014657 Y3.3660741691 Z0.4100962608 F14.1385120301
G04 P0.1650
G01 X5.1059930579 Y3.3660741691 Z0.4100962608 F2.9399657699
G04 P0.1650
G01 X5.1456268079 Y3.3883178591 Z0.4012688465 F23.1033684607
G04 P0.0220
G01 X5.1852605578 Y3.4105615492 Z0.3924414323 F23.1033684607
G04 P0.1650
G01 X5.2248943078 Y3.4328052393 Z0.3836140180 F23.1033684607
G04 P0.1650
G01 X5.2563516360 Y3.4550489294 Z0.3747866037 F19.7236566271
G04 P0.0220
G01 X5.2959853859 Y3.4772926194 Z0.3659591895 F23.1033684607
G04 P0.1650
G01 X5.3431181233 Y3.5069843834 Z0.3423928208 F30.1827855237
G04 P0.4510
G01 X5.3666844920 Y3.5187675678 Z0.3423928208 F13.1479266259
G04 P0.4510
G01 X5.3981418202 Y3.5385844428 Z0.3306096364 F19.4621442721
G04 P0.3080
G01 X5.4217081889 Y3.5543131069 Z0.3207011989 F14.9781422692
G04 P0.3080
G01 X5.4415250639 Y3.5660962912 Z0.3128368669 F12.1557917988
G04 P0.3080
G01 X5.4679774184 Y3.5818249553 Z0.3023392430 F16.2260353520
G04 P0.1650
G01 X5.4976691824 Y3.5994797838 Z0.2905560587 F18.2131088771
G04 P0.1650
G01 X5.5256944758 Y3.6161437230 Z0.2794342136 F17.1908856232
G04 P0.0220
G01 X5.5521468303 Y3.6318723870 Z0.2689365898 F16.2260353520
G04 P0.1650
G01 X5.5757131990 Y3.6476010511 Z0.2590281523 F14.9781422692
G04 P0.0220
G01 X5.6153469489 Y3.6711674199 Z0.2432994882 F24.3115835975
G04 P0.0220
G01 X5.6624796864 Y3.7008591839 Z0.2234826133 F29.5041531987
G04 P0.1650
G01 X5.7153843954 Y3.7323165120 Z0.2024873656 F32.4520707040
G04 P0.1650
G01 X5.7573748907 Y3.7587688665 Z0.1848325371 F26.2852122645
G04 P0.0220
G01 X5.8045076282 Y3.7884606306 Z0.2046494120 F29.5041531987
G04 P0.1650
G01 X5.8441413781 Y3.8149129851 Z0.2203780761 F25.0399424395
G04 P0.1650
G01 X5.8755987063 Y3.8347298600 Z0.2336042534 F19.6916597766
G04 P0.0220
G01 X5.9109083633 Y3.8557251077 Z0.2484501354 F21.7969463021
G04 P0.0220
G01 X5.9406001273 Y3.8733799362 Z0.2602333197 F18.2131088771
G04 P0.3080
G01 X5.9720574555 Y3.8931968112 Z0.2720165041 F19.4621442721
G04 P0.3080
G01 X5.9956238242 Y3.9089254753 Z0.2819249416 F14.9781422692
G04 P0.3080
G01 X6.0154406992 Y3.9207086596 Z0.2897892736 F12.1557917988
G04 P0.3080
G01 X6.0418930537 Y3.9364373237 Z0.3002868975 F16.2260353520
G04 P0.1650
G01 X6.0715848177 Y3.9540921523 Z0.3120700818 F18.2131088771
G04 P0.1650
G01 X6.0996101111 Y3.9707560914 Z0.3231919269 F17.1908856232
G04 P0.0220
G01 X6.1260624656 Y3.9864847555 Z0.3336895507 F16.2260353520
G04 P0.1650
G01 X6.1496288343 Y4.0022134196 Z0.3435979882 F14.9781422692
G04 P0.0220
G01 X6.1892625842 Y4.0257797883 Z0.3593266523 F24.3115835975
G04 P0.0220
G01 X6.2363953217 Y4.0554715523 Z0.3791435273 F29.5041531987
G04 P0.1650
G01 X6.2893000307 Y4.0869288805 Z0.4001387749 F32.4520707040
G04 P0.1650
G01 X6.3312905260 Y4.1133812350 Z0.4177936035 F26.2852122645
G04 P0.0220
G01 X6.3784232635 Y4.1430729990 Z0.4376104784 F29.5041531987
G04 P0.1650
G01 X6.4180570134 Y4.1695253535 Z0.4533391425 F25.0399424395
G04 P0.1650
G01 X6.4495143416 Y4.1893422285 Z0.4665653198 F19.6916597766
G04 P0.0220
G01 X6.4848239986 Y4.2103374761 Z0.4814112018 F21.7969463021
G04 P0.0220
G01 X6.5145157626 Y4.2279923046 Z0.4931943861 F18.2131088771
G04 P0.3080
G01 X6.5541495126 Y4.2594496328 Z0.5010587182 F25.5532567669
G04 P0.0220
G01 X6.5856068407 Y4.2859019873 Z0.5010587182 F20.5098164572
G04 P0.1650
G01 X6.6091732095 Y4.3057188623 Z0.5121805632 F16.3366105629
G04 P0.0220
G01 X6.6209563938 Y4.3057188623 Z0.5121805632 F5.8799315397
G04 P0.1650
G01 X6.6459240917 Y4.3255357373 Z0.5279092273 F17.7375936664
G04 P0.1650
G01 X6.6723764462 Y4.3465309850 Z0.5384068511 F17.6478157950
G04 P0.0220
G01 X6.7143669416 Y4.3779883131 Z0.5384068511 F26.1814793046
G04 P0.0220
G01 X6.7248645654 Y4.3779883131 Z0.5384068511 F5.2384234715
G04 P0.0220
G01 X6.7668550608 Y4.4094456413 Z0.5384068511 F26.1814793046
G04 P0.0220
G01 X6.7933074153 Y4.4304408890 Z0.5541355152 F18.5905208277
G04 P0.0220
G01 X6.8090360794 Y4.4304408890 Z0.5541355152 F7.8487669590
G04 P0.0220
G01 X6.8195337032 Y4.4304408890 Z0.5541355152 F5.2384234715
G04 P0.1650
G01 X6.8492254673 Y4.4540072577 Z0.5629629295 F19.4223272926
G04 P0.0220
G01 X6.9021301763 Y4.4959977531 Z0.5629629295 F33.7048555473
G04 P0.0220
G01 X6.9550348853 Y4.5379882484 Z0.5629629295 F33.7048555473
G04 P0.0220
G01 X6.9655325091 Y4.5379882484 Z0.5629629295 F5.2384234715
G04 P0.0220
G01 X7.0184372181 Y4.5799787438 Z0.5747461138 F34.2138989649
G04 P0.0220
G01 X7.0655699555 Y4.6196124937 Z0.5747461138 F30.7300031433
G04 P0.0220
G01 X7.1075604509 Y4.6549221508 Z0.5895919959 F28.3619434048
G04 P0.1650
G01 X7.1471942008 Y4.6863794789 Z0.6013751802 F25.9256965309
G04 P0.0220
G01 X7.1786515290 Y4.7128318334 Z0.6013751802 F20.5098164572
G04 P0.0220
G01 X7.1904347134 Y4.7128318334 Z0.6013751802 F5.8799315397
G04 P0.0220
G01 X7.2168870679 Y4.7338270811 Z0.6013751802 F16.8524277737
G04 P0.0220
G01 X7.2404534366 Y4.7536439561 Z0.6171038443 F17.2535913964
G04 P0.0220
G01 X7.2561821007 Y4.7536439561 Z0.6171038443 F7.8487669590
G04 P0.0220
G01 X7.2679652850 Y4.7536439561 Z0.6171038443 F5.8799315397
G04 P0.1650
G01 X7.3075990350 Y4.7851012843 Z0.6249681763 F25.5532567669
G04 P0.0220
G01 X7.3390563632 Y4.8115536388 Z0.6249681763 F20.5098164572
G04 P0.1650
G01 X7.3626227319 Y4.8313705138 Z0.6360900214 F16.3366105629
G04 P0.0220
G01 X7.3744059162 Y4.8313705138 Z0.6360900214 F5.8799315397
G04 P0.1650
G01 X7.3993736142 Y4.8511873887 Z0.6518186855 F17.7375936664
G04 P0.1650
G01 X7.4258259687 Y4.8721826364 Z0.6623163093 F17.6478157950
G04 P0.0220
G01 X7.4678164640 Y4.9036399646 Z0.6623163093 F26.1814793046
G04 P0.0220
G01 X7.4783140879 Y4.9036399646 Z0.6623163093 F5.2384234715
G04 P0.0220
G01 X7.5203045832 Y4.9350972928 Z0.6623163093 F26.1814793046
G04 P0.0220
G01 X7.5467569377 Y4.9560925404 Z0.6780449734 F18.5905208277
G04 P0.0220
G01 X7.5624856018 Y4.9560925404 Z0.6780449734 F7.8487669590
G04 P0.0220
G01 X7.5729832256 Y4.9560925404 Z0.6780449734 F5.2384234715
G04 P0.1650
G01 X7.6026749897 Y4.9796589092 Z0.6898281578 F19.8090034654
G04 P0.0220
G01 X7.6446654850 Y5.0149685662 Z0.7016113421 F28.0016297325
G04 P0.1650
G01 X7.6866559804 Y5.0502782232 Z0.7133945265 F28.0016297325
G04 P0.0220
G01 X7.7286464757 Y5.0855878802 Z0.7251777108 F28.0016297325
G04 P0.0220
G01 X7.7682802257 Y5.1170452084 Z0.7384038881 F26.0984318629
G04 P0.0220
G01 X7.8035898827 Y5.1467369724 Z0.7532497701 F24.1841102785
G04 P0.1650
G01 X7.8350472109 Y5.1703033411 Z0.7689784342 F21.1260524834
G04 P0.0220
G01 X7.8548640859 Y5.1703033411 Z0.7689784342 F9.8888267074
G04 P0.0220
G01 X7.8666472702 Y5.1703033411 Z0.7689784342 F5.8799315397
G04 P0.0220
G01 X7.8864641452 Y5.1703033411 Z0.7689784342 F9.8888267074
G04 P0.0220
G01 X7.9021928093 Y5.1781676732 Z0.7689784342 F8.7751882300
G04 P0.4510
G01 X7.9418265592 Y5.2096250014 Z0.7768427662 F25.5532567669
G04 P0.0220
G01 X7.9732838874 Y5.2360773559 Z0.7768427662 F20.5098164572
G04 P0.1650
G01 X7.9968502561 Y5.2558942308 Z0.7879646113 F16.3366105629
G04 P0.0220
G01 X8.0086334405 Y5.2558942308 Z0.7879646113 F5.8799315397
G04 P0.1650
G01 X8.0336011384 Y5.2757111058 Z0.8036932754 F17.7375936664
G04 P0.1650
G01 X8.0600534929 Y5.2967063535 Z0.7931956515 F17.6478157950
G04 P0.0220
G01 X8.1020439883 Y5.3281636817 Z0.7931956515 F26.1814793046
G04 P0.0220
G01 X8.1125416121 Y5.3281636817 Z0.7931956515 F5.2384234715
G04 P0.0220
G01 X8.1545321075 Y5.3596210099 Z0.7931956515 F26.1814793046
G04 P0.0220
G01 X8.1809844620 Y5.3806162575 Z0.7774669874 F18.5905208277
G04 P0.0220
G01 X8.1967131261 Y5.3806162575 Z0.7774669874 F7.8487669590
G04 P0.0220
G01 X8.2072107499 Y5.3806162575 Z0.7774669874 F5.2384234715
G04 P0.1650
G01 X8.2369025139 Y5.4041826262 Z0.7686395732 F19.4223272926
G04 P0.0220
G01 X8.2898072229 Y5.4461731216 Z0.7686395732 F33.7048555473
G04 P0.0220
G01 X8.3427119319 Y5.4881636170 Z0.7686395732 F33.7048555473
G04 P0.0220
G01 X8.3532095558 Y5.4881636170 Z0.7686395732 F5.2384234715
G04 P0.0220
G01 X8.4061142648 Y5.5301541123 Z0.7568563888 F34.2138989649
G04 P0.0220
G01 X8.4532470022 Y5.5697878623 Z0.7568563888 F30.7300031433
G04 P0.0220
G01 X8.4952374975 Y5.6050975193 Z0.7420105068 F28.3619434048
G04 P0.1650
G01 X8.5348712475 Y5.6365548475 Z0.7302273224 F25.9256965309
G04 P0.0220
G01 X8.5663285757 Y5.6630072020 Z0.7302273224 F20.5098164572
G04 P0.0220
G01 X8.5781117600 Y5.6630072020 Z0.7302273224 F5.8799315397
G04 P0.0220
G01 X8.6045641145 Y5.6840024497 Z0.7302273224 F16.8524277737
G04 P0.0220
G01 X8.6281304833 Y5.7038193246 Z0.7144986584 F17.2535913964
G04 P0.0220
G01 X8.6438591473 Y5.7038193246 Z0.7144986584 F7.8487669590
G04 P0.0220
G01 X8.6556423317 Y5.7038193246 Z0.7144986584 F5.8799315397
G04 P0.1650
G01 X8.6952760816 Y5.7352766528 Z0.7066343263 F25.5532567669
G04 P0.0220
G01 X8.7267334098 Y5.7617290073 Z0.7066343263 F20.5098164572
G04 P0.1650
G01 X8.7502997785 Y5.7815458823 Z0.6955124813 F16.3366105629
G04 P0.0220
G01 X8.7620829629 Y5.7815458823 Z0.6955124813 F5.8799315397
G04 P0.1650
G01 X8.7870506608 Y5.8013627573 Z0.6797838172 F17.7375936664
G04 P0.1650
G01 X8.8135030153 Y5.7803675096 Z0.6692861933 F17.6478157950
G04 P0.0220
G01 X8.8554935107 Y5.7489101814 Z0.6692861933 F26.1814793046
G04 P0.0220
G01 X8.8659911345 Y5.7489101814 Z0.6692861933 F5.2384234715
G04 P0.0220
G01 X8.9079816299 Y5.7174528532 Z0.6692861933 F26.1814793046
G04 P0.0220
G01 X8.9344339844 Y5.6964576055 Z0.6535575293 F18.5905208277
G04 P0.0220
G01 X8.9501626485 Y5.6964576055 Z0.6535575293 F7.8487669590
G04 P0.0220
G01 X8.9606602723 Y5.6964576055 Z0.6535575293 F5.2384234715
G04 P0.1650
G01 X8.9903520363 Y5.6728912368 Z0.6417743449 F19.8090034654
G04 P0.0220
G01 X9.0323425317 Y5.6375815798 Z0.6299911605 F28.0016297325
G04 P0.1650
G01 X9.0743330270 Y5.6022719228 Z0.6182079762 F28.0016297325
G04 P0.0220
G01 X9.1163235224 Y5.5669622658 Z0.6064247918 F28.0016297325
G04 P0.0220
G01 X9.1559572724 Y5.5355049376 Z0.5931986146 F26.0984318629
G04 P0.0220
G01 X9.1912669294 Y5.5058131736 Z0.5783527326 F24.1841102785
G04 P0.1650
G01 X9.2227242576 Y5.4822468048 Z0.5626240685 F21.1260524834
G04 P0.0220
G01 X9.2425411325 Y5.4822468048 Z0.5626240685 F9.8888267074
G04 P0.0220
G01 X9.2543243169 Y5.4822468048 Z0.5626240685 F5.8799315397
G04 P0.0220
G01 X9.2741411919 Y5.4822468048 Z0.5626240685 F9.8888267074
G04 P0.0220
G01 X9.2898698560 Y5.4743824728 Z0.5626240685 F8.7751882300
G04 P0.4510
G01 X9.3213271841 Y5.4494147749 Z0.5563821440 F20.2816333365
G04 P0.0220
G01 X9.3527845123 Y5.4244470770 Z0.5563821440 F20.0410270135
G04 P0.1650
G01 X9.3842418405 Y5.3994793790 Z0.5470298244 F20.5772389731
G04 P0.1650
G01 X9.4156991687 Y5.3745116811 Z0.5470298244 F20.0410270135
G04 P0.0220
G01 X9.4510088257 Y5.3464863878 Z0.5345459754 F23.3419305276
G04 P0.1650
G01 X9.4906425756 Y5.3229200190 Z0.5227627911 F23.7491799680
G04 P0.0220
G01 X9.5220999038 Y5.3031031441 Z0.5227627911 F18.5526673219
G04 P0.1650
G01 X9.5485522583 Y5.2832862691 Z0.5148984590 F16.9537511880
G04 P0.0220
G01 X9.5721186270 Y5.2675576050 Z0.5148984590 F14.1385120301
G04 P0.1650
G01 X9.5780102192 Y5.2675576050 Z0.5148984590 F2.9399657699
G04 P0.1650
G01 X9.6094675474 Y5.2425899071 Z0.5086565345 F20.2816333365
G04 P0.0220
G01 X9.6409248756 Y5.2176222092 Z0.5086565345 F20.0410270135
G04 P0.1650
G01 X9.6723822038 Y5.1926545112 Z0.4993042149 F20.5772389731
G04 P0.1650
G01 X9.7038395319 Y5.1676868133 Z0.4993042149 F20.0410270135
G04 P0.0220
G01 X9.7391491890 Y5.1396615200 Z0.4868203659 F23.3419305276
G04 P0.0220
G01 X9.7787829389 Y5.1160951512 Z0.4868203659 F23.0097795348
G04 P0.0220
G01 X9.7905661233 Y5.1160951512 Z0.4868203659 F5.8799315397
G04 P0.3080
G01 X9.7984304553 Y5.1160951512 Z0.4868203659 F3.9243834795
G04 P0.3080
G01 X9.8043220475 Y5.1160951512 Z0.4868203659 F2.9399657699
G04 P0.1650
G01 X9.8357793757 Y5.0911274533 Z0.4805784415 F20.2816333365
G04 P0.0220
G01 X9.8672367039 Y5.0661597554 Z0.4805784415 F20.0410270135
G04 P0.1650
G01 X9.8986940320 Y5.0411920575 Z0.4712261218 F20.5772389731
G04 P0.1650
G01 X9.9301513602 Y5.0162243596 Z0.4712261218 F20.0410270135
G04 P0.0220
G01 X9.9654610172 Y4.9881990662 Z0.4587422729 F23.3419305276
G04 P0.1650
G01 X10.0050947672 Y4.9646326975 Z0.4469590885 F23.7491799680
G04 P0.0220
G01 X10.0365520954 Y4.9448158225 Z0.4469590885 F18.5526673219
G04 P0.1650
G01 X10.0630044499 Y4.9249989475 Z0.4390947565 F16.9537511880
G04 P0.0220
G01 X10.0865708186 Y4.9092702835 Z0.4390947565 F14.1385120301
G04 P0.1650
G01 X10.0924624108 Y4.9092702835 Z0.4390947565 F2.9399657699
G04 P0.1650
G01 X10.1320961607 Y4.8870265934 Z0.4302673422 F23.1033684607
G04 P0.0220
G01 X10.1717299107 Y4.8647829033 Z0.4214399280 F23.1033684607
G04 P0.1650
G01 X10.2113636606 Y4.8425392132 Z0.4126125137 F23.1033684607
G04 P0.1650
G01 X10.2428209888 Y4.8202955232 Z0.4037850995 F19.7236566271
G04 P0.0220
G01 X10.2824547387 Y4.7980518331 Z0.3949576852 F23.1033684607
G04 P0.1650
G01 X10.3295874762 Y4.7683600691 Z0.3713913165 F30.1827855237
G04 P0.4510
G01 X10.3531538449 Y4.7565768847 Z0.3713913165 F13.1479266259
G04 P0.4510
G01 X10.3927875948 Y4.7251195565 Z0.3635269844 F25.5532567669
G04 P0.0220
G01 X10.4242449230 Y4.6986672020 Z0.3635269844 F20.5098164572
G04 P0.1650
G01 X10.4478112917 Y4.6788503271 Z0.3524051394 F16.3366105629
G04 P0.0220
G01 X10.4595944761 Y4.6788503271 Z0.3524051394 F5.8799315397
G04 P0.1650
G01 X10.4845621740 Y4.6590334521 Z0.3366764753 F17.7375936664
G04 P0.1650
G01 X10.5110145285 Y4.6380382044 Z0.3261788515 F17.6478157950
G04 P0.0220
G01 X10.5530050239 Y4.6065808762 Z0.3261788515 F26.1814793046
G04 P0.0220
G01 X10.5635026477 Y4.6065808762 Z0.3261788515 F5.2384234715
G04 P0.0220
G01 X10.6054931431 Y4.5751235480 Z0.3261788515 F26.1814793046
G04 P0.0220
G01 X10.6319454976 Y4.5541283004 Z0.3104501874 F18.5905208277
G04 P0.0220
G01 X10.6476741616 Y4.5541283004 Z0.3104501874 F7.8487669590
G04 P0.0220
G01 X10.6581717855 Y4.5541283004 Z0.3104501874 F5.2384234715
G04 P0.1650
G01 X10.6878635495 Y4.5305619316 Z0.3016227731 F19.4223272926
G04 P0.0220
G01 X10.7407682585 Y4.4885714363 Z0.3016227731 F33.7048555473
G04 P0.0220
G01 X10.7936729675 Y4.4465809409 Z0.3016227731 F33.7048555473
G04 P0.0220
G01 X10.8041705913 Y4.4465809409 Z0.3016227731 F5.2384234715
G04 P0.0220
G01 X10.8570753003 Y4.4045904456 Z0.2898395888 F34.2138989649
G04 P0.0220
G01 X10.9042080378 Y4.3649566956 Z0.2898395888 F30.7300031433
G04 P0.0220
G01 X10.9461985331 Y4.3296470386 Z0.2749937068 F28.3619434048
G04 P0.1650
G01 X10.9858322831 Y4.2981897104 Z0.2632105224 F25.9256965309
G04 P0.0220
G01 X11.0172896113 Y4.2717373559 Z0.2632105224 F20.5098164572
G04 P0.0220
G01 X11.0290727956 Y4.2717373559 Z0.2632105224 F5.8799315397
G04 P0.0220
G01 X11.0555251501 Y4.2507421082 Z0.2632105224 F16.8524277737
G04 P0.0220
G01 X11.0790915188 Y4.2309252333 Z0.2474818583 F17.2535913964
G04 P0.0220
G01 X11.0948201829 Y4.2309252333 Z0.2474818583 F7.8487669590
G04 P0.0220
G01 X11.1066033673 Y4.2309252333 Z0.2474818583 F5.8799315397
G04 P0.1650
G01 X11.1462371172 Y4.1994679051 Z0.2396175263 F25.5532567669
G04 P0.0220
G01 X11.1776944454 Y4.1730155506 Z0.2396175263 F20.5098164572
G04 P0.1650
G01 X11.2012608141 Y4.1531986756 Z0.2284956812 F16.3366105629
G04 P0.0220
G01 X11.2130439985 Y4.1531986756 Z0.2284956812 F5.8799315397
G04 P0.1650
G01 X11.2380116964 Y4.1333818006 Z0.2127670171 F17.7375936664
G04 P0.1650
G01 X11.2644640509 Y4.1123865530 Z0.2022693933 F17.6478157950
G04 P0.0220
G01 X11.3064545463 Y4.0809292248 Z0.2022693933 F26.1814793046
G04 P0.0220
G01 X11.3169521701 Y4.0809292248 Z0.2022693933 F5.2384234715
G04 P0.0220
G01 X11.3589426655 Y4.0494718966 Z0.2022693933 F26.1814793046
G04 P0.0220
G01 X11.3853950200 Y4.0284766489 Z0.1865407292 F18.5905208277
G04 P0.0220
G01 X11.4011236841 Y4.0284766489 Z0.1865407292 F7.8487669590
G04 P0.0220
G01 X11.4116213079 Y4.0284766489 Z0.1865407292 F5.2384234715
G04 P0.1650
G01 X11.4413130719 Y4.0049102802 Z0.1983239136 F19.8090034654
G04 P0.0220
G01 X11.4833035673 Y3.9696006232 Z0.2101070979 F28.0016297325
G04 P0.1650
G01 X11.5252940626 Y3.9342909662 Z0.2218902823 F28.0016297325
G04 P0.0220
G01 X11.5672845580 Y3.8989813091 Z0.2336734666 F28.0016297325
G04 P0.0220
G01 X11.6069183079 Y3.8675239809 Z0.2468996439 F26.0984318629
G04 P0.0220
G01 X11.6422279650 Y3.8378322169 Z0.2617455259 F24.1841102785
G04 P0.1650
G01 X11.6736852931 Y3.8142658482 Z0.2774741900 F21.1260524834
G04 P0.0220
G01 X11.6935021681 Y3.8142658482 Z0.2774741900 F9.8888267074
G04 P0.0220
G01 X11.7052853525 Y3.8142658482 Z0.2774741900 F5.8799315397
G04 P0.0220
G01 X11.7251022275 Y3.8142658482 Z0.2774741900 F9.8888267074
G04 P0.0220
G01 X11.7408308915 Y3.8064015162 Z0.2774741900 F8.7751882300
