( File created with mid2cnc.py - http://tim.cexx.org/?p=633 )
( Input file was still_alive.mid )
( Steps per inch: 2000 )
( Machine envelope: )
( x = 12 )
( y = 6 )
( z = 1 )
G20
G00 X0 Y0 Z0
G04 P1.0010
G01 X0.0490812585 Y0.0000000000 Z0.0000000000 F11.7598630795
G01 X0.0954077977 Y0.0000000000 Z0.0000000000 F11.0998326813
G01 X0.1366800521 Y0.0000000000 Z0.0000000000 F9.8888267074
G01 X0.1779523065 Y0.0000000000 Z0.0000000000 F9.8888267074
G01 X0.2242788456 Y0.0137729625 Z0.0000000000 F11.5799950585
G01 X0.2706053848 Y0.0321576618 Z0.0000000000 F11.9419453874
G01 X0.3169319240 Y0.0553209313 Z0.0000000000 F12.4099902072
G01 X0.3632584632 Y0.0737056306 Z0.0000000000 F11.9419453874
G01 X0.3787180909 Y0.0737056306 Z0.0000000000 F3.7041247594
G01 X0.3971027901 Y0.0737056306 Z0.0000000000 F4.4049715188
G01 X0.4202660597 Y0.0737056306 Z0.0000000000 F5.5499163407
G01 X0.4386507589 Y0.0737056306 Z0.0000000000 F4.4049715188
G01 X0.4524237214 Y0.0737056306 Z0.0000000000 F3.3000000000
G01 X0.4708084207 Y0.0737056306 Z0.0000000000 F4.4049715188
G01 X0.4939716903 Y0.0737056306 Z0.0000000000 F5.5499163407
G01 X0.5215176153 Y0.0920903299 Z0.0000000000 F7.9349715867
G01 X0.5705988738 Y0.1075499576 Z0.0000000000 F12.3294330722
G01 X0.6169254130 Y0.1259346568 Z0.0000000000 F11.9419453874
G01 X0.6581976674 Y0.1490979264 Z0.0000000000 F11.3397735884
G01 X0.6994699217 Y0.1674826256 Z0.0000000000 F10.8255562319
G01 X0.7407421761 Y0.1812555881 Z0.0000000000 F10.4249169612
G01 X0.7870687153 Y0.1996402874 Z0.0000000000 F11.9419453874
G01 X0.8333952545 Y0.2228035570 Z0.0000000000 F12.4099902072
G01 X0.8797217936 Y0.2411882562 Z0.0000000000 F11.9419453874
G01 X0.9164911921 Y0.2566478839 Z0.0000000000 F9.5569679584
G01 X0.9532605907 Y0.2750325832 Z0.0000000000 F9.8498157549
G01 X0.9945328450 Y0.2981958528 Z0.0000000000 F11.3397735884
G01 X1.0220787700 Y0.3165805520 Z0.0000000000 F7.9349715867
G01 X1.0496246950 Y0.3303535145 Z0.0000000000 F7.3790243257
G01 X1.0771706200 Y0.3487382138 Z0.0000000000 F7.9349715867
G01 X1.1047165450 Y0.3719014834 Z0.0000000000 F8.6233155682
G01 X1.1322624700 Y0.3902861826 Z0.0000000000 F7.9349715867
G01 X1.1598083950 Y0.4057458103 Z0.0000000000 F7.5683908616
G01 X1.1873543200 Y0.4241305096 Z0.0000000000 F7.9349715867
G01 X1.2105175896 Y0.4241305096 Z0.0000000000 F5.5499163407
G01 X1.2380635146 Y0.4425152088 Z0.0000000000 F7.9349715867
G01 X1.2793357690 Y0.4579748365 Z0.0000000000 F10.5598027388
G01 X1.3206080233 Y0.4786109637 Z0.0000000000 F11.0560443677
G01 X1.3669345625 Y0.5031515930 Z0.0000000000 F12.5610461533
G01 X1.4160158211 Y0.5237877202 Z0.0000000000 F12.7570217159
G01 X1.4650970796 Y0.5392473479 Z0.0000000000 F12.3294330722
G01 X1.5141783382 Y0.5598834751 Z0.0000000000 F12.7570217159
G01 X1.5554505925 Y0.5844241043 Z0.0000000000 F11.5048897674
G01 X1.5901562833 Y0.6050602315 Z0.0000000000 F9.6744205633
G01 X1.6248619740 Y0.6188331940 Z0.0000000000 F8.9463506428
G01 X1.6616313725 Y0.6394693212 Z0.0000000000 F10.1025897539
G01 X1.6984007710 Y0.6640099505 Z0.0000000000 F10.5919163156
G01 X1.7351701695 Y0.6813627959 Z0.0000000000 F9.7417603019
G01 X1.7764424239 Y0.6951357584 Z0.0000000000 F10.4249169612
G01 X1.8177146783 Y0.7157718855 Z0.0000000000 F11.0560443677
G01 X1.8452606033 Y0.7403125148 Z0.0000000000 F8.8393209531
G01 X1.8728065283 Y0.7576653602 Z0.0000000000 F7.8004357222
G01 X1.9003524533 Y0.7714383227 Z0.0000000000 F7.3790243257
G01 X1.9466789924 Y0.7898230219 Z0.0000000000 F11.9419453874
G01 X1.9930055316 Y0.8129862915 Z0.0000000000 F12.4099902072
G01 X2.0393320708 Y0.8313709908 Z0.0000000000 F11.9419453874
G01 X2.0856586100 Y0.8468306185 Z0.0000000000 F11.7015736458
G01 X2.1319851491 Y0.8652153177 Z0.0000000000 F11.9419453874
G01 X2.1783116883 Y0.8883785873 Z0.0000000000 F12.4099902072
G01 X2.2246382275 Y0.9067632866 Z0.0000000000 F11.9419453874
G01 X2.2384111900 Y0.9067632866 Z0.0000000000 F3.3000000000
G01 X2.2567958893 Y0.9067632866 Z0.0000000000 F4.4049715188
G01 X2.2799591588 Y0.9067632866 Z0.0000000000 F5.5499163407
G01 X2.2983438581 Y0.9067632866 Z0.0000000000 F4.4049715188
G01 X2.3474251166 Y0.9222229143 Z0.0000000000 F12.3294330722
G01 X2.3937516558 Y0.9406076135 Z0.0000000000 F11.9419453874
G01 X2.4350239102 Y0.9637708831 Z0.0000000000 F11.3397735884
G01 X2.4762961645 Y0.9821555824 Z0.0000000000 F10.8255562319
G01 X2.5226227037 Y0.9959285449 Z0.0000000000 F11.5799950585
G01 X2.5689492429 Y1.0143132441 Z0.0000000000 F11.9419453874
G01 X2.6152757821 Y1.0374765137 Z0.0000000000 F12.4099902072
G01 X2.6616023212 Y1.0558612130 Z0.0000000000 F11.9419453874
G01 X2.6770619489 Y1.0558612130 Z0.0000000000 F3.7041247594
G01 X2.6954466482 Y1.0558612130 Z0.0000000000 F4.4049715188
G01 X2.7186099178 Y1.0558612130 Z0.0000000000 F5.5499163407
G01 X2.7369946170 Y1.0558612130 Z0.0000000000 F4.4049715188
G01 X2.7507675795 Y1.0558612130 Z0.0000000000 F3.3000000000
G01 X2.7691522788 Y1.0558612130 Z0.0000000000 F4.4049715188
G01 X2.7923155484 Y1.0558612130 Z0.0000000000 F5.5499163407
G01 X2.8198614734 Y1.0742459122 Z0.0000000000 F7.9349715867
G01 X2.8689427319 Y1.0897055399 Z0.0000000000 F12.3294330722
G01 X2.9152692711 Y1.1080902392 Z0.0000000000 F11.9419453874
G01 X2.9565415255 Y1.1312535088 Z0.0000000000 F11.3397735884
G01 X2.9978137798 Y1.1496382080 Z0.0000000000 F10.8255562319
G01 X3.0390860342 Y1.1634111705 Z0.0000000000 F10.4249169612
G01 X3.0803582886 Y1.1817958698 Z0.0000000000 F10.8255562319
G01 X3.1266848277 Y1.2049591394 Z0.0000000000 F12.4099902072
G01 X3.1634542263 Y1.2233438386 Z0.0000000000 F9.8498157549
G01 X3.2002236248 Y1.2388034663 Z0.0000000000 F9.5569679584
G01 X3.2369930233 Y1.2571881656 Z0.0000000000 F9.8498157549
G01 X3.2782652776 Y1.2803514352 Z0.0000000000 F11.3397735884
G01 X3.3058112026 Y1.2987361344 Z0.0000000000 F7.9349715867
G01 X3.3333571276 Y1.3125090969 Z0.0000000000 F7.3790243257
G01 X3.3609030526 Y1.3308937962 Z0.0000000000 F7.9349715867
G01 X3.3840663222 Y1.3308937962 Z0.0000000000 F5.5499163407
G01 X3.4024510215 Y1.3308937962 Z0.0000000000 F4.4049715188
G01 X3.4179106492 Y1.3308937962 Z0.0000000000 F3.7041247594
G01 X3.4362953484 Y1.3308937962 Z0.0000000000 F4.4049715188
G01 X3.4594586180 Y1.3308937962 Z0.0000000000 F5.5499163407
G01 X3.4778433173 Y1.3308937962 Z0.0000000000 F4.4049715188
G01 X3.5191155716 Y1.3463534239 Z0.0000000000 F10.5598027388
G01 X3.5603878260 Y1.3669895511 Z0.0000000000 F11.0560443677
G01 X3.6067143652 Y1.3915301803 Z0.0000000000 F12.5610461533
G01 X3.6557956237 Y1.4121663075 Z0.0000000000 F12.7570217159
G01 X3.7048768823 Y1.4276259352 Z0.0000000000 F12.3294330722
G01 X3.7539581408 Y1.4482620624 Z0.0000000000 F12.7570217159
G01 X3.7952303952 Y1.4728026917 Z0.0000000000 F11.5048897674
G01 X3.8299360859 Y1.4934388188 Z0.0000000000 F9.6744205633
G01 X3.8646417767 Y1.5072117813 Z0.0000000000 F8.9463506428
G01 X3.8993474674 Y1.5278479085 Z0.0000000000 F9.6744205633
G01 X3.9361168659 Y1.5523885378 Z0.0000000000 F10.5919163156
G01 X3.9773891203 Y1.5697413832 Z0.0000000000 F10.7273338302
G01 X4.0186613747 Y1.5835143457 Z0.0000000000 F10.4249169612
G01 X4.0462072997 Y1.6041504729 Z0.0000000000 F8.2466492233
G01 X4.0829766982 Y1.6286911021 Z0.0000000000 F10.5919163156
G01 X4.1242489525 Y1.6460439475 Z0.0000000000 F10.7273338302
G01 X4.1679753829 Y1.6606358930 Z0.0000000000 F11.0448147822
G01 X4.2092476372 Y1.6790205922 Z0.0000000000 F10.8255562319
G01 X4.2460170357 Y1.7008838074 Z0.0000000000 F10.2496915461
G01 X4.2787748457 Y1.7284297324 Z0.0000000000 F10.2549082286
G04 P0.5000
G01 X4.3063207707 Y1.7284297324 Z0.0000000000 F6.6000000000
G01 X4.3355046617 Y1.7284297324 Z0.0000000000 F6.9924564228
G01 X4.4010202817 Y1.7284297324 Z0.0000000000 F7.8487669590
G01 X4.4884731423 Y1.7284297324 Z0.0000000000 F10.4768469430
G01 X4.5297453967 Y1.7284297324 Z0.0000000000 F9.8888267074
G01 X4.5665147952 Y1.7284297324 Z0.0000000000 F8.8099430375
G01 X4.6032841937 Y1.7284297324 Z0.0000000000 F8.8099430375
G01 X4.6360420037 Y1.7284297324 Z0.0000000000 F7.8487669590
G01 X4.6728114022 Y1.7284297324 Z0.0000000000 F8.8099430375
G01 X4.7055692122 Y1.7284297324 Z0.0000000000 F7.8487669590
G01 X4.7710848322 Y1.7284297324 Z0.0000000000 F7.8487669590
G01 X4.8366004522 Y1.7284297324 Z0.0000000000 F7.8487669590
G01 X4.8641463772 Y1.7284297324 Z0.0000000000 F6.6000000000
G01 X4.8933302682 Y1.7284297324 Z0.0000000000 F6.9924564228
G01 X4.9588458882 Y1.7284297324 Z0.0000000000 F7.8487669590
G01 X5.0462987488 Y1.7284297324 Z0.0000000000 F10.4768469430
G01 X5.0953800073 Y1.7284297324 Z0.0000000000 F11.7598630795
G01 X5.1391064377 Y1.7284297324 Z0.0000000000 F10.4768469430
G01 X5.1803786920 Y1.7284297324 Z0.0000000000 F9.8888267074
G01 X5.2171480905 Y1.7284297324 Z0.0000000000 F8.8099430375
G01 X5.2539174891 Y1.7284297324 Z0.0000000000 F8.8099430375
G01 X5.2951897434 Y1.7284297324 Z0.0000000000 F9.8888267074
G01 X5.3826426041 Y1.7284297324 Z0.0000000000 F10.4768469430
G01 X5.4700954647 Y1.7284297324 Z0.0000000000 F10.4768469430
G01 X5.5191767233 Y1.7284297324 Z0.0000000000 F11.7598630795
G01 X5.5742685733 Y1.7284297324 Z0.0000000000 F13.2000000000
G01 X5.6326363551 Y1.7284297324 Z0.0000000000 F13.9849128455
G01 X5.6910041370 Y1.7284297324 Z0.0000000000 F13.9849128455
G01 X5.8011878370 Y1.7284297324 Z0.0000000000 F13.2000000000
G01 X5.8993503541 Y1.7284297324 Z0.0000000000 F11.7598630795
G01 X5.9430767844 Y1.7284297324 Z0.0000000000 F10.4768469430
G01 X5.9921580430 Y1.7284297324 Z0.0000000000 F11.7598630795
G01 X6.0472498930 Y1.7284297324 Z0.0000000000 F13.2000000000
G01 X6.1023417430 Y1.7284297324 Z0.0000000000 F13.2000000000
G01 X6.2005042601 Y1.7284297324 Z0.0000000000 F11.7598630795
G01 X6.2879571207 Y1.7284297324 Z0.0000000000 F10.4768469430
G01 X6.3247265192 Y1.7284297324 Z0.0000000000 F8.8099430375
G01 X6.3574843292 Y1.7284297324 Z0.0000000000 F7.8487669590
G01 X6.3942537277 Y1.7284297324 Z0.0000000000 F8.8099430375
G01 X6.4379801580 Y1.7284297324 Z0.0000000000 F10.4768469430
G01 X6.4817065884 Y1.7284297324 Z0.0000000000 F10.4768469430
G01 X6.5642510971 Y1.7284297324 Z0.0000000000 F9.8888267074
G01 X6.6055233515 Y1.7284297324 Z0.0000000000 F9.8888267074
G01 X6.6518498906 Y1.7284297324 Z0.0000000000 F11.0998326813
G01 X6.6981764298 Y1.7284297324 Z0.0000000000 F11.0998326813
G01 X6.7533305276 Y1.7284297324 Z0.0000000000 F4.4049715188
G01 X6.7717152268 Y1.7284297324 Z0.0000000000 F4.4049715188
G01 X6.8180941099 Y1.7284297324 Z0.0000000000 F3.7041247594
G01 X6.8335537376 Y1.7284297324 Z0.0000000000 F3.7041247594
G01 X6.8887078354 Y1.7284297324 Z0.0000000000 F4.4049715188
G01 X6.9070925346 Y1.7284297324 Z0.0000000000 F4.4049715188
G01 X6.9534714177 Y1.7284297324 Z0.0000000000 F3.7041247594
G01 X6.9689310454 Y1.7284297324 Z0.0000000000 F3.7041247594
G01 X7.0240851432 Y1.7284297324 Z0.0000000000 F4.4049715188
G01 X7.0424698425 Y1.7284297324 Z0.0000000000 F4.4049715188
G01 X7.0888487256 Y1.7284297324 Z0.0000000000 F3.7041247594
G01 X7.1043083533 Y1.7284297324 Z0.0000000000 F3.7041247594
G01 X7.1594624510 Y1.7284297324 Z0.0000000000 F4.4049715188
G01 X7.1870083760 Y1.7468144316 Z0.0000000000 F7.9349715867
G01 X7.2360896346 Y1.7622740593 Z0.0000000000 F12.3294330722
G01 X7.2824161737 Y1.7777336870 Z0.0000000000 F11.7015736458
G01 X7.3236884281 Y1.7931933147 Z0.0000000000 F10.5598027388
G01 X7.3649606825 Y1.8086529424 Z0.0000000000 F10.5598027388
G01 X7.3855968097 Y1.8178452921 Z0.0000000000 F10.8255562319
G01 X7.5014131576 Y1.8638070402 Z0.0000000000 F11.9419453874
G01 X7.5477396968 Y1.8821917395 Z0.0000000000 F11.9419453874
G01 X7.5941185799 Y1.8821917395 Z0.0000000000 F3.7041247594
G01 X7.6095782076 Y1.8821917395 Z0.0000000000 F3.7041247594
G01 X7.6647323053 Y1.8821917395 Z0.0000000000 F4.4049715188
G01 X7.6831170046 Y1.8821917395 Z0.0000000000 F4.4049715188
G01 X7.7321982631 Y1.8976513672 Z0.0000000000 F12.3294330722
G01 X7.7785248023 Y1.9131109949 Z0.0000000000 F11.7015736458
G01 X7.8197970567 Y1.9285706226 Z0.0000000000 F10.5598027388
G01 X7.8610693110 Y1.9440302503 Z0.0000000000 F10.5598027388
G01 X7.9436138198 Y1.9807996488 Z0.0000000000 F10.8255562319
G01 X7.9899403589 Y1.9991843480 Z0.0000000000 F11.9419453874
G01 X8.0267097575 Y2.0175690473 Z0.0000000000 F9.8498157549
G01 X8.0634791560 Y2.0330286750 Z0.0000000000 F9.5569679584
G01 X8.1460236647 Y2.0639479304 Z0.0000000000 F10.5598027388
G01 X8.1735695897 Y2.0794075581 Z0.0000000000 F7.5683908616
G01 X8.2286614397 Y2.1161769566 Z0.0000000000 F7.9349715867
G01 X8.2470461390 Y2.1161769566 Z0.0000000000 F4.4049715188
G01 X8.2654308382 Y2.1161769566 Z0.0000000000 F4.4049715188
G01 X8.3118097213 Y2.1161769566 Z0.0000000000 F3.7041247594
G01 X8.3272693490 Y2.1161769566 Z0.0000000000 F3.7041247594
G01 X8.4098138577 Y2.1574492109 Z0.0000000000 F11.0560443677
G01 X8.4561403969 Y2.1780853381 Z0.0000000000 F12.1512760221
G01 X8.5052216555 Y2.1987214653 Z0.0000000000 F12.7570217159
G01 X8.5543029140 Y2.2193575925 Z0.0000000000 F12.7570217159
G01 X8.6033841726 Y2.2425208621 Z0.0000000000 F13.0036899008
G01 X8.6859286813 Y2.2916021206 Z0.0000000000 F11.5048897674
G01 X8.7553400628 Y2.3191480456 Z0.0000000000 F8.9463506428
G01 X8.7921094613 Y2.3329210081 Z0.0000000000 F9.4077147238
G01 X8.8333817157 Y2.3466939706 Z0.0000000000 F10.4249169612
G01 X8.8746539700 Y2.3604669331 Z0.0000000000 F10.4249169612
G01 X8.9159262244 Y2.3759265608 Z0.0000000000 F10.5598027388
G01 X8.9434721494 Y2.3932794062 Z0.0000000000 F7.8004357222
G01 X8.9710180744 Y2.4106322516 Z0.0000000000 F7.8004357222
G01 X8.9985639994 Y2.4290169508 Z0.0000000000 F7.9349715867
G01 X9.0912170777 Y2.4657863493 Z0.0000000000 F11.9419453874
G01 X9.1375436169 Y2.4841710486 Z0.0000000000 F11.9419453874
G01 X9.2301966953 Y2.5150903040 Z0.0000000000 F11.7015736458
G01 X9.2456563230 Y2.5150903040 Z0.0000000000 F3.7041247594
G01 X9.2611159507 Y2.5150903040 Z0.0000000000 F3.7041247594
G01 X9.3162700484 Y2.5150903040 Z0.0000000000 F4.4049715188
G01 X9.3438159734 Y2.5334750033 Z0.0000000000 F7.9349715867
G01 X9.4056544842 Y2.5825562618 Z0.0154596277 F19.2754653281
G01 X9.4607463342 Y2.6288828010 Z0.0309192554 F17.6399213657
G01 X9.5098275928 Y2.6701550553 Z0.0463788831 F15.8051831223
G01 X9.5589088513 Y2.7114273097 Z0.0618385108 F15.8051831223
G01 X9.6690925513 Y2.8040803881 Z0.0986079093 F17.8002825718
G01 X9.6874772506 Y2.8040803881 Z0.0986079093 F4.4049715188
G01 X9.7058619498 Y2.8040803881 Z0.0986079093 F4.4049715188
G01 X9.7522408329 Y2.8040803881 Z0.0986079093 F3.7041247594
G01 X9.7677004606 Y2.8040803881 Z0.0986079093 F3.7041247594
G01 X9.8228545584 Y2.8040803881 Z0.0986079093 F4.4049715188
G01 X9.8504004834 Y2.8224650873 Z0.0986079093 F7.9349715867
G01 X9.9122389942 Y2.8715463459 Z0.1140675370 F19.2754653281
G01 X9.9673308442 Y2.9178728850 Z0.1295271647 F17.6399213657
G01 X10.0164121027 Y2.9591451394 Z0.1449867924 F15.8051831223
G01 X10.0654933613 Y3.0004173938 Z0.1604464201 F15.8051831223
G01 X10.1636558784 Y3.0829619025 Z0.1972158186 F15.9839621927
G01 X10.2187477284 Y3.1292884417 Z0.2156005179 F17.8002825718
G01 X10.2650742675 Y3.1660578402 Z0.2339852171 F14.8399850391
G01 X10.3577273459 Y3.2395966372 Z0.2649044725 F14.6472496432
G01 X10.4068086044 Y3.2808688916 Z0.2803641002 F15.8051831223
G01 X10.4435780029 Y3.3084148166 Z0.2958237279 F11.6144580828
G01 X10.5171168000 Y3.3635066666 Z0.3325931264 F11.8565960716
G01 X10.5355014992 Y3.3635066666 Z0.3325931264 F4.4049715188
G01 X10.5538861985 Y3.3635066666 Z0.3325931264 F4.4049715188
G01 X10.6002650816 Y3.3635066666 Z0.3325931264 F3.7041247594
G01 X10.6157247093 Y3.3635066666 Z0.3325931264 F3.7041247594
G01 X10.6982692180 Y3.4047789209 Z0.3325931264 F11.0560443677
G01 X10.7445957572 Y3.4254150481 Z0.3325931264 F12.1512760221
G01 X10.7936770157 Y3.4460511753 Z0.3325931264 F12.7570217159
G01 X10.8427582743 Y3.4666873025 Z0.3325931264 F12.7570217159
G01 X10.8918395328 Y3.4898505721 Z0.3325931264 F13.0036899008
G01 X10.9743840415 Y3.5389318306 Z0.3325931264 F11.5048897674
G01 X11.0437954230 Y3.5664777556 Z0.3325931264 F8.9463506428
G01 X11.0805648215 Y3.5802507181 Z0.3325931264 F9.4077147238
G01 X11.1218370759 Y3.5940236806 Z0.3325931264 F10.4249169612
G01 X11.1631093303 Y3.6077966431 Z0.3325931264 F10.4249169612
G01 X11.1906552553 Y3.6232562708 Z0.3325931264 F7.5683908616
G01 X11.2274246538 Y3.6406091162 Z0.3325931264 F9.7417603019
G01 X11.2686969082 Y3.6543820787 Z0.3325931264 F10.4249169612
G01 X11.3124233385 Y3.6689740242 Z0.3325931264 F11.0448147822
G01 X11.3536955928 Y3.6835659696 Z0.3325931264 F10.4886846342
G01 X11.3904649914 Y3.6981579151 Z0.3325931264 F9.4783283352
G01 X11.4232228013 Y3.7127498606 Z0.3325931264 F8.5922496753
G01 X11.4559806113 Y3.7273418060 Z0.3325931264 F8.5922496753
G01 X11.4887384213 Y3.7419337515 Z0.3325931264 F8.5922496753
G01 X11.5162843463 Y3.7565256970 Z0.3325931264 F7.4688427287
G01 X11.5454682373 Y3.7711176424 Z0.3325931264 F7.8178039455
G01 X11.5782260473 Y3.7929808576 Z0.3489720314 F10.2198340954
G01 X11.6109838573 Y3.8148440728 Z0.3653509364 F10.2198340954
G01 X11.6984367179 Y3.8148440728 Z0.3653509364 F10.4768469430
G01 X11.7397089723 Y3.8312229778 Z0.3776212511 F11.0378022301
G01 X11.7764783708 Y3.8476018828 Z0.3898915657 F10.0826227117
G01 X11.8132477693 Y3.8476018828 Z0.3898915657 F8.8099430375
G01 X11.7804899593 Y3.8476018828 Z0.3898915657 F7.8487669590
G01 X11.7437205608 Y3.8621938282 Z0.4008231733 F9.8335638579
G01 X11.7109627508 Y3.8767857737 Z0.4117547809 F8.9825956494
G01 X11.6454471308 Y3.8767857737 Z0.4117547809 F7.8487669590
G01 X11.6126893208 Y3.8986489889 Z0.4281336859 F10.2198340954
G01 X11.5799315108 Y3.9205122040 Z0.4445125909 F10.2198340954
G01 X11.5523855858 Y3.9205122040 Z0.4445125909 F6.6000000000
G01 X11.5232016949 Y3.9205122040 Z0.4445125909 F6.9924564228
G01 X11.4904438849 Y3.9423754192 Z0.4608914959 F10.2198340954
G01 X11.4576860749 Y3.9642386343 Z0.4772704009 F10.2198340954
G01 X11.3702332142 Y3.9642386343 Z0.4772704009 F10.4768469430
G01 X11.3211519557 Y3.9806175393 Z0.4895407155 F12.7412151724
G01 X11.2774255254 Y3.9969964443 Z0.5018110301 F11.5675626771
G01 X11.2361532710 Y3.9969964443 Z0.5018110301 F9.8888267074
G01 X11.1993838725 Y3.9969964443 Z0.5018110301 F8.8099430375
G01 X11.1626144740 Y4.0115883898 Z0.5127426377 F9.8335638579
G01 X11.1213422196 Y4.0261803353 Z0.5236742453 F10.8107712709
G01 X11.0338893590 Y4.0261803353 Z0.5236742453 F10.4768469430
G01 X10.9901629286 Y4.0480435504 Z0.5400531503 F12.3533877146
G01 X10.9464364983 Y4.0699067656 Z0.5564320553 F12.3533877146
G01 X10.8973552398 Y4.0699067656 Z0.5564320553 F11.7598630795
G01 X10.8422633898 Y4.0699067656 Z0.5564320553 F13.2000000000
G01 X10.7838956079 Y4.0844987111 Z0.5673636629 F14.6513367691
G01 X10.7255278260 Y4.0990906565 Z0.5782952705 F14.6513367691
G01 X10.6704359760 Y4.1136826020 Z0.5892268780 F13.9040958650
G01 X10.6153441260 Y4.1282745475 Z0.6001584856 F13.9040958650
G01 X10.5662628675 Y4.1446534525 Z0.6124288003 F12.7412151724
G01 X10.5171816089 Y4.1610323575 Z0.6246991149 F12.7412151724
G01 X10.4734551786 Y4.1774112625 Z0.6369694295 F11.5675626771
G01 X10.4243739201 Y4.1937901675 Z0.6492397442 F12.7412151724
G01 X10.3692820701 Y4.2156533826 Z0.6656186492 F14.7336983192
G01 X10.3141902201 Y4.2375165978 Z0.6819975542 F14.7336983192
G01 X10.2651089615 Y4.2581527250 Z0.6974571819 F13.2839054232
G01 X10.2213825312 Y4.2787888522 Z0.7129168096 F12.1627334721
G01 X10.1776561009 Y4.2971735514 Z0.7266897721 F11.8346143134
G01 X10.1339296706 Y4.3155582507 Z0.7404627346 F11.8346143134
G01 X10.0971602720 Y4.3319371557 Z0.7527330492 F10.0826227117
G01 X10.0644024620 Y4.3483160607 Z0.7650033638 F9.2545841181
G01 X10.0276330635 Y4.3629080061 Z0.7650033638 F9.4783283352
G01 X9.9839066332 Y4.3774999516 Z0.7650033638 F11.0448147822
G01 X9.9401802029 Y4.3993631668 Z0.7650033638 F11.7134709772
G01 X9.8989079485 Y4.4212263819 Z0.7650033638 F11.1906199165
G01 X9.8576356942 Y4.4349993444 Z0.7650033638 F10.4249169612
G01 X9.8163634398 Y4.4487723069 Z0.7650033638 F10.4249169612
G01 X9.7700369006 Y4.4694084341 Z0.7650033638 F12.1512760221
G01 X9.7237103614 Y4.4900445613 Z0.7650033638 F12.1512760221
G01 X9.5847307439 Y4.5451986591 Z0.7650033638 F11.9419453874
G01 X9.5384042047 Y4.5635833583 Z0.7650033638 F11.9419453874
G01 X9.4920253216 Y4.5635833583 Z0.7650033638 F3.7041247594
G01 X9.4765656939 Y4.5635833583 Z0.7650033638 F3.7041247594
G01 X9.4214115962 Y4.5635833583 Z0.7650033638 F4.4049715188
G01 X9.4030268969 Y4.5635833583 Z0.7650033638 F4.4049715188
G01 X9.3566480138 Y4.5635833583 Z0.7650033638 F3.7041247594
G01 X9.3411883861 Y4.5635833583 Z0.7650033638 F3.7041247594
G01 X9.2860342884 Y4.5635833583 Z0.7650033638 F4.4049715188
G01 X9.2676495891 Y4.5635833583 Z0.7650033638 F4.4049715188
G01 X9.2212707060 Y4.5635833583 Z0.7650033638 F3.7041247594
G01 X9.2058110783 Y4.5635833583 Z0.7650033638 F3.7041247594
G01 X9.1506569805 Y4.5635833583 Z0.7650033638 F4.4049715188
G01 X9.1322722813 Y4.5635833583 Z0.7650033638 F4.4049715188
G01 X9.0831910227 Y4.5790429860 Z0.7650033638 F12.3294330722
G01 X9.0368644836 Y4.5945026137 Z0.7650033638 F11.7015736458
G01 X8.9955922292 Y4.6099622414 Z0.7650033638 F10.5598027388
G01 X8.9543199748 Y4.6254218691 Z0.7650033638 F10.5598027388
G01 X8.9130477205 Y4.6391948316 Z0.7650033638 F10.4249169612
G01 X8.8667211813 Y4.6575795309 Z0.7650033638 F11.9419453874
G01 X8.8203946421 Y4.6807428005 Z0.7650033638 F12.4099902072
G01 X8.7740681029 Y4.6991274997 Z0.7650033638 F11.9419453874
G01 X8.7586084753 Y4.6991274997 Z0.7650033638 F3.7041247594
G01 X8.7402237760 Y4.6991274997 Z0.7650033638 F4.4049715188
G01 X8.7170605064 Y4.6991274997 Z0.7650033638 F5.5499163407
G01 X8.6986758072 Y4.6991274997 Z0.7650033638 F4.4049715188
G01 X8.6849028447 Y4.6991274997 Z0.7650033638 F3.3000000000
G01 X8.6665181454 Y4.6991274997 Z0.7650033638 F4.4049715188
G01 X8.6433548758 Y4.6991274997 Z0.7650033638 F5.5499163407
G01 X8.6158089508 Y4.7175121990 Z0.7650033638 F7.9349715867
G01 X8.5667276923 Y4.7329718267 Z0.7650033638 F12.3294330722
G01 X8.5204011531 Y4.7513565259 Z0.7650033638 F11.9419453874
G01 X8.4791288987 Y4.7745197955 Z0.7650033638 F11.3397735884
G01 X8.4378566444 Y4.7929044948 Z0.7650033638 F10.8255562319
G01 X8.3965843900 Y4.8066774573 Z0.7650033638 F10.4249169612
G01 X8.3553121356 Y4.8250621565 Z0.7650033638 F10.8255562319
G01 X8.3089855965 Y4.8482254261 Z0.7650033638 F12.4099902072
G01 X8.2722161979 Y4.8666101254 Z0.7650033638 F9.8498157549
G01 X8.2354467994 Y4.8820697531 Z0.7650033638 F9.5569679584
G01 X8.1986774009 Y4.9004544523 Z0.7650033638 F9.8498157549
G01 X8.1574051466 Y4.9236177219 Z0.7650033638 F11.3397735884
G01 X8.1298592216 Y4.9420024212 Z0.7650033638 F7.9349715867
G01 X8.1023132966 Y4.9557753837 Z0.7650033638 F7.3790243257
G01 X8.0747673716 Y4.9741600829 Z0.7650033638 F7.9349715867
G01 X8.0472214466 Y4.9973233525 Z0.7650033638 F8.6233155682
G01 X8.0196755216 Y5.0157080518 Z0.7650033638 F7.9349715867
G01 X8.0042158939 Y5.0157080518 Z0.7650033638 F3.7041247594
G01 X7.9858311946 Y5.0157080518 Z0.7650033638 F4.4049715188
G01 X7.9626679250 Y5.0157080518 Z0.7650033638 F5.5499163407
G01 X7.9442832258 Y5.0157080518 Z0.7650033638 F4.4049715188
G01 X7.9030109714 Y5.0311676795 Z0.7650033638 F10.5598027388
G01 X7.8617387170 Y5.0518038066 Z0.7650033638 F11.0560443677
G01 X7.8154121778 Y5.0763444359 Z0.7650033638 F12.5610461533
G01 X7.7663309193 Y5.0969805631 Z0.7650033638 F12.7570217159
G01 X7.7172496608 Y5.1124401908 Z0.7650033638 F12.3294330722
G01 X7.6681684022 Y5.1330763180 Z0.7650033638 F12.7570217159
G01 X7.6268961478 Y5.1576169472 Z0.7650033638 F11.5048897674
G01 X7.5856238935 Y5.1782530744 Z0.7650033638 F11.0560443677
G01 X7.5509182027 Y5.1920260369 Z0.7650033638 F8.9463506428
G01 X7.5162125120 Y5.2126621641 Z0.7650033638 F9.6744205633
G01 X7.4794431135 Y5.2372027934 Z0.7650033638 F10.5919163156
G01 X7.4381708591 Y5.2545556388 Z0.7650033638 F10.7273338302
G01 X7.3968986047 Y5.2683286013 Z0.7650033638 F10.4249169612
G01 X7.3762624776 Y5.2683286013 Z0.7650033638 F4.9444133537
G01 X7.3487165526 Y5.2928692305 Z0.7650033638 F8.8393209531
G01 X7.3211706276 Y5.3102220759 Z0.7650033638 F7.8004357222
G01 X7.2936247026 Y5.3239950384 Z0.7650033638 F7.3790243257
G01 X7.2472981634 Y5.3423797377 Z0.7650033638 F11.9419453874
G01 X7.2009716242 Y5.3655430072 Z0.7650033638 F12.4099902072
G01 X7.1546450850 Y5.3839277065 Z0.7650033638 F11.9419453874
G01 X7.1083185459 Y5.3993873342 Z0.7650033638 F11.7015736458
G01 X7.0619920067 Y5.4177720335 Z0.7650033638 F11.9419453874
G01 X7.0388287371 Y5.4177720335 Z0.7650033638 F5.5499163407
G01 X7.0204440378 Y5.4177720335 Z0.7650033638 F4.4049715188
G01 X7.0066710753 Y5.4177720335 Z0.7650033638 F3.3000000000
G01 X6.9882863761 Y5.4177720335 Z0.7650033638 F4.4049715188
G01 X6.9651231065 Y5.4177720335 Z0.7650033638 F5.5499163407
G01 X6.9467384072 Y5.4177720335 Z0.7650033638 F4.4049715188
G01 X6.9464485392 Y5.4177720335 Z0.7650033638 F3.7041247594
G01 X6.8857695005 Y5.4659330184 Z0.7801731235 F19.2754653281
G01 X6.8846100284 Y5.4668532920 Z0.7805178366 F19.4223272926
G01 X6.8305511506 Y5.5123112086 Z0.7985578228 F17.8002825718
G01 X6.8295181784 Y5.5131798312 Z0.7989921341 F18.1176117892
G01 X6.7813571935 Y5.5536782308 Z0.8217210924 F16.3366105629
G01 X6.7804369199 Y5.5544520855 Z0.8213763792 F15.9839621927
G01 X6.7322759349 Y5.5949504851 Z0.8033363931 F15.9839621927
G01 X6.6831946764 Y5.6362227395 Z0.7849516938 F15.9839621927
G01 X6.5730109764 Y5.7288758179 Z0.7481822953 F17.8002825718
G01 X6.5546262771 Y5.7288758179 Z0.7481822953 F4.4049715188
G01 X6.5082473940 Y5.7288758179 Z0.7481822953 F3.7041247594
G01 X6.4927877663 Y5.7288758179 Z0.7481822953 F3.7041247594
G01 X6.4376336686 Y5.7288758179 Z0.7481822953 F4.4049715188
G01 X6.4192489693 Y5.7288758179 Z0.7481822953 F4.4049715188
G01 X6.4189591013 Y5.7288758179 Z0.7481822953 F3.7041247594
G01 X6.3571205905 Y5.7779570764 Z0.7327226676 F19.2754653281
G01 X6.3020287405 Y5.8242836156 Z0.7172630399 F17.6399213657
G01 X6.2538677556 Y5.7837852160 Z0.7020932803 F15.8051831223
G01 X6.2529474820 Y5.7830113612 Z0.7018034122 F15.8051831223
G01 X6.2047864970 Y5.7425129616 Z0.6866336526 F15.8051831223
G01 X6.1057037063 Y5.6591945981 Z0.6495195409 F15.9839621927
G01 X6.0516448285 Y5.6137366815 Z0.6314795548 F17.8002825718
G01 X6.0506118563 Y5.6128680589 Z0.6311348417 F17.8002825718
G01 X6.0051539398 Y5.5767880866 Z0.6130948555 F14.8399850391
G01 X5.9116322388 Y5.5025598634 Z0.5818857321 F14.6472496432
G01 X5.8634712539 Y5.4620614638 Z0.5667159724 F15.8051831223
G01 X5.8625509803 Y5.4612876090 Z0.5664261044 F15.8051831223
G01 X5.8264710080 Y5.4342581701 Z0.5512563447 F11.6144580828
G01 X5.7522427847 Y5.3786498340 Z0.5141422331 F11.8565960716
G01 X5.7342027986 Y5.3786498340 Z0.5141422331 F4.4049715188
G01 X5.7158180993 Y5.3786498340 Z0.5141422331 F4.4049715188
G01 X5.6694392162 Y5.3786498340 Z0.5141422331 F3.7041247594
G01 X5.6539795885 Y5.3786498340 Z0.5141422331 F3.7041247594
G01 X5.6535926612 Y5.3786498340 Z0.5141422331 F4.9444133537
G01 X5.5710481524 Y5.3373775797 Z0.5141422331 F11.0560443677
G01 X5.5255902359 Y5.3171283799 Z0.5141422331 F12.1512760221
G01 X5.5247216132 Y5.3167414525 Z0.5141422331 F12.1512760221
G01 X5.4765606283 Y5.2964922527 Z0.5141422331 F12.7570217159
G01 X5.4274793698 Y5.2758561255 Z0.5141422331 F12.7570217159
G01 X5.3783981112 Y5.2526928559 Z0.5141422331 F13.0036899008
G01 X5.3774778376 Y5.2522327191 Z0.5141422331 F13.1479266259
G01 X5.2957071836 Y5.2036115974 Z0.5141422331 F11.5048897674
G01 X5.2949333289 Y5.2033533543 Z0.5141422331 F10.4249169612
G01 X5.2255219474 Y5.1758074293 Z0.5141422331 F8.9463506428
G01 X5.1894419751 Y5.1622927099 Z0.5141422331 F9.4077147238
G01 X5.1887525489 Y5.1620344668 Z0.5141422331 F9.4077147238
G01 X5.1482541493 Y5.1485197474 Z0.5141422331 F10.4249169612
G01 X5.1069818949 Y5.1347467849 Z0.5141422331 F10.4249169612
G01 X5.1062080401 Y5.1344569169 Z0.5141422331 F10.5598027388
G01 X5.0791786012 Y5.1192871572 Z0.5141422331 F7.5683908616
G01 X5.0786621151 Y5.1189617913 Z0.5141422331 F7.8004357222
G01 X5.0425821429 Y5.1019343118 Z0.5141422331 F9.7417603019
G01 X5.0418927166 Y5.1016760688 Z0.5141422331 F9.4077147238
G01 X5.0013943170 Y5.0881613493 Z0.5141422331 F10.4249169612
G01 X5.0006204623 Y5.0878877503 Z0.5141422331 F10.4886846342
G01 X4.9568940319 Y5.0732958049 Z0.5141422331 F11.0448147822
G01 X4.9163956323 Y5.0589774584 Z0.5141422331 F10.4886846342
G01 X4.9156217776 Y5.0587038594 Z0.5141422331 F10.4886846342
G01 X4.8795418053 Y5.0443855129 Z0.5141422331 F9.4783283352
G01 X4.8788523791 Y5.0441119139 Z0.5141422331 F9.4783283352
G01 X4.8467087780 Y5.0297935674 Z0.5141422331 F8.5922496753
G01 X4.8139509680 Y5.0152016220 Z0.5141422331 F8.5922496753
G01 X4.7811931580 Y5.0006096765 Z0.5141422331 F8.5922496753
G01 X4.7805789491 Y5.0003360775 Z0.5141422331 F8.5922496753
G01 X4.7535495102 Y4.9860177310 Z0.5141422331 F7.4688427287
G01 X4.7530330241 Y4.9857441320 Z0.5141422331 F7.4688427287
G01 X4.7243963311 Y4.9714257856 Z0.5141422331 F7.8178039455
G01 X4.7238491331 Y4.9710158503 Z0.5138351286 F9.5779075473
G01 X4.6917055321 Y4.9495625704 Z0.4977633281 F10.2198340954
G01 X4.6589477221 Y4.9276993552 Z0.4813844231 F10.2198340954
G01 X4.6583335131 Y4.9276993552 Z0.4813844231 F7.8487669590
G01 X4.5717005231 Y4.9276993552 Z0.4813844231 F10.4768469430
G01 X4.5708806525 Y4.9273922508 Z0.4811543547 F11.5675626771
G01 X4.5303822529 Y4.9113204502 Z0.4691141085 F11.0378022301
G01 X4.5296083981 Y4.9110133458 Z0.4688840401 F11.0378022301
G01 X4.4935284258 Y4.8949415452 Z0.4568437938 F10.0826227117
G01 X4.4928389996 Y4.8949415452 Z0.4568437938 F8.8099430375
G01 X4.4560696011 Y4.8949415452 Z0.4568437938 F8.8099430375
G01 X4.4239260000 Y4.8949415452 Z0.4568437938 F7.8487669590
G01 X4.4233117911 Y4.8946679463 Z0.4566388262 F8.9825956494
G01 X4.3872318188 Y4.8803495998 Z0.4459121863 F9.8335638579
G01 X4.3865423926 Y4.8800760008 Z0.4457072186 F9.8335638579
G01 X4.3543987915 Y4.8657576543 Z0.4349805787 F8.9825956494
G01 X4.3537845826 Y4.8657576543 Z0.4349805787 F7.8487669590
G01 X4.2888831715 Y4.8657576543 Z0.4349805787 F7.8487669590
G01 X4.2882689626 Y4.8653477190 Z0.4346734742 F10.2198340954
G01 X4.2561253615 Y4.8438944391 Z0.4186016737 F10.2198340954
G01 X4.2233675515 Y4.8220312240 Z0.4022227687 F10.2198340954
G01 X4.2227533426 Y4.8220312240 Z0.4022227687 F7.8487669590
G01 X4.1952074176 Y4.8220312240 Z0.4022227687 F6.6000000000
G01 X4.1665707246 Y4.8220312240 Z0.4022227687 F6.9924564228
G01 X4.1660235267 Y4.8216212887 Z0.4019156642 F9.5779075473
G01 X4.1338799256 Y4.8001680088 Z0.3858438637 F10.2198340954
G01 X4.1011221156 Y4.7783047936 Z0.3694649587 F10.2198340954
G01 X4.1005079067 Y4.7783047936 Z0.3694649587 F7.8487669590
G01 X4.0138749166 Y4.7783047936 Z0.3694649587 F10.4768469430
G01 X4.0130550460 Y4.7779976892 Z0.3692348903 F11.5675626771
G01 X3.9648940611 Y4.7619258886 Z0.3571946441 F12.7412151724
G01 X3.9639737875 Y4.7616187842 Z0.3569645757 F12.7412151724
G01 X3.9210672277 Y4.7455469836 Z0.3449243294 F11.5675626771
G01 X3.9202473571 Y4.7455469836 Z0.3449243294 F10.4768469430
G01 X3.8789751028 Y4.7455469836 Z0.3449243294 F9.8888267074
G01 X3.8428951305 Y4.7455469836 Z0.3449243294 F8.8099430375
G01 X3.8422057043 Y4.7452733847 Z0.3447193618 F9.8335638579
G01 X3.8061257320 Y4.7309550382 Z0.3339927218 F9.8335638579
G01 X3.8054363058 Y4.7306814392 Z0.3337877542 F9.8335638579
G01 X3.7649379062 Y4.7163630927 Z0.3230611143 F10.8107712709
G01 X3.7641640514 Y4.7163630927 Z0.3230611143 F9.8888267074
G01 X3.6775310613 Y4.7163630927 Z0.3230611143 F10.4768469430
G01 X3.6767111907 Y4.7159531574 Z0.3227540098 F12.3533877146
G01 X3.6338046310 Y4.6944998775 Z0.3066822093 F12.3533877146
G01 X3.5900782007 Y4.6726366624 Z0.2903033043 F12.3533877146
G01 X3.5892583301 Y4.6726366624 Z0.2903033043 F10.4768469430
G01 X3.5401770716 Y4.6726366624 Z0.2903033043 F11.7598630795
G01 X3.4861181937 Y4.6726366624 Z0.2903033043 F13.2000000000
G01 X3.4850852216 Y4.6723630634 Z0.2900983366 F13.9040958650
G01 X3.4278118356 Y4.6580447169 Z0.2793716967 F14.6513367691
G01 X3.4267174397 Y4.6577711179 Z0.2791667290 F14.6513367691
G01 X3.3694440537 Y4.6434527715 Z0.2684400891 F14.6513367691
G01 X3.3683496578 Y4.6431791725 Z0.2682351215 F14.6513367691
G01 X3.3142907800 Y4.6288608260 Z0.2575084815 F13.9040958650
G01 X3.2661297950 Y4.6145424795 Z0.2467818416 F12.5450492813
G01 X3.2658561961 Y4.6143375118 Z0.2467818416 F4.3685102521
G01 X3.2655490916 Y4.6141074434 Z0.2467818416 F4.9034869656
G01 X3.2173881067 Y4.5980356429 Z0.2347415953 F12.7412151724
G01 X3.1683068481 Y4.5816567379 Z0.2224712807 F12.7412151724
G01 X3.1673865745 Y4.5813496334 Z0.2222412123 F12.7412151724
G01 X3.1244800148 Y4.5652778329 Z0.2102009661 F11.5675626771
G01 X3.1236601442 Y4.5649707284 Z0.2099708977 F11.5675626771
G01 X3.0754991592 Y4.5488989279 Z0.1979306514 F12.7412151724
G01 X3.0745788856 Y4.5484889926 Z0.1982377559 F13.4586866301
G01 X3.0205200078 Y4.5270357128 Z0.2143095564 F14.7336983192
G01 X3.0194870356 Y4.5266257775 Z0.2146166609 F14.7336983192
G01 X2.9654281578 Y4.5051724976 Z0.2306884614 F14.7336983192
G01 X2.9643951856 Y4.5047855702 Z0.2309783294 F14.5742157129
G01 X2.9162342007 Y4.4845363704 Z0.2461480891 F13.2839054232
G01 X2.9153139271 Y4.4841494430 Z0.2464379571 F13.2839054232
G01 X2.8724073673 Y4.4639002432 Z0.2616077168 F12.1627334721
G01 X2.8715874968 Y4.4635555301 Z0.2618659599 F11.8346143134
G01 X2.8286809370 Y4.4455155440 Z0.2753806793 F11.8346143134
G01 X2.7849545067 Y4.4271308447 Z0.2891536418 F11.8346143134
G01 X2.7841346361 Y4.4268237403 Z0.2893837102 F11.5675626771
G01 X2.7480546638 Y4.4107519397 Z0.3014239565 F10.0826227117
G01 X2.7473652376 Y4.4104448353 Z0.3016540249 F10.0826227117
G01 X2.7152216366 Y4.3943730347 Z0.3136942711 F9.2545841181
G01 X2.7146074276 Y4.3940994357 Z0.3136942711 F8.5922496753
G01 X2.6778380291 Y4.3795074903 Z0.3136942711 F9.4783283352
G01 X2.6349314694 Y4.3651891438 Z0.3136942711 F11.0448147822
G01 X2.6341115988 Y4.3647792085 Z0.3136942711 F11.7134709772
G01 X2.5903851685 Y4.3429159933 Z0.3136942711 F11.7134709772
G01 X2.5498867689 Y4.3214627135 Z0.3136942711 F11.1906199165
G01 X2.5078406597 Y4.3074315079 Z0.3136942711 F10.4249169612
G01 X2.4673422601 Y4.2939167885 Z0.3136942711 F10.4249169612
G01 X2.4665684054 Y4.2935298611 Z0.3136942711 F11.0560443677
G01 X2.4202418662 Y4.2728937339 Z0.3136942711 F12.1512760221
G01 X2.3747839496 Y4.2526445341 Z0.3136942711 F12.1512760221
G01 X2.2358043321 Y4.1974904363 Z0.3136942711 F11.9419453874
G01 X2.1894777929 Y4.1791057371 Z0.3136942711 F11.9419453874
G01 X2.1886091703 Y4.1788158691 Z0.3136942711 F11.7015736458
G01 X2.1579797829 Y4.1788158691 Z0.3136942711 F3.7041247594
G01 X2.1039209051 Y4.1636461094 Z0.3136942711 F13.7098701757
G01 X2.1036310371 Y4.1636461094 Z0.3136942711 F3.7041247594
G01 X2.0495721593 Y4.1484763497 Z0.3136942711 F13.7098701757
G01 X2.0492822913 Y4.1484763497 Z0.3136942711 F3.7041247594
G01 X1.9886032526 Y4.1304363636 Z0.3136942711 F15.4574389151
G01 X1.9882585394 Y4.1304363636 Z0.3136942711 F4.4049715188
G01 X1.9341996616 Y4.1123963774 Z0.3136942711 F13.9155946363
G01 X1.9338549485 Y4.1123963774 Z0.3136942711 F4.4049715188
G01 X1.8883970320 Y4.0943563913 Z0.3136942711 F11.9419453874
G01 X1.8880523188 Y4.0943563913 Z0.3136942711 F4.4049715188
G01 X1.8512829203 Y4.0759716920 Z0.3136942711 F9.8498157549
G01 X1.8145135218 Y4.0605120643 Z0.3136942711 F9.5569679584
G01 X1.7732412675 Y4.0450524366 Z0.3136942711 F10.5598027388
G01 X1.7269147283 Y4.0295928089 Z0.3136942711 F11.7015736458
G01 X1.6718228783 Y3.9832662697 Z0.3291538988 F17.6399213657
G01 X1.5616391783 Y3.8906131914 Z0.3659232973 F17.8002825718
G01 X1.5432544790 Y3.8906131914 Z0.3659232973 F4.4049715188
G01 X1.5248697798 Y3.8906131914 Z0.3659232973 F4.4049715188
G01 X1.5094101521 Y3.8906131914 Z0.3659232973 F3.7041247594
G01 X1.4543183021 Y3.8751535637 Z0.3659232973 F13.7098701757
G01 X1.3992264521 Y3.8596939360 Z0.3659232973 F13.7098701757
G01 X1.3441346021 Y3.8442343083 Z0.3659232973 F13.7098701757
G01 X1.2822960913 Y3.8258496090 Z0.3659232973 F15.4574389151
G01 X1.2272042413 Y3.8074649098 Z0.3659232973 F13.9155946363
G01 X1.1808777021 Y3.7890802105 Z0.3659232973 F11.9419453874
G01 X1.1441083036 Y3.7706955113 Z0.3659232973 F9.8498157549
G01 X1.1073389051 Y3.7552358836 Z0.3659232973 F9.5569679584
G01 X1.0582576465 Y3.7139636292 Z0.3813829250 F15.8051831223
G01 X1.0031657965 Y3.6676370900 Z0.3968425527 F17.6399213657
G01 X0.9480739465 Y3.6213105509 Z0.4123021804 F17.6399213657
G01 X0.8378902465 Y3.5286574725 Z0.4490715789 F17.8002825718
G01 X0.8195055473 Y3.5286574725 Z0.4490715789 F4.4049715188
G01 X0.8011208480 Y3.5286574725 Z0.4490715789 F4.4049715188
G01 X0.7856612203 Y3.5286574725 Z0.4490715789 F3.7041247594
G01 X0.7305693703 Y3.5131978448 Z0.4490715789 F13.7098701757
G01 X0.6754775203 Y3.4977382171 Z0.4490715789 F13.7098701757
G01 X0.6203856703 Y3.4822785894 Z0.4490715789 F13.7098701757
G01 X0.5585471595 Y3.4638938902 Z0.4490715789 F15.4574389151
G01 X0.5034553095 Y3.4455091909 Z0.4490715789 F13.9155946363
G01 X0.4571287704 Y3.4271244916 Z0.4490715789 F11.9419453874
G01 X0.4203593718 Y3.4087397924 Z0.4490715789 F9.8498157549
G01 X0.3835899733 Y3.3932801647 Z0.4490715789 F9.5569679584
G01 X0.3345087148 Y3.3520079103 Z0.4645312066 F15.8051831223
G01 X0.2794168648 Y3.3056813711 Z0.4799908343 F17.6399213657
G01 X0.2243250148 Y3.2593548320 Z0.4954504620 F17.6399213657
G01 X0.1141413148 Y3.1667017536 Z0.5322198605 F17.8002825718
G01 X0.1325260140 Y3.1667017536 Z0.5322198605 F4.4049715188
G01 X0.1509107133 Y3.1667017536 Z0.5322198605 F4.4049715188
G01 X0.1818299687 Y3.1667017536 Z0.5322198605 F3.7041247594
G01 X0.2369218187 Y3.1512421259 Z0.5322198605 F13.7098701757
G01 X0.2920136687 Y3.1357824982 Z0.5322198605 F13.7098701757
G01 X0.3538521795 Y3.1173977990 Z0.5322198605 F15.4574389151
G01 X0.4089440295 Y3.0990130997 Z0.5322198605 F13.9155946363
G01 X0.4552705687 Y3.0806284005 Z0.5322198605 F11.9419453874
G01 X0.4920399672 Y3.0622437012 Z0.5322198605 F9.8498157549
G01 X0.5288093657 Y3.0467840735 Z0.5322198605 F9.5569679584
G01 X0.5778906242 Y3.0055118191 Z0.5476794882 F15.8051831223
G01 X0.6329824742 Y2.9591852800 Z0.5631391159 F17.6399213657
G01 X0.6880743242 Y2.9128587408 Z0.5785987436 F17.6399213657
G01 X0.7982580242 Y2.8202056624 Z0.6153681421 F17.8002825718
G01 X0.8166427235 Y2.8202056624 Z0.6153681421 F4.4049715188
G01 X0.8350274227 Y2.8202056624 Z0.6153681421 F4.4049715188
G01 X0.8504870504 Y2.8202056624 Z0.6153681421 F3.7041247594
G01 X0.9055789004 Y2.8047460347 Z0.6153681421 F13.7098701757
G01 X0.9606707504 Y2.7892864070 Z0.6153681421 F13.7098701757
G01 X1.0157626004 Y2.7738267793 Z0.6153681421 F13.7098701757
G01 X1.0776011112 Y2.7554420801 Z0.6153681421 F15.4574389151
G01 X1.1326929612 Y2.7370573808 Z0.6153681421 F13.9155946363
G01 X1.1790195004 Y2.7186726816 Z0.6153681421 F11.9419453874
G01 X1.2157888989 Y2.7002879823 Z0.6153681421 F9.8498157549
G01 X1.2525582974 Y2.6848283546 Z0.6153681421 F9.5569679584
G01 X1.3016395560 Y2.6435561003 Z0.6308277698 F15.8051831223
G01 X1.3567314060 Y2.5972295611 Z0.6462873975 F17.6399213657
G01 X1.4118232560 Y2.5509030219 Z0.6617470252 F17.6399213657
G01 X1.5220069560 Y2.4582499436 Z0.6985164237 F17.8002825718
G01 X1.5403916552 Y2.4582499436 Z0.6985164237 F4.4049715188
G01 X1.5587763545 Y2.4582499436 Z0.6985164237 F4.4049715188
G01 X1.5742359822 Y2.4582499436 Z0.6985164237 F3.7041247594
G01 X1.6233172407 Y2.4427903159 Z0.6985164237 F12.3294330722
G01 X1.6784090907 Y2.4273306882 Z0.6985164237 F13.7098701757
G01 X1.7335009407 Y2.4118710605 Z0.6985164237 F13.7098701757
G01 X1.8436846407 Y2.3751016620 Z0.6985164237 F13.9155946363
G01 X1.8620693400 Y2.3751016620 Z0.6985164237 F4.4049715188
G01 X1.8804540392 Y2.3751016620 Z0.6985164237 F4.4049715188
G01 X1.8959136669 Y2.3751016620 Z0.6985164237 F3.7041247594
G01 X1.9449949255 Y2.3596420343 Z0.6985164237 F12.3294330722
G01 X1.9913214647 Y2.3596420343 Z0.6985164237 F11.0998326813
G01 X2.2229541605 Y2.3596420343 Z0.6985164237 F11.0998326813
