( File created with mid2cnc.py - http://tim.cexx.org/?p=633 )
( Input file was Tetris_MusicA2.mid )
( Steps per inch: 2000 )
( Machine envelope: )
( x = 12 )
( y = 6 )
( z = 1 )
G20
G00 X0 Y0 Z0
G01 X0.0706344058 Y0.0529160151 Z0.0088293007 F24.8353784787
G01 X0.1412688117 Y0.1058320302 Z0.0264879022 F25.2018142549
G01 X0.1941848268 Y0.1503289175 Z0.0353172029 F19.5159074151
G01 X0.2502473918 Y0.1974717275 Z0.0529758044 F21.0973883341
G01 X0.3131754935 Y0.2503877426 Z0.0618051051 F23.1538514050
G01 X0.3484926964 Y0.2768457502 Z0.0706344058 F25.2018142549
G01 X0.3799567472 Y0.3033037577 Z0.0794637066 F23.5464700633
G01 X0.4360193123 Y0.3504465677 Z0.0882930073 F20.6582762340
G01 X0.4889353274 Y0.3949434551 Z0.1059516088 F19.9801416360
G01 X0.5360781374 Y0.4302606580 Z0.1177373113 F16.8201930324
G01 X0.5832209474 Y0.4655778609 Z0.1413087163 F17.7648218018
G01 X0.6303637574 Y0.5008950638 Z0.1530944188 F16.8201930324
G01 X0.6864263224 Y0.5480378738 Z0.1766658238 F21.5455928465
G01 X0.7570607283 Y0.6041004389 Z0.1884515263 F25.4648413642
G01 X0.8276951341 Y0.6601630040 Z0.2120229313 F26.0984318629
G01 X0.8906232357 Y0.7130790191 Z0.2238086338 F23.2568060798
G01 X0.9466858008 Y0.7602218291 Z0.2473800388 F21.5455928465
G01 X0.9996018159 Y0.8047187165 Z0.2585042606 F19.6076700151
G01 X1.0525178310 Y0.8400359194 Z0.2807527043 F18.8712767333
G01 X1.1054338460 Y0.8845328068 Z0.2918769262 F19.6076700151
G01 X1.1614964111 Y0.9316756168 Z0.3141253699 F21.4350208600
G01 X1.2244245127 Y0.9845916318 Z0.3229546706 F23.1538514050
G01 X1.2558885636 Y1.0110496394 Z0.3317839713 F23.5464700633
G01 X1.2873526144 Y1.0375076469 Z0.3406132720 F23.5464700633
G01 X1.3579870202 Y1.0935702120 Z0.3494425728 F25.3708484595
G01 X1.4286214261 Y1.1496327771 Z0.3671011742 F25.7296593276
G01 X1.4846839911 Y1.1967755871 Z0.3788868767 F20.7736027474
G01 X1.5407465562 Y1.2439183971 Z0.4024582817 F21.5455928465
G01 X1.5878893662 Y1.2792356000 Z0.4142439842 F16.8201930324
G01 X1.6350321762 Y1.3145528029 Z0.4378153892 F17.7648218018
G01 X1.6821749862 Y1.3498700058 Z0.4496010917 F16.8201930324
G01 X1.7293177962 Y1.3851872088 Z0.4731724967 F17.7648218018
G01 X1.7764606062 Y1.4205044117 Z0.4864015005 F16.9041247594
G01 X1.8236034162 Y1.4558216146 Z0.5004171418 F16.9537511880
G01 X1.8393354416 Y1.4558216146 Z0.5004171418 F4.4049715188
G01 X1.9022635432 Y1.4932388877 Z0.5103276968 F20.6863505726
G01 X1.9651916449 Y1.5306561608 Z0.5103276968 F20.4993830923
G01 X2.0400261911 Y1.5777989708 Z0.5202382517 F24.9198250458
G01 X2.1343118111 Y1.6338615359 Z0.5202382517 F30.7143707588
G01 X2.1814546211 Y1.6618928184 Z0.5251935292 F30.8394708767
G01 X2.2285974311 Y1.6899241009 Z0.5301488067 F30.8394708767
G01 X2.3125963691 Y1.7428401160 Z0.5419345092 F27.9927876840
G01 X2.3874309152 Y1.7899829260 Z0.5518450642 F24.9198250458
G01 X2.4580653211 Y1.8319823950 Z0.5588528848 F23.0932923306
G01 X2.5286997269 Y1.8739818640 Z0.5728685261 F23.3420380416
G01 X2.5993341328 Y1.9159813330 Z0.5728685261 F23.0097795348
G01 X2.6553966979 Y1.9512985359 Z0.5868841674 F18.9631814433
G01 X2.7260311037 Y1.9932980049 Z0.5938919880 F23.0932923306
G01 X2.7613483066 Y2.0168694099 Z0.5991419216 F23.9591104451
G01 X2.7966655095 Y2.0378691444 Z0.6043918553 F23.1968392884
G01 X2.8595936112 Y2.0752864175 Z0.6148917225 F20.7091309787
G01 X2.9156561762 Y2.1106036204 Z0.6248022775 F18.7590473533
G01 X2.9685721913 Y2.1551005078 Z0.6380312813 F19.7098801776
G01 X3.0214882064 Y2.1904177108 Z0.6644892888 F19.2924777651
G01 X3.0744042215 Y2.2349145981 Z0.6644892888 F19.3586889118
G01 X3.1304667865 Y2.2820574081 Z0.6909472963 F21.8067588614
G01 X3.1933948882 Y2.3349734232 Z0.6909472963 F23.0214905910
G01 X3.2248589390 Y2.3572218669 Z0.6997765971 F22.1390560178
G01 X3.2563229898 Y2.3794703106 Z0.7086058978 F22.1390560178
G01 X3.3269573956 Y2.4355328757 Z0.7086058978 F25.2501117958
G01 X3.3975918015 Y2.4800297631 Z0.7308543415 F24.1907692190
G01 X3.4536543666 Y2.5271725731 Z0.7426400440 F20.7736027474
G01 X3.5097169316 Y2.5624897760 Z0.7602986455 F19.2002262531
G01 X3.5568597416 Y2.5978069789 Z0.7720843480 F16.8201930324
G01 X3.6040025516 Y2.6331241818 Z0.7897429494 F17.2184818454
G01 X3.6511453616 Y2.6684413848 Z0.8015286519 F16.8201930324
G01 X3.6982881716 Y2.7037585877 Z0.7897429494 F16.8201930324
G01 X3.7081987266 Y2.7037585877 Z0.7897429494 F2.7749581703
G01 X3.7181092816 Y2.7037585877 Z0.7897429494 F2.7749581703
G01 X3.7887436875 Y2.7566746028 Z0.7809136487 F24.8353784787
G01 X3.8593780933 Y2.8095906178 Z0.7632550472 F25.2018142549
G01 X3.9122941084 Y2.8540875052 Z0.7544257465 F19.5159074151
G01 X3.9683566734 Y2.9012303152 Z0.7367671450 F21.0973883341
G01 X4.0312847751 Y2.9541463303 Z0.7279378443 F23.1538514050
G01 X4.0666019780 Y2.9806043378 Z0.7191085436 F25.2018142549
G01 X4.0980660288 Y3.0070623454 Z0.7102792428 F23.5464700633
G01 X4.1541285939 Y3.0542051554 Z0.7014499421 F20.6582762340
G01 X4.2070446090 Y3.0987020428 Z0.6837913406 F19.9801416360
G01 X4.2541874190 Y3.1340192457 Z0.6720056381 F16.8201930324
G01 X4.3013302290 Y3.1693364486 Z0.6484342331 F17.7648218018
G01 X4.3484730390 Y3.2046536515 Z0.6366485306 F16.8201930324
G01 X4.4045356040 Y3.2517964615 Z0.6130771256 F21.5455928465
G01 X4.4751700099 Y3.3078590266 Z0.6012914231 F25.4648413642
G01 X4.5458044157 Y3.3639215917 Z0.5777200181 F26.0984318629
G01 X4.6087325173 Y3.4168376068 Z0.5659343156 F23.2568060798
G01 X4.6647950824 Y3.4639804168 Z0.5423629106 F21.5455928465
G01 X4.7177110975 Y3.5084773041 Z0.5312386888 F19.6076700151
G01 X4.7706271126 Y3.5437945071 Z0.5089902451 F18.8712767333
G01 X4.8235431276 Y3.5882913944 Z0.4978660233 F19.6076700151
G01 X4.8796056927 Y3.6354342044 Z0.4756175796 F21.4350208600
G01 X4.9425337943 Y3.6883502195 Z0.4667882788 F23.1538514050
G01 X4.9739978452 Y3.7148082271 Z0.4579589781 F23.5464700633
G01 X5.0054618960 Y3.7412662346 Z0.4491296774 F23.5464700633
G01 X5.0760963018 Y3.7973287997 Z0.4403003766 F25.3708484595
G01 X5.1467307077 Y3.8533913647 Z0.4226417752 F25.7296593276
G01 X5.2027932727 Y3.9005341747 Z0.4108560727 F20.7736027474
G01 X5.2588558378 Y3.9476769847 Z0.3872846677 F21.5455928465
G01 X5.3059986478 Y3.9829941877 Z0.3754989652 F16.8201930324
G01 X5.3531414578 Y4.0183113906 Z0.3519275602 F17.7648218018
G01 X5.4002842678 Y4.0536285935 Z0.3401418577 F16.8201930324
G01 X5.4474270778 Y4.0889457964 Z0.3165704527 F17.7648218018
G01 X5.4945698878 Y4.1242629994 Z0.3033414489 F16.9041247594
G01 X5.5417126978 Y4.1595802023 Z0.2893258076 F16.9537511880
G01 X5.5574447232 Y4.1595802023 Z0.2893258076 F4.4049715188
G01 X5.6203728248 Y4.1969974754 Z0.2794152527 F20.6863505726
G01 X5.6833009265 Y4.2344147485 Z0.2794152527 F20.4993830923
G01 X5.7581354727 Y4.2815575585 Z0.2695046977 F24.9198250458
G01 X5.8524210927 Y4.3376201235 Z0.2695046977 F30.7143707588
G01 X5.8995639027 Y4.3656514061 Z0.2645494202 F30.8394708767
G01 X5.9467067127 Y4.3936826886 Z0.2595941427 F30.8394708767
G01 X6.0307056507 Y4.4465987037 Z0.2478084402 F27.9927876840
G01 X6.1055401968 Y4.4937415137 Z0.2378978852 F24.9198250458
G01 X6.1761746027 Y4.5357409827 Z0.2308900646 F23.0932923306
G01 X6.2468090085 Y4.5777404517 Z0.2168744233 F23.3420380416
G01 X6.3174434144 Y4.6197399207 Z0.2168744233 F23.0097795348
G01 X6.3735059795 Y4.6550571236 Z0.2028587820 F18.9631814433
G01 X6.4441403853 Y4.6970565926 Z0.1958509614 F23.0932923306
G01 X6.4794575882 Y4.7206279976 Z0.2011008950 F23.9591104451
G01 X6.5147747911 Y4.7416277321 Z0.2063508287 F23.1968392884
G01 X6.5777028928 Y4.7790450052 Z0.2168506959 F20.7091309787
G01 X6.6337654578 Y4.8143622081 Z0.2267612509 F18.7590473533
G01 X6.6866814729 Y4.8588590955 Z0.2399902547 F19.7098801776
G01 X6.7395974880 Y4.8941762984 Z0.2664482622 F19.2924777651
G01 X6.7925135031 Y4.9386731858 Z0.2664482622 F19.3586889118
G01 X6.8485760681 Y4.9858159958 Z0.2929062697 F21.8067588614
G01 X6.9115041698 Y5.0387320109 Z0.2929062697 F23.0214905910
G01 X6.9429682206 Y5.0609804546 Z0.3017355705 F22.1390560178
G01 X6.9744322714 Y5.0832288983 Z0.3105648712 F22.1390560178
G01 X7.0450666772 Y5.1392914634 Z0.3105648712 F25.2501117958
G01 X7.1157010831 Y5.1837883507 Z0.3328133149 F24.1907692190
G01 X7.1717636482 Y5.2309311607 Z0.3445990174 F20.7736027474
G01 X7.2278262132 Y5.2662483637 Z0.3622576188 F19.2002262531
G01 X7.2749690232 Y5.3015655666 Z0.3740433213 F16.8201930324
G01 X7.3221118332 Y5.3368827695 Z0.3917019228 F17.2184818454
G01 X7.3692546432 Y5.3721999724 Z0.4034876253 F16.8201930324
G01 X7.4163974532 Y5.4075171754 Z0.4152733278 F16.8201930324
G01 X7.4263080082 Y5.4075171754 Z0.4152733278 F2.7749581703
G01 X7.4362185632 Y5.4075171754 Z0.4152733278 F2.7749581703
G01 X7.4715357661 Y5.4355484579 Z0.4388447328 F14.2461235579
G01 X7.5068529691 Y5.4635797404 Z0.4487552878 F12.9264236846
G01 X7.5348842516 Y5.4871511454 Z0.4487552878 F10.2549082286
G01 X7.5702014545 Y5.5151824280 Z0.4586658428 F12.9264236846
G01 X7.5982327371 Y5.5387538330 Z0.4586658428 F10.2549082286
G01 X7.6158913385 Y5.5527694742 Z0.4636211203 F12.9264236846
G01 X7.6335499400 Y5.5667851155 Z0.4685763978 F12.9264236846
G01 X7.6615812225 Y5.5903565205 Z0.4685763978 F10.2549082286
G01 X7.6968984254 Y5.6183878030 Z0.4784869527 F12.9264236846
G01 X7.7283624762 Y5.6448458106 Z0.5007353964 F13.0883461683
G01 X7.7636796792 Y5.6763098614 Z0.5271934040 F15.1751820716
G01 X7.7951437300 Y5.7027678689 Z0.5494418477 F13.0883461683
G01 X7.8304609329 Y5.7342319197 Z0.5758998552 F15.1751820716
G01 X7.8569189404 Y5.7564803634 Z0.5758998552 F9.6793444559
G01 X7.8922361434 Y5.7829383710 Z0.5858104102 F12.6637848777
G01 X7.9186941509 Y5.8051868147 Z0.5957209652 F10.0692652136
G01 X7.9540113538 Y5.7787288071 Z0.6056315202 F12.6637848777
G01 X7.9820426364 Y5.7551574021 Z0.6056315202 F10.2549082286
G01 X8.0173598393 Y5.7271261196 Z0.6155420751 F12.9264236846
G01 X8.0453911218 Y5.7035547146 Z0.6155420751 F10.2549082286
G01 X8.0807083247 Y5.6755234321 Z0.6254526301 F12.9264236846
G01 X8.1042797297 Y5.6578648306 Z0.6254526301 F8.2466492233
G01 X8.1219383312 Y5.6490355299 Z0.6304079076 F11.3989696862
G01 X8.1395969327 Y5.6402062291 Z0.6353631851 F11.3989696862
G01 X8.1631683377 Y5.6225476277 Z0.6353631851 F8.2466492233
G01 X8.1984855406 Y5.6048890262 Z0.6452737401 F11.3989696862
G01 X8.2207339843 Y5.5872304248 Z0.6452737401 F7.9532868409
G01 X8.2560511872 Y5.5695718233 Z0.6551842951 F11.3989696862
G01 X8.2782996309 Y5.5519132218 Z0.6551842951 F7.9532868409
G01 X8.3136168338 Y5.5342546204 Z0.6650948501 F11.3989696862
G01 X8.3400748414 Y5.5120061767 Z0.6650948501 F9.6793444559
G01 X8.3665328489 Y5.4897577330 Z0.6750054050 F10.0692652136
G01 X8.3764434039 Y5.4897577330 Z0.6750054050 F2.7749581703
G01 X8.3863539589 Y5.4897577330 Z0.6750054050 F2.7749581703
G01 X8.4216711618 Y5.4617264504 Z0.6985768100 F14.2461235579
G01 X8.4569883647 Y5.4336951679 Z0.7084873650 F12.9264236846
G01 X8.4850196473 Y5.4101237629 Z0.7084873650 F10.2549082286
G01 X8.5203368502 Y5.3820924804 Z0.7183979200 F12.9264236846
G01 X8.5483681327 Y5.3585210754 Z0.7183979200 F10.2549082286
G01 X8.5660267342 Y5.3445054341 Z0.7233531975 F12.9264236846
G01 X8.5836853356 Y5.3304897928 Z0.7283084750 F12.9264236846
G01 X8.6117166182 Y5.3069183878 Z0.7283084750 F10.2549082286
G01 X8.6470338211 Y5.2788871053 Z0.7382190300 F12.9264236846
G01 X8.6784978719 Y5.2524290978 Z0.7604674737 F13.0883461683
G01 X8.7138150748 Y5.2209650469 Z0.7869254812 F15.1751820716
G01 X8.7452791256 Y5.1945070394 Z0.8091739249 F13.0883461683
G01 X8.7805963286 Y5.1630429886 Z0.7827159174 F15.1751820716
G01 X8.8070543361 Y5.1407945449 Z0.7827159174 F9.6793444559
G01 X8.8423715390 Y5.1143365374 Z0.7728053624 F12.6637848777
G01 X8.8688295466 Y5.0920880937 Z0.7628948074 F10.0692652136
G01 X8.9041467495 Y5.0656300861 Z0.7529842524 F12.6637848777
G01 X8.9321780320 Y5.0420586811 Z0.7529842524 F10.2549082286
G01 X8.9674952350 Y5.0140273986 Z0.7430736974 F12.9264236846
G01 X9.0028124379 Y4.9859961161 Z0.7195022924 F14.2461235579
G01 X9.0381296408 Y4.9579648335 Z0.7095917374 F12.9264236846
G01 X9.0852724508 Y4.9226476306 Z0.6860203324 F17.7648218018
G01 X9.1088438558 Y4.9049890291 Z0.6810650550 F16.7251094614
G01 X9.1324152608 Y4.8873304277 Z0.6761097775 F16.7251094614
G01 X9.1795580708 Y4.8637590227 Z0.6761097775 F14.7580486515
G01 X9.2267008808 Y4.8284418198 Z0.6661992225 F16.7251094614
G01 X9.2711977682 Y4.7969777689 Z0.6439507788 F16.4818942217
G01 X9.3156946556 Y4.7616605660 Z0.6124867280 F18.1833490486
G01 X9.3601915430 Y4.7301965152 Z0.5902382843 F16.4818942217
G01 X9.4046884303 Y4.6948793123 Z0.5587742335 F18.1833490486
G04 P0.2140
G01 X9.4145989853 Y4.6948793123 Z0.5587742335 F2.7749581703
G01 X9.4245095403 Y4.6948793123 Z0.5587742335 F2.7749581703
G01 X9.4344200953 Y4.6948793123 Z0.5587742335 F2.7749581703
G01 X9.5050545011 Y4.6419632972 Z0.5499449327 F24.8353784787
G01 X9.5756889070 Y4.5890472821 Z0.5322863313 F25.2018142549
G01 X9.6286049221 Y4.5445503947 Z0.5234570305 F19.5159074151
G01 X9.6846674871 Y4.4974075847 Z0.5057984291 F21.0973883341
G01 X9.7475955888 Y4.4444915697 Z0.4969691284 F23.1538514050
G01 X9.7829127917 Y4.4180335621 Z0.4881398276 F25.2018142549
G01 X9.8143768425 Y4.3915755546 Z0.4793105269 F23.5464700633
G01 X9.8704394076 Y4.3444327446 Z0.4704812262 F20.6582762340
G01 X9.9233554227 Y4.2999358572 Z0.4528226247 F19.9801416360
G01 X9.9704982327 Y4.2646186543 Z0.4410369222 F16.8201930324
G01 X10.0176410427 Y4.2293014514 Z0.4174655172 F17.7648218018
G01 X10.0647838527 Y4.1939842484 Z0.4056798147 F16.8201930324
G01 X10.1208464177 Y4.1468414384 Z0.3821084097 F21.5455928465
G01 X10.1914808236 Y4.0907788734 Z0.3703227072 F25.4648413642
G01 X10.2621152294 Y4.0347163083 Z0.3467513022 F26.0984318629
G01 X10.3250433310 Y3.9818002932 Z0.3349655997 F23.2568060798
G01 X10.3811058961 Y3.9346574832 Z0.3113941947 F21.5455928465
G01 X10.4340219112 Y3.8901605958 Z0.3002699728 F19.6076700151
G01 X10.4869379263 Y3.8548433929 Z0.2780215292 F18.8712767333
G01 X10.5398539413 Y3.8103465055 Z0.2668973073 F19.6076700151
G01 X10.5959165064 Y3.7632036955 Z0.2446488636 F21.4350208600
G01 X10.6588446080 Y3.7102876804 Z0.2358195629 F23.1538514050
G01 X10.6903086589 Y3.6838296729 Z0.2269902622 F23.5464700633
G01 X10.7217727097 Y3.6573716654 Z0.2181609614 F23.5464700633
G01 X10.7924071155 Y3.6013091003 Z0.2093316607 F25.3708484595
G01 X10.8630415214 Y3.5452465352 Z0.1916730592 F25.7296593276
G01 X10.9191040864 Y3.4981037252 Z0.2034587617 F20.7736027474
G01 X10.9751666515 Y3.4509609152 Z0.2270301667 F21.5455928465
G01 X11.0223094615 Y3.4156437123 Z0.2388158692 F16.8201930324
G01 X11.0694522715 Y3.3803265094 Z0.2623872742 F17.7648218018
G01 X11.1165950815 Y3.3450093064 Z0.2741729767 F16.8201930324
G01 X11.1637378915 Y3.3096921035 Z0.2977443817 F17.7648218018
G01 X11.2108807015 Y3.2743749006 Z0.3109733855 F16.9041247594
G01 X11.2580235115 Y3.2390576977 Z0.3249890268 F16.9537511880
G01 X11.2737555369 Y3.2390576977 Z0.3249890268 F4.4049715188
G01 X11.3366836385 Y3.2016404246 Z0.3348995818 F20.6863505726
G01 X11.3996117402 Y3.1642231515 Z0.3348995818 F20.4993830923
G01 X11.4744462864 Y3.1170803415 Z0.3448101367 F24.9198250458
G01 X11.5687319064 Y3.0610177764 Z0.3448101367 F30.7143707588
G01 X11.6158747164 Y3.0329864939 Z0.3497654142 F30.8394708767
G01 X11.6630175264 Y3.0049552113 Z0.3547206917 F30.8394708767
G01 X11.7470164643 Y2.9520391963 Z0.3665063942 F27.9927876840
G01 X11.8218510105 Y2.9048963863 Z0.3764169492 F24.9198250458
G01 X11.7512166047 Y2.8628969173 Z0.3834247698 F23.0932923306
G01 X11.6805821988 Y2.8208974483 Z0.3974404111 F23.3420380416
G01 X11.6099477930 Y2.7788979793 Z0.3974404111 F23.0097795348
G01 X11.5538852279 Y2.7435807764 Z0.4114560524 F18.9631814433
G01 X11.4832508221 Y2.7015813074 Z0.4184638730 F23.0932923306
G01 X11.4479336192 Y2.6780099024 Z0.4237138066 F23.9591104451
G01 X11.4126164162 Y2.6570101679 Z0.4289637403 F23.1968392884
G01 X11.3496883146 Y2.6195928948 Z0.4394636075 F20.7091309787
G01 X11.2936257495 Y2.5842756918 Z0.4493741625 F18.7590473533
G01 X11.2407097345 Y2.5397788044 Z0.4626031663 F19.7098801776
G01 X11.1877937194 Y2.5044616015 Z0.4890611738 F19.2924777651
G01 X11.1348777043 Y2.4599647141 Z0.4890611738 F19.3586889118
G01 X11.0788151392 Y2.4128219041 Z0.5155191813 F21.8067588614
G01 X11.0158870376 Y2.3599058891 Z0.5155191813 F23.0214905910
G01 X10.9844229868 Y2.3376574454 Z0.5243484821 F22.1390560178
G01 X10.9529589360 Y2.3154090017 Z0.5331777828 F22.1390560178
G01 X10.8823245301 Y2.2593464366 Z0.5331777828 F25.2501117958
G01 X10.8116901243 Y2.2148495492 Z0.5554262265 F24.1907692190
G01 X10.7556275592 Y2.1677067392 Z0.5672119290 F20.7736027474
G01 X10.6995649941 Y2.1323895363 Z0.5848705305 F19.2002262531
G01 X10.6524221841 Y2.0970723334 Z0.5966562330 F16.8201930324
G01 X10.6052793741 Y2.0617551304 Z0.6143148344 F17.2184818454
G01 X10.5581365641 Y2.0264379275 Z0.6261005369 F16.8201930324
G01 X10.5109937541 Y1.9911207246 Z0.6378862394 F16.8201930324
G01 X10.5010831992 Y1.9911207246 Z0.6378862394 F2.7749581703
G01 X10.4911726442 Y1.9911207246 Z0.6378862394 F2.7749581703
G01 X10.4205382383 Y1.9382047095 Z0.6467155401 F24.8353784787
G01 X10.3499038325 Y1.8852886944 Z0.6643741416 F25.2018142549
G01 X10.2969878174 Y1.8407918071 Z0.6732034423 F19.5159074151
G01 X10.2409252523 Y1.7936489971 Z0.6908620438 F21.0973883341
G01 X10.1779971507 Y1.7407329820 Z0.6996913445 F23.1538514050
G01 X10.1426799478 Y1.7142749744 Z0.7085206453 F25.2018142549
G01 X10.1112158970 Y1.6878169669 Z0.7173499460 F23.5464700633
G01 X10.0551533319 Y1.6406741569 Z0.7261792467 F20.6582762340
G01 X10.0022373168 Y1.5961772695 Z0.7438378482 F19.9801416360
G01 X9.9550945068 Y1.5608600666 Z0.7556235507 F16.8201930324
G01 X9.9079516968 Y1.5255428637 Z0.7791949557 F17.7648218018
G01 X9.8608088868 Y1.4902256608 Z0.7909806582 F16.8201930324
G01 X9.8047463217 Y1.4430828508 Z0.8145520632 F21.5455928465
G01 X9.7341119159 Y1.3870202857 Z0.8027663607 F25.4648413642
G01 X9.6634775101 Y1.3309577206 Z0.7791949557 F26.0984318629
G01 X9.6005494084 Y1.2780417055 Z0.7674092532 F23.2568060798
G01 X9.5444868434 Y1.2308988955 Z0.7438378482 F21.5455928465
G01 X9.4915708283 Y1.1864020081 Z0.7327136263 F19.6076700151
G01 X9.4386548132 Y1.1510848052 Z0.7104651826 F18.8712767333
G01 X9.3857387981 Y1.1065879178 Z0.6993409608 F19.6076700151
G01 X9.3296762331 Y1.0594451078 Z0.6770925171 F21.4350208600
G01 X9.2667481314 Y1.0065290928 Z0.6682632164 F23.1538514050
G01 X9.2352840806 Y0.9800710852 Z0.6594339156 F23.5464700633
G01 X9.2038200298 Y0.9536130777 Z0.6506046149 F23.5464700633
G01 X9.1331856240 Y0.8975505126 Z0.6417753142 F25.3708484595
G01 X9.0625512181 Y0.8414879475 Z0.6241167127 F25.7296593276
G01 X9.0064886530 Y0.7943451375 Z0.6123310102 F20.7736027474
G01 X8.9504260880 Y0.7472023275 Z0.5887596052 F21.5455928465
G01 X8.9032832780 Y0.7118851246 Z0.5769739027 F16.8201930324
G01 X8.8561404680 Y0.6765679217 Z0.5534024977 F17.7648218018
G01 X8.8089976580 Y0.6412507188 Z0.5416167952 F16.8201930324
G01 X8.7618548480 Y0.6059335158 Z0.5180453902 F17.7648218018
G01 X8.7147120380 Y0.5706163129 Z0.5048163864 F16.9041247594
G01 X8.6675692280 Y0.5352991100 Z0.4908007452 F16.9537511880
G01 X8.6518372026 Y0.5352991100 Z0.4908007452 F4.4049715188
G01 X8.5889091009 Y0.4978818369 Z0.4808901902 F20.6863505726
G01 X8.5259809993 Y0.4604645638 Z0.4808901902 F20.4993830923
G01 X8.4511464531 Y0.4133217538 Z0.4709796352 F24.9198250458
G01 X8.3568608331 Y0.3572591887 Z0.4709796352 F30.7143707588
G01 X8.3097180231 Y0.3292279062 Z0.4660243577 F30.8394708767
G01 X8.2625752131 Y0.3011966237 Z0.4610690802 F30.8394708767
G01 X8.1785762751 Y0.2482806086 Z0.4492833777 F27.9927876840
G01 X8.1037417289 Y0.2011377986 Z0.4393728227 F24.9198250458
G01 X8.0331073231 Y0.1591383296 Z0.4323650021 F23.0932923306
G01 X7.9624729172 Y0.2011377986 Z0.4183493608 F23.3420380416
G01 X7.8918385114 Y0.2431372676 Z0.4183493608 F23.0097795348
G01 X7.8357759463 Y0.2784544705 Z0.4043337196 F18.9631814433
G01 X7.7651415405 Y0.3204539395 Z0.3973258989 F23.0932923306
G01 X7.7298243375 Y0.3440253445 Z0.3920759653 F23.9591104451
G01 X7.6945071346 Y0.3650250790 Z0.3868260317 F23.1968392884
G01 X7.6315790330 Y0.4024423521 Z0.3763261644 F20.7091309787
G01 X7.5755164679 Y0.4377595550 Z0.3664156095 F18.7590473533
G01 X7.5226004529 Y0.4822564424 Z0.3531866057 F19.7098801776
G01 X7.4696844378 Y0.5175736453 Z0.3267285982 F19.2924777651
G01 X7.4167684227 Y0.5620705327 Z0.3267285982 F19.3586889118
G01 X7.3607058576 Y0.6092133427 Z0.3002705906 F21.8067588614
G01 X7.2977777560 Y0.6621293578 Z0.3002705906 F23.0214905910
G01 X7.2663137052 Y0.6843778015 Z0.2914412899 F22.1390560178
G01 X7.2348496544 Y0.7066262452 Z0.2826119892 F22.1390560178
G01 X7.1642152485 Y0.7626888103 Z0.2826119892 F25.2501117958
G01 X7.0935808427 Y0.8071856976 Z0.2603635455 F24.1907692190
G01 X7.0375182776 Y0.8543285076 Z0.2485778430 F20.7736027474
G01 X6.9814557125 Y0.8896457106 Z0.2309192415 F19.2002262531
G01 X6.9343129025 Y0.9249629135 Z0.2191335390 F16.8201930324
G01 X6.8871700925 Y0.9602801164 Z0.2014749375 F17.2184818454
G01 X6.8400272825 Y0.9955973193 Z0.1896892350 F16.8201930324
G01 X6.7928844725 Y1.0309145223 Z0.2014749375 F16.8201930324
G01 X6.7829739176 Y1.0309145223 Z0.2014749375 F2.7749581703
G01 X6.7730633626 Y1.0309145223 Z0.2014749375 F2.7749581703
