( File created with mid2cnc.py - http://tim.cexx.org/?p=633 )
( Hacked by Miles Lightwood of TeamTeamUSA to support the MakerBot Cupcake CNC - m at teamteamusa dot com )
( Input file was ../../../Documents/MakerBot/Music/tour_de_france/tour_de_france.mid )
( Steps per inch: 180.0 )
( Machine envelope: )
( x = 3.93 )
( y = 3.93 )
( z = 1 )
G21
G90
G00 X0 Y0 Z0
G01 X0.0000000000 Y0.0000000000 Z0.2237524142 F30.8328685593
G01 X0.0000000000 Y0.0000000000 Z0.6701866569 F30.8328685593
G01 X0.0000000000 Y0.0000000000 Z0.7693801347 F27.4689630761
G01 X0.0000000000 Y0.0000000000 Z0.7956530919 F29.1023526194
G01 X0.0000000000 Y0.0000000000 Z0.8234883204 F30.8328685593
G01 X0.0000000000 Y0.0000000000 Z1.0472407346 F30.8328685593
G01 X0.0000000000 Y0.0000000000 Z1.4936749773 F30.8328685593
G01 X0.0000000000 Y0.0000000000 Z1.5928684551 F27.4689630761
G01 X0.0000000000 Y0.0000000000 Z1.6191414123 F29.1023526194
G01 X0.0000000000 Y0.0000000000 Z1.6469766409 F30.8328685593
G01 X0.0000000000 Y0.0000000000 Z1.7131803446 F18.3333333333
G01 X0.0000000000 Y0.0000000000 Z1.8455877520 F36.6666666667
G01 X0.0000000000 Y0.0000000000 Z1.9117914557 F18.3333333333
G01 X0.0000000000 Y0.0000000000 Z1.9613881946 F13.7344815380
G01 X0.0000000000 Y0.0000000000 Z2.0605816724 F27.4689630761
G01 X0.0000000000 Y0.0000000000 Z2.1101784112 F13.7344815380
G01 X0.0000000000 Y0.0000000000 Z2.1763821149 F18.3333333333
G01 X0.0000000000 Y0.0000000000 Z2.3087895224 F36.6666666667
G01 X0.0000000000 Y0.0000000000 Z2.3749932261 F18.3333333333
G01 X0.0000000000 Y0.0000000000 Z2.4245899649 F13.7344815380
G01 X0.0000000000 Y0.0000000000 Z2.5237834427 F27.4689630761
G01 X0.0000000000 Y0.0000000000 Z2.5733801816 F13.7344815380
G01 X0.0000000000 Y0.0000000000 Z2.6476913265 F20.5784708857
G01 X0.0000000000 Y0.0000000000 Z2.7963136162 F41.1569417713
G01 X0.0000000000 Y0.0000000000 Z2.8706247611 F20.5784708857
G01 X0.0000000000 Y0.0000000000 Z2.9589961033 F24.4720639931
G01 X0.0000000000 Y0.0000000000 Z3.1357387877 F48.9441279862
G01 X0.0000000000 Y0.0000000000 Z3.1416868588 F24.4720639931
G01 X0.0000000000 Y0.0000000000 Z3.3267208462 F54.9379261521
G01 X0.0000000000 Y0.0000000000 Z3.5251078017 F54.9379261521
G01 X0.0000000000 Y0.0000000000 Z3.5403683367 F54.9379261521
G01 X0.0000000000 Y0.0000000000 Z3.7848127812 F73.3333333333
G01 X0.0000000000 Y0.0000000000 Z3.7644424108 F73.3333333333
G01 X0.0000000000 Y0.0000000000 Z3.4900627990 F82.3138835427
G01 X0.0000000000 Y0.0000000000 Z3.4671978314 F82.3138835427
G01 X0.0000000000 Y0.0000000000 Z3.4176010925 F109.8758523043
G01 X0.0000000000 Y0.0000000000 Z3.3680043536 F109.8758523043
G01 X0.0000000000 Y0.0000000000 Z3.3184076147 F109.8758523043
G01 X0.0000000000 Y0.0000000000 Z3.2688108758 F109.8758523043
G01 X0.0000000000 Y0.0000000000 Z3.2192141369 F109.8758523043
G01 X0.0000000000 Y0.0000000000 Z3.1696173980 F109.8758523043
G01 X0.0000000000 Y0.0000000000 Z3.1200206592 F109.8758523043
G01 X0.0000000000 Y0.0000000000 Z3.1009449903 F109.8758523043
G01 X0.0000000000 Y0.0000000000 Z3.0704239203 F109.8758523043
G01 X0.0000000000 Y0.0000000000 Z3.0666087865 F109.8758523043
G01 X0.0000000000 Y0.0000000000 Z3.0208271814 F109.8758523043
G01 X0.0000000000 Y0.0000000000 Z2.9712304425 F109.8758523043
G01 X0.0000000000 Y0.0000000000 Z2.9216337036 F109.8758523043
G01 X0.0000000000 Y0.0000000000 Z2.8720369647 F109.8758523043
G01 X0.0000000000 Y0.0000000000 Z2.8224402258 F109.8758523043
G01 X0.0000000000 Y0.0000000000 Z2.7728434869 F109.8758523043
G01 X0.0000000000 Y0.0000000000 Z2.7232467481 F109.8758523043
G01 X0.0000000000 Y0.0000000000 Z2.7041710793 F109.8758523043
G01 X0.0000000000 Y0.0000000000 Z2.6736500092 F109.8758523043
G01 X0.0000000000 Y0.0000000000 Z2.6240532703 F109.8758523043
G01 X0.0000000000 Y0.0000000000 Z2.5744565314 F109.8758523043
G01 X0.0000000000 Y0.0000000000 Z2.5248597925 F109.8758523043
G01 X0.0000000000 Y0.0000000000 Z2.4752630536 F109.8758523043
G01 X0.0000000000 Y0.0000000000 Z2.4256663147 F109.8758523043
G01 X0.0000000000 Y0.0000000000 Z2.3760695758 F109.8758523043
G01 X0.0000000000 Y0.0000000000 Z2.3264728370 F109.8758523043
G01 X0.0000000000 Y0.0000000000 Z2.3073971682 F109.8758523043
G01 X0.0000000000 Y0.0000000000 Z2.2768760981 F109.8758523043
G01 X0.0000000000 Y0.0000000000 Z2.2730609643 F109.8758523043
G01 X0.0000000000 Y0.0000000000 Z2.2345633767 F92.3942103256
G01 X0.0000000000 Y0.0000000000 Z2.1849666378 F109.8758523043
G01 X0.0000000000 Y0.0000000000 Z1.9603973766 F92.3942103256
G01 X0.0000000000 Y0.0000000000 Z1.9315241858 F92.3942103256
G01 X0.0000000000 Y0.0000000000 Z1.9277090521 F109.8758523043
G01 X0.0000000000 Y0.0000000000 Z1.8819274470 F109.8758523043
G01 X0.0000000000 Y0.0000000000 Z1.5690864786 F109.8758523043
G01 X0.0000000000 Y0.0000000000 Z1.5347502748 F109.8758523043
G01 X0.0000000000 Y0.0000000000 Z1.4790798176 F123.3314742372
G01 X0.0000000000 Y0.0000000000 Z1.1279277035 F123.3314742372
G01 X0.0000000000 Y0.0000000000 Z1.0893866178 F123.3314742372
G01 X0.0000000000 Y0.0000000000 Z1.0522310453 F82.3138835427
G01 X0.0000000000 Y0.0000000000 Z0.8178651269 F82.3138835427
G01 X0.0000000000 Y0.0000000000 Z0.7921420383 F82.3138835427
G01 X0.0000000000 Y0.0000000000 Z0.7504363184 F92.3942103256
G01 X0.0000000000 Y0.0000000000 Z0.4873694695 F92.3942103256
G01 X0.0000000000 Y0.0000000000 Z0.4584962788 F92.3942103256
G01 X0.0000000000 Y0.0000000000 Z0.4088995399 F109.8758523043
G01 X0.0000000000 Y0.0000000000 Z0.0960585716 F109.8758523043
G01 X0.0000000000 Y0.0000000000 Z0.4928324827 F109.8758523043
G01 X0.0000000000 Y0.0000000000 Z0.5309838203 F109.8758523043
G01 X0.0000000000 Y0.0000000000 Z0.5640856721 F73.3333333333
G01 X0.0000000000 Y0.0000000000 Z0.7703356721 F73.3333333333
G01 X0.0000000000 Y0.0000000000 Z1.0351504869 F73.3333333333
G01 X0.0000000000 Y0.0000000000 Z1.0631597462 F73.3333333333
G01 X0.0000000000 Y0.0000000000 Z1.0926501436 F65.3325726636
G01 X0.0000000000 Y0.0000000000 Z1.2741295121 F65.3325726636
G01 X0.0000000000 Y0.0000000000 Z1.5100526911 F65.3325726636
G01 X0.0000000000 Y0.0000000000 Z1.7459758702 F65.3325726636
G01 X0.0000000000 Y0.0000000000 Z1.9818990493 F65.3325726636
G01 X0.0000000000 Y0.0000000000 Z2.2178222283 F65.3325726636
G01 X0.0000000000 Y0.0000000000 Z2.2518496099 F65.3325726636
G01 X0.0000000000 Y0.0000000000 Z2.4537454074 F65.3325726636
G01 X0.0000000000 Y0.0000000000 Z2.6896685865 F65.3325726636
G01 X0.0000000000 Y0.0000000000 Z2.9255917655 F65.3325726636
G01 X0.0000000000 Y0.0000000000 Z2.9573506550 F65.3325726636
G01 X0.0000000000 Y0.0000000000 Z2.9592582219 F27.4689630761
G01 X0.0000000000 Y0.0000000000 Z3.0221368829 F20.5784708857
G01 X0.0000000000 Y0.0000000000 Z3.1105082251 F24.4720639931
G01 X0.0000000000 Y0.0000000000 Z3.2872509095 F48.9441279862
G01 X0.0000000000 Y0.0000000000 Z3.3756222517 F24.4720639931
G01 X0.0000000000 Y0.0000000000 Z3.3938222089 F30.8328685593
G01 X0.0000000000 Y0.0000000000 Z5.0382418654 F246.6629484744
G01 X0.0000000000 Y0.0000000000 Z4.8669481511 F246.6629484744
G01 X0.0000000000 Y0.0000000000 Z3.1197522661 F246.6629484744
G01 X0.0000000000 Y0.0000000000 Z3.1111875804 F246.6629484744
G01 X0.0000000000 Y0.0000000000 Z3.0882967778 F54.9379261521
G01 X0.0000000000 Y0.0000000000 Z2.7449347394 F54.9379261521
G01 X0.0000000000 Y0.0000000000 Z2.7144136693 F54.9379261521
G01 X0.0000000000 Y0.0000000000 Z2.6813118174 F73.3333333333
G01 X0.0000000000 Y0.0000000000 Z2.4495988545 F73.3333333333
G01 X0.0000000000 Y0.0000000000 Z2.4124432821 F82.3138835427
G01 X0.0000000000 Y0.0000000000 Z2.1523542750 F82.3138835427
G01 X0.0000000000 Y0.0000000000 Z2.1027575361 F109.8758523043
G01 X0.0000000000 Y0.0000000000 Z2.0531607973 F109.8758523043
G01 X0.0000000000 Y0.0000000000 Z2.0035640584 F109.8758523043
G01 X0.0000000000 Y0.0000000000 Z1.9539673195 F109.8758523043
G01 X0.0000000000 Y0.0000000000 Z1.9043705806 F109.8758523043
G01 X0.0000000000 Y0.0000000000 Z1.8547738417 F109.8758523043
G01 X0.0000000000 Y0.0000000000 Z1.8051771028 F109.8758523043
G01 X0.0000000000 Y0.0000000000 Z1.7555803639 F109.8758523043
G01 X0.0000000000 Y0.0000000000 Z1.7441349626 F109.8758523043
G01 X0.0000000000 Y0.0000000000 Z1.7059836250 F109.8758523043
G01 X0.0000000000 Y0.0000000000 Z1.6563868862 F109.8758523043
G01 X0.0000000000 Y0.0000000000 Z1.6067901473 F109.8758523043
G01 X0.0000000000 Y0.0000000000 Z1.5571934084 F109.8758523043
G01 X0.0000000000 Y0.0000000000 Z1.5075966695 F109.8758523043
G01 X0.0000000000 Y0.0000000000 Z1.4579999306 F109.8758523043
G01 X0.0000000000 Y0.0000000000 Z1.4084031917 F109.8758523043
G01 X0.0000000000 Y0.0000000000 Z1.3588064528 F109.8758523043
G01 X0.0000000000 Y0.0000000000 Z1.3092097139 F109.8758523043
G01 X0.0000000000 Y0.0000000000 Z1.2596129751 F109.8758523043
G01 X0.0000000000 Y0.0000000000 Z1.2100162362 F109.8758523043
G01 X0.0000000000 Y0.0000000000 Z1.1604194973 F109.8758523043
G01 X0.0000000000 Y0.0000000000 Z1.1108227584 F109.8758523043
G01 X0.0000000000 Y0.0000000000 Z1.0612260195 F109.8758523043
G01 X0.0000000000 Y0.0000000000 Z1.0116292806 F109.8758523043
G01 X0.0000000000 Y0.0000000000 Z0.9620325417 F109.8758523043
G01 X0.0000000000 Y0.0000000000 Z0.9582174080 F109.8758523043
G01 X0.0000000000 Y0.0000000000 Z0.9197198203 F92.3942103256
G01 X0.0000000000 Y0.0000000000 Z0.8701230814 F109.8758523043
G01 X0.0000000000 Y0.0000000000 Z0.8205263426 F109.8758523043
G01 X0.0000000000 Y0.0000000000 Z0.6087896106 F92.3942103256
G01 X0.0000000000 Y0.0000000000 Z0.5973442093 F109.8758523043
G01 X0.0000000000 Y0.0000000000 Z0.5095961328 F109.8758523043
G01 X0.0000000000 Y0.0000000000 Z0.2120156995 F109.8758523043
G01 X0.0000000000 Y0.0000000000 Z0.1006747852 F123.3314742372
G01 X0.0000000000 Y0.0000000000 Z0.4346975279 F123.3314742372
G01 X0.0000000000 Y0.0000000000 Z0.5090086728 F82.3138835427
G01 X0.0000000000 Y0.0000000000 Z0.7319421074 F82.3138835427
G01 X0.0000000000 Y0.0000000000 Z0.8153535473 F92.3942103256
G01 X0.0000000000 Y0.0000000000 Z1.0655878669 F92.3942103256
G01 X0.0000000000 Y0.0000000000 Z1.1647813447 F109.8758523043
G01 X0.0000000000 Y0.0000000000 Z1.8629508229 F109.8758523043
G01 X0.0000000000 Y0.0000000000 Z1.9953582303 F146.6666666667
G01 X0.0000000000 Y0.0000000000 Z2.9273026747 F146.6666666667
G01 X0.0000000000 Y0.0000000000 Z3.0759249645 F164.6277670854
G01 X0.0000000000 Y0.0000000000 Z5.9340459208 F164.6277670854
G01 X0.0000000000 Y0.0000000000 Z4.1677271698 F164.6277670854
G01 X0.0000000000 Y0.0000000000 Z4.1639120360 F27.4689630761
G04 P0.0450
G04 P0.8200
G01 X0.0000000000 Y0.0000000000 Z0.6095674660 F246.6629484744
G01 X0.0000000000 Y0.0000000000 Z0.5924380946 F246.6629484744
G01 X0.0000000000 Y0.0000000000 Z0.5410499803 F61.6657371186
G01 X0.0000000000 Y0.0000000000 Z0.1492156090 F61.6657371186
G01 X0.0000000000 Y0.0000000000 Z0.2235267539 F82.3138835427
G01 X0.0000000000 Y0.0000000000 Z0.4464601885 F82.3138835427
G01 X0.0000000000 Y0.0000000000 Z0.5298716284 F92.3942103256
G01 X0.0000000000 Y0.0000000000 Z0.7801059480 F92.3942103256
G01 X0.0000000000 Y0.0000000000 Z0.8914468622 F123.3314742372
G01 X0.0000000000 Y0.0000000000 Z0.9471173194 F123.3314742372
G01 X0.0000000000 Y0.0000000000 Z1.0027877765 F123.3314742372
G01 X0.0000000000 Y0.0000000000 Z1.0584582336 F123.3314742372
G01 X0.0000000000 Y0.0000000000 Z1.1141286907 F123.3314742372
G01 X0.0000000000 Y0.0000000000 Z1.1697991478 F123.3314742372
G01 X0.0000000000 Y0.0000000000 Z1.2254696050 F123.3314742372
G01 X0.0000000000 Y0.0000000000 Z1.2468813192 F123.3314742372
G01 X0.0000000000 Y0.0000000000 Z1.2811400621 F123.3314742372
G01 X0.0000000000 Y0.0000000000 Z1.3368105192 F123.3314742372
G01 X0.0000000000 Y0.0000000000 Z1.3924809763 F123.3314742372
G01 X0.0000000000 Y0.0000000000 Z1.4481514334 F123.3314742372
G01 X0.0000000000 Y0.0000000000 Z1.5038218906 F123.3314742372
G01 X0.0000000000 Y0.0000000000 Z1.5594923477 F123.3314742372
G01 X0.0000000000 Y0.0000000000 Z1.6151628048 F123.3314742372
G01 X0.0000000000 Y0.0000000000 Z1.6708332619 F123.3314742372
G01 X0.0000000000 Y0.0000000000 Z1.7265037191 F123.3314742372
G01 X0.0000000000 Y0.0000000000 Z1.7821741762 F123.3314742372
G01 X0.0000000000 Y0.0000000000 Z1.8378446333 F123.3314742372
G01 X0.0000000000 Y0.0000000000 Z1.8935150904 F123.3314742372
G01 X0.0000000000 Y0.0000000000 Z1.9491855475 F123.3314742372
G01 X0.0000000000 Y0.0000000000 Z2.0048560047 F123.3314742372
G01 X0.0000000000 Y0.0000000000 Z2.0605264618 F123.3314742372
G01 X0.0000000000 Y0.0000000000 Z2.1161969189 F123.3314742372
G01 X0.0000000000 Y0.0000000000 Z2.1204792618 F123.3314742372
G01 X0.0000000000 Y0.0000000000 Z2.1636913428 F103.7089945740
G01 X0.0000000000 Y0.0000000000 Z2.2193617999 F123.3314742372
G01 X0.0000000000 Y0.0000000000 Z2.2750322571 F123.3314742372
G01 X0.0000000000 Y0.0000000000 Z2.3307027142 F123.3314742372
G01 X0.0000000000 Y0.0000000000 Z2.5215560723 F103.7089945740
G01 X0.0000000000 Y0.0000000000 Z2.5429677865 F123.3314742372
G01 X0.0000000000 Y0.0000000000 Z2.6885674436 F123.3314742372
G01 X0.0000000000 Y0.0000000000 Z2.9669197292 F123.3314742372
G01 X0.0000000000 Y0.0000000000 Z3.1543836552 F138.4348991933
G01 X0.0000000000 Y0.0000000000 Z3.4668235319 F138.4348991933
G01 X0.0000000000 Y0.0000000000 Z3.5919406917 F92.3942103256
G01 X0.0000000000 Y0.0000000000 Z3.8004692914 F92.3942103256
G01 X0.0000000000 Y0.0000000000 Z3.6600300279 F103.7089945740
G01 X0.0000000000 Y0.0000000000 Z3.4259645887 F103.7089945740
G01 X0.0000000000 Y0.0000000000 Z3.2589532174 F123.3314742372
G01 X0.0000000000 Y0.0000000000 Z2.5309549320 F123.3314742372
G01 X0.0000000000 Y0.0000000000 Z2.4194882147 F82.3138835427
G01 X0.0000000000 Y0.0000000000 Z1.9336076521 F82.3138835427
G01 X0.0000000000 Y0.0000000000 Z1.8343020965 F73.3333333333
G01 X0.0000000000 Y0.0000000000 Z0.5891632076 F73.3333333333
G01 X0.0000000000 Y0.0000000000 Z-0.1925497553 F73.3333333333
G01 X0.0000000000 Y0.0000000000 Z-0.1874514087 F24.4720639931
G04 P0.0680
G04 P0.7950
G01 X0.0000000000 Y0.0000000000 Z3.3583284757 F246.6629484744
G01 X0.0000000000 Y0.0000000000 Z3.3840225328 F246.6629484744
G01 X0.0000000000 Y0.0000000000 Z3.4611047042 F61.6657371186
G01 X0.0000000000 Y0.0000000000 Z3.8251038469 F61.6657371186
G01 X0.0000000000 Y0.0000000000 Z3.7136371296 F82.3138835427
G01 X0.0000000000 Y0.0000000000 Z3.5278592674 F82.3138835427
G01 X0.0000000000 Y0.0000000000 Z3.4027421076 F92.3942103256
G01 X0.0000000000 Y0.0000000000 Z3.1942135079 F92.3942103256
G01 X0.0000000000 Y0.0000000000 Z3.0272021366 F123.3314742372
G01 X0.0000000000 Y0.0000000000 Z2.9715316795 F123.3314742372
G01 X0.0000000000 Y0.0000000000 Z2.9158612223 F123.3314742372
G01 X0.0000000000 Y0.0000000000 Z2.8601907652 F123.3314742372
G01 X0.0000000000 Y0.0000000000 Z2.8045203081 F123.3314742372
G01 X0.0000000000 Y0.0000000000 Z2.7488498510 F123.3314742372
G01 X0.0000000000 Y0.0000000000 Z2.7188734510 F123.3314742372
G01 X0.0000000000 Y0.0000000000 Z2.6931793938 F123.3314742372
G01 X0.0000000000 Y0.0000000000 Z2.6375089367 F123.3314742372
G01 X0.0000000000 Y0.0000000000 Z2.5818384796 F123.3314742372
G01 X0.0000000000 Y0.0000000000 Z2.5261680225 F123.3314742372
G01 X0.0000000000 Y0.0000000000 Z2.4704975654 F123.3314742372
G01 X0.0000000000 Y0.0000000000 Z2.4148271082 F123.3314742372
G01 X0.0000000000 Y0.0000000000 Z2.3591566511 F123.3314742372
G01 X0.0000000000 Y0.0000000000 Z2.3034861940 F123.3314742372
G01 X0.0000000000 Y0.0000000000 Z2.2478157369 F123.3314742372
G01 X0.0000000000 Y0.0000000000 Z2.1921452798 F123.3314742372
G01 X0.0000000000 Y0.0000000000 Z2.1364748226 F123.3314742372
G01 X0.0000000000 Y0.0000000000 Z2.0808043655 F123.3314742372
G01 X0.0000000000 Y0.0000000000 Z2.0251339084 F123.3314742372
G01 X0.0000000000 Y0.0000000000 Z1.9694634513 F123.3314742372
G01 X0.0000000000 Y0.0000000000 Z1.9137929942 F123.3314742372
G01 X0.0000000000 Y0.0000000000 Z1.8581225370 F123.3314742372
G01 X0.0000000000 Y0.0000000000 Z1.8538401942 F123.3314742372
G01 X0.0000000000 Y0.0000000000 Z1.8106281131 F103.7089945740
G01 X0.0000000000 Y0.0000000000 Z1.7549576560 F123.3314742372
G01 X0.0000000000 Y0.0000000000 Z1.6992871989 F123.3314742372
G01 X0.0000000000 Y0.0000000000 Z1.6436167417 F123.3314742372
G01 X0.0000000000 Y0.0000000000 Z1.5879462846 F123.3314742372
G01 X0.0000000000 Y0.0000000000 Z1.4439060144 F103.7089945740
G01 X0.0000000000 Y0.0000000000 Z1.4139296144 F123.3314742372
G01 X0.0000000000 Y0.0000000000 Z1.2212241859 F123.3314742372
G01 X0.0000000000 Y0.0000000000 Z0.9985423574 F123.3314742372
G01 X0.0000000000 Y0.0000000000 Z0.7485904561 F138.4348991933
G01 X0.0000000000 Y0.0000000000 Z0.4986385548 F138.4348991933
G01 X0.0000000000 Y0.0000000000 Z0.3318156750 F92.3942103256
G01 X0.0000000000 Y0.0000000000 Z0.1649927953 F92.3942103256
G01 X0.0000000000 Y0.0000000000 Z0.3522451466 F103.7089945740
G01 X0.0000000000 Y0.0000000000 Z0.5394974979 F103.7089945740
G01 X0.0000000000 Y0.0000000000 Z0.7621793264 F123.3314742372
G01 X0.0000000000 Y0.0000000000 Z1.4345071547 F123.3314742372
G01 X0.0000000000 Y0.0000000000 Z1.5831294444 F82.3138835427
G01 X0.0000000000 Y0.0000000000 Z1.7317517341 F82.3138835427
G04 P0.1080
G04 P0.1080
G01 X0.0000000000 Y0.0000000000 Z1.8641591415 F73.3333333333
G01 X0.0000000000 Y0.0000000000 Z2.2639276601 F73.3333333333
G01 X0.0000000000 Y0.0000000000 Z2.4406703445 F97.8882559725
G01 X0.0000000000 Y0.0000000000 Z2.6174130289 F97.8882559725
G01 X0.0000000000 Y0.0000000000 Z2.7660353186 F82.3138835427
G01 X0.0000000000 Y0.0000000000 Z3.2404833973 F82.3138835427
G01 X0.0000000000 Y0.0000000000 Z3.8092494677 F82.3138835427
G01 X0.0000000000 Y0.0000000000 Z3.7650637966 F24.4720639931
G01 X0.0000000000 Y0.0000000000 Z3.7123808810 F24.4720639931
G04 P0.8620
G01 X0.0000000000 Y0.0000000000 Z0.1922950538 F246.6629484744
G01 X0.0000000000 Y0.0000000000 Z0.2436831681 F246.6629484744
G01 X0.0000000000 Y0.0000000000 Z0.4191793211 F109.8758523043
G01 X0.0000000000 Y0.0000000000 Z0.6175662766 F109.8758523043
G01 X0.0000000000 Y0.0000000000 Z0.8402481051 F123.3314742372
G01 X0.0000000000 Y0.0000000000 Z1.0629299336 F123.3314742372
G01 X0.0000000000 Y0.0000000000 Z1.2115522233 F82.3138835427
G01 X0.0000000000 Y0.0000000000 Z1.3601745131 F82.3138835427
G01 X0.0000000000 Y0.0000000000 Z1.5269973928 F92.3942103256
G01 X0.0000000000 Y0.0000000000 Z1.6938202726 F92.3942103256
G01 X0.0000000000 Y0.0000000000 Z1.8922072281 F109.8758523043
G01 X0.0000000000 Y0.0000000000 Z2.4911832285 F109.8758523043
G01 X0.0000000000 Y0.0000000000 Z2.6235906359 F73.3333333333
G01 X0.0000000000 Y0.0000000000 Z3.0233591544 F73.3333333333
G01 X0.0000000000 Y0.0000000000 Z3.1413207440 F65.3325726636
G01 X0.0000000000 Y0.0000000000 Z4.2301969550 F65.3325726636
G01 X0.0000000000 Y0.0000000000 Z3.5428438468 F65.3325726636
G01 X0.0000000000 Y0.0000000000 Z3.5333060124 F27.4689630761
G04 P0.8620
G01 X0.0000000000 Y0.0000000000 Z1.4263933275 F246.6629484744
G01 X0.0000000000 Y0.0000000000 Z0.0132201852 F246.6629484744
G01 X0.0000000000 Y0.0000000000 Z0.0646082995 F246.6629484744
G01 X0.0000000000 Y0.0000000000 Z0.1523563760 F54.9379261521
G01 X0.0000000000 Y0.0000000000 Z0.4518443762 F54.9379261521
G01 X0.0000000000 Y0.0000000000 Z0.5842517836 F73.3333333333
G01 X0.0000000000 Y0.0000000000 Z0.7166591910 F73.3333333333
G01 X0.0000000000 Y0.0000000000 Z0.8652814807 F82.3138835427
G01 X0.0000000000 Y0.0000000000 Z1.0139037705 F82.3138835427
G01 X0.0000000000 Y0.0000000000 Z1.2122907260 F109.8758523043
G01 X0.0000000000 Y0.0000000000 Z1.2618874649 F109.8758523043
G01 X0.0000000000 Y0.0000000000 Z1.3114842038 F109.8758523043
G01 X0.0000000000 Y0.0000000000 Z1.3610809427 F109.8758523043
G01 X0.0000000000 Y0.0000000000 Z1.4106776816 F109.8758523043
G01 X0.0000000000 Y0.0000000000 Z1.4526441529 F109.8758523043
G01 X0.0000000000 Y0.0000000000 Z1.4602744204 F109.8758523043
G01 X0.0000000000 Y0.0000000000 Z1.5098711593 F109.8758523043
G01 X0.0000000000 Y0.0000000000 Z1.5594678982 F109.8758523043
G01 X0.0000000000 Y0.0000000000 Z1.6090646371 F109.8758523043
G01 X0.0000000000 Y0.0000000000 Z1.6586613760 F109.8758523043
G01 X0.0000000000 Y0.0000000000 Z1.7082581149 F109.8758523043
G01 X0.0000000000 Y0.0000000000 Z1.7578548538 F109.8758523043
G01 X0.0000000000 Y0.0000000000 Z1.8074515927 F109.8758523043
G01 X0.0000000000 Y0.0000000000 Z1.8570483315 F109.8758523043
G01 X0.0000000000 Y0.0000000000 Z1.9066450704 F109.8758523043
G01 X0.0000000000 Y0.0000000000 Z1.9562418093 F109.8758523043
G01 X0.0000000000 Y0.0000000000 Z2.0058385482 F109.8758523043
G01 X0.0000000000 Y0.0000000000 Z2.0554352871 F109.8758523043
G01 X0.0000000000 Y0.0000000000 Z2.1050320260 F109.8758523043
G01 X0.0000000000 Y0.0000000000 Z2.1546287649 F109.8758523043
G01 X0.0000000000 Y0.0000000000 Z2.2042255038 F109.8758523043
G01 X0.0000000000 Y0.0000000000 Z2.2080406375 F109.8758523043
G01 X0.0000000000 Y0.0000000000 Z2.2465382251 F92.3942103256
G01 X0.0000000000 Y0.0000000000 Z2.2961349640 F109.8758523043
G01 X0.0000000000 Y0.0000000000 Z2.3457317029 F109.8758523043
G01 X0.0000000000 Y0.0000000000 Z2.3953284418 F109.8758523043
G01 X0.0000000000 Y0.0000000000 Z2.4449251807 F109.8758523043
G01 X0.0000000000 Y0.0000000000 Z2.4945219196 F109.8758523043
G01 X0.0000000000 Y0.0000000000 Z2.5811414918 F92.3942103256
G01 X0.0000000000 Y0.0000000000 Z2.6231079631 F109.8758523043
G01 X0.0000000000 Y0.0000000000 Z2.8291251862 F109.8758523043
G01 X0.0000000000 Y0.0000000000 Z2.9779154029 F109.8758523043
G01 X0.0000000000 Y0.0000000000 Z3.2562676885 F123.3314742372
G01 X0.0000000000 Y0.0000000000 Z3.4232790598 F123.3314742372
G01 X0.0000000000 Y0.0000000000 Z3.6090569220 F82.3138835427
G01 X0.0000000000 Y0.0000000000 Z3.7205236393 F82.3138835427
G01 X0.0000000000 Y0.0000000000 Z3.9290522390 F92.3942103256
G01 X0.0000000000 Y0.0000000000 Z3.8039350792 F92.3942103256
G01 X0.0000000000 Y0.0000000000 Z3.5559513847 F109.8758523043
G01 X0.0000000000 Y0.0000000000 Z3.0065721232 F109.8758523043
G01 X0.0000000000 Y0.0000000000 Z2.6755536047 F146.6666666667
G01 X0.0000000000 Y0.0000000000 Z1.9422202714 F146.6666666667
G01 X0.0000000000 Y0.0000000000 Z1.5706645470 F164.6277670854
G01 X0.0000000000 Y0.0000000000 Z-1.1102529100 F164.6277670854
G01 X0.0000000000 Y0.0000000000 Z0.6103359057 F164.6277670854
G01 X0.0000000000 Y0.0000000000 Z0.6217813070 F27.4689630761
G04 P0.1100
G04 P0.7500
G01 X0.0000000000 Y0.0000000000 Z4.1333024485 F246.6629484744
G01 X0.0000000000 Y0.0000000000 Z4.0733496485 F246.6629484744
G01 X0.0000000000 Y0.0000000000 Z3.9491617057 F61.6657371186
G01 X0.0000000000 Y0.0000000000 Z3.6408330201 F61.6657371186
G01 X0.0000000000 Y0.0000000000 Z3.4550551579 F82.3138835427
G01 X0.0000000000 Y0.0000000000 Z3.3435884406 F82.3138835427
G01 X0.0000000000 Y0.0000000000 Z3.1350598409 F92.3942103256
G01 X0.0000000000 Y0.0000000000 Z3.0099426811 F92.3942103256
G01 X0.0000000000 Y0.0000000000 Z2.7315903955 F123.3314742372
G01 X0.0000000000 Y0.0000000000 Z2.6759199384 F123.3314742372
G01 X0.0000000000 Y0.0000000000 Z2.6202494813 F123.3314742372
G01 X0.0000000000 Y0.0000000000 Z2.5645790241 F123.3314742372
G01 X0.0000000000 Y0.0000000000 Z2.5089085670 F123.3314742372
G01 X0.0000000000 Y0.0000000000 Z2.4532381099 F123.3314742372
G01 X0.0000000000 Y0.0000000000 Z2.3975676528 F123.3314742372
G01 X0.0000000000 Y0.0000000000 Z2.3418971957 F123.3314742372
G01 X0.0000000000 Y0.0000000000 Z2.2862267385 F123.3314742372
G01 X0.0000000000 Y0.0000000000 Z2.2305562814 F123.3314742372
G01 X0.0000000000 Y0.0000000000 Z2.1748858243 F123.3314742372
G01 X0.0000000000 Y0.0000000000 Z2.1192153672 F123.3314742372
G01 X0.0000000000 Y0.0000000000 Z2.0635449101 F123.3314742372
G01 X0.0000000000 Y0.0000000000 Z2.0078744529 F123.3314742372
G01 X0.0000000000 Y0.0000000000 Z1.9522039958 F123.3314742372
G01 X0.0000000000 Y0.0000000000 Z1.8965335387 F123.3314742372
G01 X0.0000000000 Y0.0000000000 Z1.8408630816 F123.3314742372
G01 X0.0000000000 Y0.0000000000 Z1.7851926245 F123.3314742372
G01 X0.0000000000 Y0.0000000000 Z1.7295221673 F123.3314742372
G01 X0.0000000000 Y0.0000000000 Z1.6738517102 F123.3314742372
G01 X0.0000000000 Y0.0000000000 Z1.6695693674 F123.3314742372
G01 X0.0000000000 Y0.0000000000 Z1.6263572863 F103.7089945740
G01 X0.0000000000 Y0.0000000000 Z1.5706868292 F123.3314742372
G01 X0.0000000000 Y0.0000000000 Z1.5150163720 F123.3314742372
G01 X0.0000000000 Y0.0000000000 Z1.4593459149 F123.3314742372
G01 X0.0000000000 Y0.0000000000 Z1.4036754578 F123.3314742372
G01 X0.0000000000 Y0.0000000000 Z1.3480050007 F123.3314742372
G01 X0.0000000000 Y0.0000000000 Z1.2923345436 F123.3314742372
G01 X0.0000000000 Y0.0000000000 Z1.2419204490 F103.7089945740
G01 X0.0000000000 Y0.0000000000 Z1.1862499919 F123.3314742372
G01 X0.0000000000 Y0.0000000000 Z0.9078977062 F123.3314742372
G01 X0.0000000000 Y0.0000000000 Z0.7965567920 F123.3314742372
G01 X0.0000000000 Y0.0000000000 Z0.4216289400 F138.4348991933
G01 X0.0000000000 Y0.0000000000 Z0.2966529894 F138.4348991933
G01 X0.0000000000 Y0.0000000000 Z0.0464186697 F92.3942103256
G01 X0.0000000000 Y0.0000000000 Z0.1298301096 F92.3942103256
G01 X0.0000000000 Y0.0000000000 Z0.4107086366 F103.7089945740
G01 X0.0000000000 Y0.0000000000 Z0.5043348122 F103.7089945740
G01 X0.0000000000 Y0.0000000000 Z0.8383575550 F123.3314742372
G01 X0.0000000000 Y0.0000000000 Z1.3993444690 F123.3314742372
G01 X0.0000000000 Y0.0000000000 Z1.6222779036 F82.3138835427
G01 X0.0000000000 Y0.0000000000 Z1.9966917489 F82.3138835427
G01 X0.0000000000 Y0.0000000000 Z2.1953028600 F73.3333333333
G01 X0.0000000000 Y0.0000000000 Z3.3615065637 F73.3333333333
G01 X0.0000000000 Y0.0000000000 Z4.1228491563 F73.3333333333
G01 X0.0000000000 Y0.0000000000 Z4.1109530141 F24.4720639931
G04 P0.1330
G04 P0.7250
G01 X0.0000000000 Y0.0000000000 Z0.6079965583 F246.6629484744
G01 X0.0000000000 Y0.0000000000 Z0.5394790726 F246.6629484744
G01 X0.0000000000 Y0.0000000000 Z0.3895970727 F61.6657371186
G01 X0.0000000000 Y0.0000000000 Z0.1091036157 F61.6657371186
G01 X0.0000000000 Y0.0000000000 Z0.3320370503 F82.3138835427
G01 X0.0000000000 Y0.0000000000 Z0.4063481951 F82.3138835427
G01 X0.0000000000 Y0.0000000000 Z0.6565825148 F92.3942103256
G01 X0.0000000000 Y0.0000000000 Z0.7399939546 F92.3942103256
G01 X0.0000000000 Y0.0000000000 Z1.0740166974 F123.3314742372
G01 X0.0000000000 Y0.0000000000 Z1.1296871545 F123.3314742372
G01 X0.0000000000 Y0.0000000000 Z1.1853576116 F123.3314742372
G01 X0.0000000000 Y0.0000000000 Z1.2410280687 F123.3314742372
G01 X0.0000000000 Y0.0000000000 Z1.2495927544 F123.3314742372
G01 X0.0000000000 Y0.0000000000 Z1.2966985258 F123.3314742372
G01 X0.0000000000 Y0.0000000000 Z1.3523689830 F123.3314742372
G01 X0.0000000000 Y0.0000000000 Z1.4080394401 F123.3314742372
G01 X0.0000000000 Y0.0000000000 Z1.4637098972 F123.3314742372
G01 X0.0000000000 Y0.0000000000 Z1.5193803543 F123.3314742372
G01 X0.0000000000 Y0.0000000000 Z1.5750508114 F123.3314742372
G01 X0.0000000000 Y0.0000000000 Z1.6307212686 F123.3314742372
G01 X0.0000000000 Y0.0000000000 Z1.6863917257 F123.3314742372
G01 X0.0000000000 Y0.0000000000 Z1.7420621828 F123.3314742372
G01 X0.0000000000 Y0.0000000000 Z1.7977326399 F123.3314742372
G01 X0.0000000000 Y0.0000000000 Z1.8534030971 F123.3314742372
G01 X0.0000000000 Y0.0000000000 Z1.9090735542 F123.3314742372
G01 X0.0000000000 Y0.0000000000 Z1.9647440113 F123.3314742372
G01 X0.0000000000 Y0.0000000000 Z2.0204144684 F123.3314742372
G01 X0.0000000000 Y0.0000000000 Z2.0760849255 F123.3314742372
G01 X0.0000000000 Y0.0000000000 Z2.0803672684 F123.3314742372
G01 X0.0000000000 Y0.0000000000 Z2.1235793495 F103.7089945740
G01 X0.0000000000 Y0.0000000000 Z2.1792498066 F123.3314742372
G01 X0.0000000000 Y0.0000000000 Z2.2349202637 F123.3314742372
G01 X0.0000000000 Y0.0000000000 Z2.2905907208 F123.3314742372
G01 X0.0000000000 Y0.0000000000 Z2.3462611779 F123.3314742372
G01 X0.0000000000 Y0.0000000000 Z2.4019316351 F123.3314742372
G01 X0.0000000000 Y0.0000000000 Z2.4576020922 F123.3314742372
G01 X0.0000000000 Y0.0000000000 Z2.5132725493 F123.3314742372
G01 X0.0000000000 Y0.0000000000 Z2.5168735561 F103.7089945740
G01 X0.0000000000 Y0.0000000000 Z2.5811086989 F123.3314742372
G01 X0.0000000000 Y0.0000000000 Z2.9065667559 F123.3314742372
G01 X0.0000000000 Y0.0000000000 Z2.9622372130 F123.3314742372
G01 X0.0000000000 Y0.0000000000 Z3.3996530403 F138.4348991933
G01 X0.0000000000 Y0.0000000000 Z3.4621410157 F138.4348991933
G01 X0.0000000000 Y0.0000000000 Z3.7540810552 F92.3942103256
G01 X0.0000000000 Y0.0000000000 Z3.7123753353 F92.3942103256
G01 X0.0000000000 Y0.0000000000 Z3.3846837205 F103.7089945740
G01 X0.0000000000 Y0.0000000000 Z3.3378706327 F103.7089945740
G01 X0.0000000000 Y0.0000000000 Z2.9481774328 F123.3314742372
G01 X0.0000000000 Y0.0000000000 Z2.4428609759 F123.3314742372
G01 X0.0000000000 Y0.0000000000 Z2.1827719689 F82.3138835427
G01 X0.0000000000 Y0.0000000000 Z2.1456163964 F82.3138835427
G04 P0.1890
G04 P0.0270
G01 X0.0000000000 Y0.0000000000 Z1.9139034335 F73.3333333333
G01 X0.0000000000 Y0.0000000000 Z1.6134404705 F73.3333333333
G01 X0.0000000000 Y0.0000000000 Z1.3041407728 F97.8882559725
G01 X0.0000000000 Y0.0000000000 Z1.2599551017 F97.8882559725
G01 X0.0000000000 Y0.0000000000 Z0.9998660947 F82.3138835427
G01 X0.0000000000 Y0.0000000000 Z0.6140197656 F82.3138835427
G01 X0.0000000000 Y0.0000000000 Z0.0681186629 F82.3138835427
G01 X0.0000000000 Y0.0000000000 Z0.1454435873 F24.4720639931
G01 X0.0000000000 Y0.0000000000 Z0.1717850451 F24.4720639931
G04 P0.8560
G01 X0.0000000000 Y0.0000000000 Z3.7432589866 F246.6629484744
